;FLAVOR:Marlin
;TIME:11500
;Filament used: 10.4784m
;Layer height: 0.28
;MINX:67.7
;MINY:50.2
;MINZ:0.28
;MAXX:152.3
;MAXY:169.8
;MAXZ:40.04
;Generated with Cura_SteamEngine 5.2.1
M82 ;absolute extrusion mode
; Ender 3 Custom Start G-code
G92 E0 ; Reset Extruder
G28 ; Home all axes
M104 S175 ; Start heating up the nozzle most of the way
M190 S60 ; Start heating the bed, wait until target temperature reached
M109 S200 ; Finish heating the nozzle
G1 Z2.0 F3000 ; Move Z Axis up little to prevent scratching of Heat Bed
G1 X0.1 Y20 Z0.3 F5000.0 ; Move to start position
G1 X0.1 Y200.0 Z0.3 F1500.0 E15 ; Draw the first line
G1 X0.4 Y200.0 Z0.3 F5000.0 ; Move to side a little
G1 X0.4 Y20 Z0.3 F1500.0 E30 ; Draw the second line
G92 E0 ; Reset Extruder
G1 Z2.0 F3000 ; Move Z Axis up little to prevent scratching of Heat Bed
G1 X5 Y20 Z0.3 F5000.0 ; Move over to prevent blob squish
G92 E0
G92 E0
G1 F1500 E-6.5
;LAYER_COUNT:143
;LAYER:0
M107
G0 F6000 X69.097 Y53.546 Z0.28
;TYPE:SKIRT
G1 F1500 E0
G1 F1200 X69.58 Y52.922 E0.03674
G1 X70.123 Y52.349 E0.0735
G1 X70.722 Y51.834 E0.11029
G1 X71.37 Y51.383 E0.14705
G1 X72.061 Y50.999 E0.18386
G1 X72.786 Y50.687 E0.22061
G1 X73.539 Y50.45 E0.25737
G1 X74.313 Y50.291 E0.29416
G1 X75.098 Y50.21 E0.33091
G1 X75.5 Y50.2 E0.34963
G1 X144.5 Y50.2 E3.56256
G1 X145.289 Y50.24 E3.59935
G1 X146.069 Y50.359 E3.63609
G1 X146.834 Y50.557 E3.67288
G1 X147.574 Y50.831 E3.70963
G1 X148.283 Y51.179 E3.74641
G1 X148.954 Y51.597 E3.78322
G1 X149.578 Y52.08 E3.81996
G1 X150.151 Y52.623 E3.85672
G1 X150.666 Y53.222 E3.8935
G1 X151.117 Y53.87 E3.93026
G1 X151.501 Y54.561 E3.96707
G1 X151.813 Y55.286 E4.00383
G1 X152.05 Y56.039 E4.04059
G1 X152.209 Y56.813 E4.07738
G1 X152.29 Y57.598 E4.11413
G1 X152.3 Y58 E4.13285
G1 X152.3 Y162 E8.97553
G1 X152.26 Y162.789 E9.01231
G1 X152.141 Y163.569 E9.04905
G1 X151.943 Y164.334 E9.08585
G1 X151.669 Y165.074 E9.12259
G1 X151.321 Y165.783 E9.15937
G1 X150.903 Y166.454 E9.19618
G1 X150.42 Y167.078 E9.23292
G1 X149.877 Y167.651 E9.26968
G1 X149.278 Y168.166 E9.30646
G1 X148.63 Y168.617 E9.34323
G1 X147.939 Y169.001 E9.38004
G1 X147.214 Y169.313 E9.41679
G1 X146.461 Y169.55 E9.45355
G1 X145.687 Y169.709 E9.49034
G1 X144.902 Y169.79 E9.52709
G1 X144.5 Y169.8 E9.54581
G1 X75.5 Y169.8 E12.75874
G1 X74.711 Y169.76 E12.79553
G1 X73.931 Y169.641 E12.83227
G1 X73.166 Y169.443 E12.86906
G1 X72.426 Y169.169 E12.90581
G1 X71.717 Y168.821 E12.94258
G1 X71.046 Y168.403 E12.9794
G1 X70.422 Y167.92 E13.01614
G1 X69.849 Y167.377 E13.0529
G1 X69.334 Y166.778 E13.08968
G1 X68.883 Y166.13 E13.12644
G1 X68.499 Y165.439 E13.16325
G1 X68.187 Y164.714 E13.20001
G1 X67.95 Y163.961 E13.23676
G1 X67.791 Y163.187 E13.27356
G1 X67.71 Y162.402 E13.3103
G1 X67.7 Y162 E13.32903
G1 X67.7 Y58 E18.1717
G1 X67.74 Y57.211 E18.20849
G1 X67.859 Y56.431 E18.24523
G1 X68.057 Y55.666 E18.28203
G1 X68.331 Y54.926 E18.31877
G1 X68.679 Y54.217 E18.35555
G1 X69.097 Y53.546 E18.39236
G0 F6000 X69.494 Y53.677
G1 F1200 X69.975 Y53.077 E18.42817
G1 X70.516 Y52.53 E18.46399
G1 X71.111 Y52.042 E18.49982
G1 X71.753 Y51.619 E18.53562
G1 X72.436 Y51.264 E18.57146
G1 X73.151 Y50.983 E18.60724
G1 X73.893 Y50.777 E18.64309
G1 X74.651 Y50.649 E18.67889
G1 X75.5 Y50.6 E18.71849
G1 X144.5 Y50.6 E21.93142
G1 X145.268 Y50.64 E21.96723
G1 X146.028 Y50.759 E22.00305
G1 X146.771 Y50.957 E22.03885
G1 X147.49 Y51.231 E22.07468
G1 X148.176 Y51.578 E22.11048
G1 X148.823 Y51.994 E22.14629
G1 X149.423 Y52.475 E22.1821
G1 X149.97 Y53.016 E22.21793
G1 X150.458 Y53.611 E22.25376
G1 X150.881 Y54.253 E22.28956
G1 X151.236 Y54.936 E22.3254
G1 X151.517 Y55.651 E22.36117
G1 X151.723 Y56.393 E22.39703
G1 X151.851 Y57.151 E22.43283
G1 X151.9 Y58 E22.47242
G1 X151.9 Y162 E27.3151
G1 X151.86 Y162.768 E27.35091
G1 X151.741 Y163.528 E27.38673
G1 X151.543 Y164.271 E27.42253
G1 X151.269 Y164.99 E27.45836
G1 X150.922 Y165.676 E27.49416
G1 X150.506 Y166.323 E27.52998
G1 X150.025 Y166.923 E27.56579
G1 X149.484 Y167.47 E27.60161
G1 X148.889 Y167.958 E27.63744
G1 X148.247 Y168.381 E27.67324
G1 X147.564 Y168.736 E27.70908
G1 X146.849 Y169.017 E27.74486
G1 X146.107 Y169.223 E27.78071
G1 X145.349 Y169.351 E27.81651
G1 X144.5 Y169.4 E27.85611
G1 X75.5 Y169.4 E31.06904
G1 X74.732 Y169.36 E31.10485
G1 X73.972 Y169.241 E31.14067
G1 X73.229 Y169.043 E31.17647
G1 X72.51 Y168.769 E31.2123
G1 X71.824 Y168.422 E31.2481
G1 X71.177 Y168.006 E31.28391
G1 X70.577 Y167.525 E31.31972
G1 X70.03 Y166.984 E31.35555
G1 X69.542 Y166.389 E31.39138
G1 X69.119 Y165.747 E31.42718
G1 X68.764 Y165.064 E31.46302
G1 X68.483 Y164.349 E31.49879
G1 X68.277 Y163.607 E31.53465
G1 X68.149 Y162.849 E31.57045
G1 X68.1 Y162 E31.61004
G1 X68.1 Y58 E36.45272
G1 X68.14 Y57.232 E36.48853
G1 X68.259 Y56.472 E36.52435
G1 X68.457 Y55.729 E36.56015
G1 X68.731 Y55.01 E36.59598
G1 X69.078 Y54.324 E36.63178
G1 X69.494 Y53.677 E36.6676
G0 F6000 X69.892 Y53.811
G1 F1200 X70.371 Y53.237 E36.70241
G1 X70.908 Y52.716 E36.73725
G1 X71.498 Y52.257 E36.77206
G1 X72.134 Y51.862 E36.80692
G1 X72.808 Y51.538 E36.84174
G1 X73.513 Y51.288 E36.87657
G1 X74.241 Y51.114 E36.91142
G1 X74.983 Y51.019 E36.94626
G1 X75.5 Y51 E36.97035
G1 X144.5 Y51 E40.18327
G1 X145.247 Y51.04 E40.21811
G1 X145.985 Y51.159 E40.25292
G1 X146.707 Y51.357 E40.28778
G1 X147.403 Y51.63 E40.32259
G1 X148.066 Y51.977 E40.35743
G1 X148.689 Y52.392 E40.39229
G1 X149.263 Y52.871 E40.4271
G1 X149.784 Y53.408 E40.46194
G1 X150.243 Y53.998 E40.49675
G1 X150.638 Y54.634 E40.53161
G1 X150.962 Y55.308 E40.56643
G1 X151.212 Y56.013 E40.60126
G1 X151.386 Y56.741 E40.63612
G1 X151.481 Y57.483 E40.67095
G1 X151.5 Y58 E40.69504
G1 X151.5 Y162 E45.53772
G1 X151.46 Y162.747 E45.57255
G1 X151.341 Y163.485 E45.60736
G1 X151.143 Y164.207 E45.64222
G1 X150.87 Y164.903 E45.67703
G1 X150.523 Y165.566 E45.71188
G1 X150.108 Y166.189 E45.74673
G1 X149.629 Y166.763 E45.78154
G1 X149.092 Y167.284 E45.81638
G1 X148.502 Y167.743 E45.85119
G1 X147.866 Y168.138 E45.88605
G1 X147.192 Y168.462 E45.92087
G1 X146.487 Y168.712 E45.95571
G1 X145.759 Y168.886 E45.99056
G1 X145.017 Y168.981 E46.02539
G1 X144.5 Y169 E46.04948
G1 X75.5 Y169 E49.26241
G1 X74.753 Y168.96 E49.29724
G1 X74.015 Y168.841 E49.33205
G1 X73.293 Y168.643 E49.36691
G1 X72.597 Y168.37 E49.40173
G1 X71.934 Y168.023 E49.43657
G1 X71.311 Y167.608 E49.47143
G1 X70.737 Y167.129 E49.50624
G1 X70.216 Y166.592 E49.54108
G1 X69.757 Y166.002 E49.57589
G1 X69.362 Y165.366 E49.61075
G1 X69.038 Y164.692 E49.64557
G1 X68.788 Y163.987 E49.6804
G1 X68.614 Y163.259 E49.71525
G1 X68.519 Y162.517 E49.75009
G1 X68.5 Y162 E49.77418
G1 X68.5 Y58 E54.61685
G1 X68.54 Y57.253 E54.65168
G1 X68.659 Y56.515 E54.68649
G1 X68.857 Y55.793 E54.72135
G1 X69.13 Y55.097 E54.75617
G1 X69.477 Y54.434 E54.79101
G1 X69.892 Y53.811 E54.82587
G0 F6000 X70.289 Y53.95
G1 F1200 X70.765 Y53.402 E54.85967
G1 X71.299 Y52.909 E54.89351
G1 X71.884 Y52.479 E54.92732
G1 X72.513 Y52.115 E54.96116
G1 X73.178 Y51.822 E54.99499
G1 X73.871 Y51.604 E55.02882
G1 X74.583 Y51.464 E55.06261
G1 X75.5 Y51.4 E55.10541
G1 X144.5 Y51.4 E58.31834
G1 X145.225 Y51.44 E58.35215
G1 X145.942 Y51.559 E58.386
G1 X146.641 Y51.757 E58.41982
G1 X147.314 Y52.03 E58.45364
G1 X147.953 Y52.375 E58.48746
G1 X148.55 Y52.789 E58.52129
G1 X149.098 Y53.265 E58.55508
G1 X149.591 Y53.799 E58.58893
G1 X150.021 Y54.384 E58.62273
G1 X150.385 Y55.013 E58.65657
G1 X150.678 Y55.678 E58.69041
G1 X150.896 Y56.371 E58.72424
G1 X151.036 Y57.083 E58.75803
G1 X151.1 Y58 E58.80083
G1 X151.1 Y162 E63.64351
G1 X151.06 Y162.725 E63.67732
G1 X150.941 Y163.442 E63.71116
G1 X150.743 Y164.141 E63.74499
G1 X150.47 Y164.814 E63.77881
G1 X150.125 Y165.453 E63.81262
G1 X149.711 Y166.05 E63.84645
G1 X149.235 Y166.598 E63.88025
G1 X148.701 Y167.091 E63.91409
G1 X148.116 Y167.521 E63.9479
G1 X147.487 Y167.885 E63.98174
G1 X146.822 Y168.178 E64.01558
G1 X146.129 Y168.396 E64.0494
G1 X145.417 Y168.536 E64.08319
G1 X144.5 Y168.6 E64.126
G1 X75.5 Y168.6 E67.33892
G1 X74.775 Y168.56 E67.37273
G1 X74.058 Y168.441 E67.40658
G1 X73.359 Y168.243 E67.44041
G1 X72.686 Y167.97 E67.47422
G1 X72.047 Y167.625 E67.50804
G1 X71.45 Y167.211 E67.54187
G1 X70.902 Y166.735 E67.57567
G1 X70.409 Y166.201 E67.60951
G1 X69.979 Y165.616 E67.64332
G1 X69.615 Y164.987 E67.67716
G1 X69.322 Y164.322 E67.71099
G1 X69.104 Y163.629 E67.74482
G1 X68.964 Y162.917 E67.77861
G1 X68.9 Y162 E67.82141
G1 X68.9 Y58 E72.66409
G1 X68.94 Y57.275 E72.6979
G1 X69.059 Y56.558 E72.73174
G1 X69.257 Y55.859 E72.76557
G1 X69.53 Y55.186 E72.79939
G1 X69.875 Y54.547 E72.8332
G1 X70.289 Y53.95 E72.86703
G0 F6000 X70.685 Y54.094
G1 F1200 X71.159 Y53.573 E72.89983
G1 X71.689 Y53.109 E72.93263
G1 X72.268 Y52.709 E72.9654
G1 X72.889 Y52.377 E72.99819
G1 X73.543 Y52.117 E73.03096
G1 X74.223 Y51.933 E73.06376
G1 X74.919 Y51.827 E73.09654
G1 X75.5 Y51.8 E73.12363
G1 X144.5 Y51.8 E76.33656
G1 X145.203 Y51.84 E76.36934
G1 X145.897 Y51.959 E76.40213
G1 X146.572 Y52.157 E76.43489
G1 X147.221 Y52.429 E76.46765
G1 X147.835 Y52.774 E76.50045
G1 X148.406 Y53.185 E76.53321
G1 X148.927 Y53.659 E76.56601
G1 X149.391 Y54.189 E76.59881
G1 X149.791 Y54.768 E76.63157
G1 X150.123 Y55.389 E76.66436
G1 X150.383 Y56.043 E76.69714
G1 X150.567 Y56.723 E76.72994
G1 X150.673 Y57.419 E76.76272
G1 X150.7 Y58 E76.7898
G1 X150.7 Y162 E81.63248
G1 X150.66 Y162.703 E81.66527
G1 X150.541 Y163.397 E81.69805
G1 X150.343 Y164.072 E81.73081
G1 X150.071 Y164.721 E81.76358
G1 X149.726 Y165.335 E81.79637
G1 X149.315 Y165.906 E81.82913
G1 X148.841 Y166.427 E81.86193
G1 X148.311 Y166.891 E81.89473
G1 X147.732 Y167.291 E81.9275
G1 X147.111 Y167.623 E81.96029
G1 X146.457 Y167.883 E81.99306
G1 X145.777 Y168.067 E82.02586
G1 X145.081 Y168.173 E82.05864
G1 X144.5 Y168.2 E82.08572
G1 X75.5 Y168.2 E85.29865
G1 X74.797 Y168.16 E85.33144
G1 X74.103 Y168.041 E85.36423
G1 X73.428 Y167.843 E85.39698
G1 X72.779 Y167.571 E85.42975
G1 X72.165 Y167.226 E85.46255
G1 X71.594 Y166.815 E85.4953
G1 X71.073 Y166.341 E85.5281
G1 X70.609 Y165.811 E85.5609
G1 X70.209 Y165.232 E85.59367
G1 X69.877 Y164.611 E85.62646
G1 X69.617 Y163.957 E85.65923
G1 X69.433 Y163.277 E85.69203
G1 X69.327 Y162.581 E85.72482
G1 X69.3 Y162 E85.7519
G1 X69.3 Y58 E90.59458
G1 X69.34 Y57.297 E90.62736
G1 X69.459 Y56.603 E90.66015
G1 X69.657 Y55.928 E90.69291
G1 X69.929 Y55.279 E90.72567
G1 X70.274 Y54.665 E90.75847
G1 X70.685 Y54.094 E90.79123
G0 F6000 X71.082 Y54.242
G1 F1200 X71.553 Y53.751 E90.82291
G1 X72.078 Y53.317 E90.85463
G1 X72.65 Y52.948 E90.88632
G1 X73.262 Y52.649 E90.91804
G1 X73.904 Y52.424 E90.94972
G1 X74.569 Y52.275 E90.98145
G1 X75.5 Y52.2 E91.02494
G1 X144.5 Y52.2 E94.23787
G1 X145.18 Y52.24 E94.26959
G1 X145.85 Y52.359 E94.30127
G1 X146.502 Y52.556 E94.33299
G1 X147.126 Y52.828 E94.36469
G1 X147.714 Y53.172 E94.39641
G1 X148.258 Y53.582 E94.42813
G1 X148.749 Y54.053 E94.45981
G1 X149.183 Y54.578 E94.49153
G1 X149.552 Y55.15 E94.52322
G1 X149.851 Y55.762 E94.55494
G1 X150.076 Y56.404 E94.58662
G1 X150.225 Y57.069 E94.61835
G1 X150.3 Y58 E94.66184
G1 X150.3 Y162 E99.50452
G1 X150.26 Y162.68 E99.53623
G1 X150.141 Y163.35 E99.56792
G1 X149.944 Y164.002 E99.59964
G1 X149.672 Y164.626 E99.63133
G1 X149.328 Y165.214 E99.66305
G1 X148.918 Y165.758 E99.69477
G1 X148.447 Y166.249 E99.72645
G1 X147.922 Y166.683 E99.75817
G1 X147.35 Y167.052 E99.78987
G1 X146.738 Y167.351 E99.82158
G1 X146.096 Y167.576 E99.85326
G1 X145.431 Y167.725 E99.88499
G1 X144.5 Y167.8 E99.92849
G1 X75.5 Y167.8 E103.14142
G1 X74.82 Y167.76 E103.17313
G1 X74.15 Y167.641 E103.20482
G1 X73.498 Y167.444 E103.23654
G1 X72.874 Y167.172 E103.26823
G1 X72.286 Y166.828 E103.29995
G1 X71.742 Y166.418 E103.33167
G1 X71.251 Y165.947 E103.36335
G1 X70.817 Y165.422 E103.39507
G1 X70.448 Y164.85 E103.42677
G1 X70.149 Y164.238 E103.45848
G1 X69.924 Y163.596 E103.49016
G1 X69.775 Y162.931 E103.52189
G1 X69.7 Y162 E103.56539
G1 X69.7 Y58 E108.40806
G1 X69.74 Y57.32 E108.43978
G1 X69.859 Y56.65 E108.47147
G1 X70.056 Y55.998 E108.50318
G1 X70.328 Y55.374 E108.53488
G1 X70.672 Y54.786 E108.5666
G1 X71.082 Y54.242 E108.59832
G0 F6000 X71.478 Y54.397
G1 F1200 X71.945 Y53.935 E108.62891
G1 X72.465 Y53.534 E108.65948
G1 X73.029 Y53.198 E108.69005
G1 X73.631 Y52.934 E108.72066
G1 X74.26 Y52.744 E108.75126
G1 X74.907 Y52.633 E108.78183
G1 X75.5 Y52.6 E108.80948
G1 X144.5 Y52.6 E112.02241
G1 X145.156 Y52.64 E112.05301
G1 X145.802 Y52.759 E112.0836
G1 X146.429 Y52.956 E112.1142
G1 X147.027 Y53.228 E112.14479
G1 X147.588 Y53.57 E112.17539
G1 X148.103 Y53.978 E112.20598
G1 X148.565 Y54.445 E112.23657
G1 X148.966 Y54.965 E112.26715
G1 X149.302 Y55.529 E112.29772
G1 X149.566 Y56.131 E112.32832
G1 X149.756 Y56.76 E112.35892
G1 X149.867 Y57.407 E112.38949
G1 X149.9 Y58 E112.41714
G1 X149.9 Y162 E117.25982
G1 X149.86 Y162.656 E117.29042
G1 X149.741 Y163.302 E117.32101
G1 X149.544 Y163.929 E117.35161
G1 X149.272 Y164.527 E117.3822
G1 X148.93 Y165.088 E117.41279
G1 X148.522 Y165.603 E117.44339
G1 X148.055 Y166.065 E117.47398
G1 X147.535 Y166.466 E117.50455
G1 X146.971 Y166.802 E117.53512
G1 X146.369 Y167.066 E117.56573
G1 X145.74 Y167.256 E117.59633
G1 X145.093 Y167.367 E117.6269
G1 X144.5 Y167.4 E117.65455
G1 X75.5 Y167.4 E120.86748
G1 X74.844 Y167.36 E120.89808
G1 X74.198 Y167.241 E120.92867
G1 X73.571 Y167.044 E120.95927
G1 X72.973 Y166.772 E120.98986
G1 X72.412 Y166.43 E121.02046
G1 X71.897 Y166.022 E121.05105
G1 X71.435 Y165.555 E121.08164
G1 X71.034 Y165.035 E121.11222
G1 X70.698 Y164.471 E121.14279
G1 X70.434 Y163.869 E121.17339
G1 X70.244 Y163.24 E121.20399
G1 X70.133 Y162.593 E121.23456
G1 X70.1 Y162 E121.26221
G1 X70.1 Y58 E126.10489
G1 X70.14 Y57.344 E126.13549
G1 X70.259 Y56.698 E126.16608
G1 X70.456 Y56.071 E126.19668
G1 X70.728 Y55.473 E126.22727
G1 X71.07 Y54.912 E126.25786
G1 X71.478 Y54.397 E126.28846
G0 F6000 X71.873 Y54.559
G1 F1200 X72.336 Y54.129 E126.31788
G1 X72.85 Y53.76 E126.34734
G1 X73.406 Y53.46 E126.37676
G1 X73.995 Y53.232 E126.40617
G1 X74.609 Y53.08 E126.43563
G1 X75.5 Y53 E126.47728
G1 X144.5 Y53 E129.69021
G1 X145.131 Y53.04 E129.71965
G1 X145.752 Y53.159 E129.74909
G1 X146.352 Y53.356 E129.7785
G1 X146.924 Y53.627 E129.80797
G1 X147.456 Y53.967 E129.83737
G1 X147.941 Y54.373 E129.86682
G1 X148.371 Y54.836 E129.89625
G1 X148.74 Y55.35 E129.92571
G1 X149.04 Y55.906 E129.95513
G1 X149.268 Y56.495 E129.98454
G1 X149.42 Y57.109 E130.01399
G1 X149.5 Y58 E130.05565
G1 X149.5 Y162 E134.89832
G1 X149.46 Y162.631 E134.92776
G1 X149.341 Y163.252 E134.9572
G1 X149.144 Y163.852 E134.98661
G1 X148.873 Y164.424 E135.01608
G1 X148.533 Y164.956 E135.04548
G1 X148.127 Y165.441 E135.07493
G1 X147.664 Y165.871 E135.10436
G1 X147.15 Y166.24 E135.13382
G1 X146.594 Y166.54 E135.16324
G1 X146.005 Y166.768 E135.19265
G1 X145.391 Y166.92 E135.2221
G1 X144.5 Y167 E135.26376
G1 X75.5 Y167 E138.47669
G1 X74.869 Y166.96 E138.50613
G1 X74.248 Y166.841 E138.53557
G1 X73.648 Y166.644 E138.56498
G1 X73.076 Y166.373 E138.59445
G1 X72.544 Y166.033 E138.62385
G1 X72.059 Y165.627 E138.6533
G1 X71.629 Y165.164 E138.68272
G1 X71.26 Y164.65 E138.71218
G1 X70.96 Y164.094 E138.7416
G1 X70.732 Y163.505 E138.77101
G1 X70.58 Y162.891 E138.80047
G1 X70.5 Y162 E138.84212
G1 X70.5 Y58 E143.6848
G1 X70.54 Y57.369 E143.71424
G1 X70.659 Y56.748 E143.74368
G1 X70.856 Y56.148 E143.77309
G1 X71.127 Y55.576 E143.80256
G1 X71.467 Y55.044 E143.83196
G1 X71.873 Y54.559 E143.86141
G0 F6000 X72.267 Y54.728
G1 F1200 X72.725 Y54.331 E143.88963
G1 X73.232 Y53.998 E143.91788
G1 X73.778 Y53.734 E143.94612
G1 X74.354 Y53.545 E143.97435
G1 X74.95 Y53.433 E144.00258
G1 X75.5 Y53.4 E144.02824
G1 X144.5 Y53.4 E147.24117
G1 X145.105 Y53.44 E147.2694
G1 X145.699 Y53.559 E147.29761
G1 X146.273 Y53.755 E147.32585
G1 X146.816 Y54.026 E147.35411
G1 X147.319 Y54.365 E147.38236
G1 X147.772 Y54.767 E147.41056
G1 X148.169 Y55.225 E147.43878
G1 X148.502 Y55.732 E147.46703
G1 X148.766 Y56.278 E147.49527
G1 X148.955 Y56.854 E147.52349
G1 X149.067 Y57.45 E147.55173
G1 X149.1 Y58 E147.57739
G1 X149.1 Y162 E152.42006
G1 X149.06 Y162.605 E152.4483
G1 X148.941 Y163.199 E152.47651
G1 X148.745 Y163.773 E152.50475
G1 X148.474 Y164.316 E152.53301
