;FLAVOR:Marlin
;TIME:7453
;Filament used: 7.92618m
;Layer height: 0.28
;MINX:69.7
;MINY:52.2
;MINZ:0.28
;MAXX:150.3
;MAXY:167.8
;MAXZ:8.4
;Generated with Cura_SteamEngine 5.2.1
M82 ;absolute extrusion mode
; Ender 3 Custom Start G-code
G92 E0 ; Reset Extruder
G28 ; Home all axes
M104 S175 ; Start heating up the nozzle most of the way
M190 S60 ; Start heating the bed, wait until target temperature reached
M109 S200 ; Finish heating the nozzle
G1 Z2.0 F3000 ; Move Z Axis up little to prevent scratching of Heat Bed
G1 X0.1 Y20 Z0.3 F5000.0 ; Move to start position
G1 X0.1 Y200.0 Z0.3 F1500.0 E15 ; Draw the first line
G1 X0.4 Y200.0 Z0.3 F5000.0 ; Move to side a little
G1 X0.4 Y20 Z0.3 F1500.0 E30 ; Draw the second line
G92 E0 ; Reset Extruder
G1 Z2.0 F3000 ; Move Z Axis up little to prevent scratching of Heat Bed
G1 X5 Y20 Z0.3 F5000.0 ; Move over to prevent blob squish
G92 E0
G92 E0
G1 F1500 E-6.5
;LAYER_COUNT:30
;LAYER:0
M107
G0 F6000 X71.58 Y54.922 Z0.28
;TYPE:SKIRT
G1 F1500 E0
G1 F1200 X72.123 Y54.349 E0.03676
G1 X72.722 Y53.834 E0.07354
G1 X73.37 Y53.383 E0.1103
G1 X74.061 Y52.999 E0.14711
G1 X74.786 Y52.687 E0.18387
G1 X75.539 Y52.45 E0.22063
G1 X76.313 Y52.291 E0.25742
G1 X77.098 Y52.21 E0.29417
G1 X77.5 Y52.2 E0.31289
G1 X142.5 Y52.2 E3.33956
G1 X143.289 Y52.24 E3.37635
G1 X144.069 Y52.359 E3.41309
G1 X144.834 Y52.557 E3.44988
G1 X145.574 Y52.831 E3.48663
G1 X146.283 Y53.179 E3.5234
G1 X146.954 Y53.597 E3.56022
G1 X147.578 Y54.08 E3.59696
G1 X148.151 Y54.623 E3.63372
G1 X148.666 Y55.222 E3.6705
G1 X149.117 Y55.87 E3.70726
G1 X149.501 Y56.561 E3.74407
G1 X149.813 Y57.286 E3.78083
G1 X150.05 Y58.039 E3.81759
G1 X150.209 Y58.813 E3.85438
G1 X150.29 Y59.598 E3.89113
G1 X150.3 Y60 E3.90985
G1 X150.3 Y160 E8.56627
G1 X150.26 Y160.789 E8.60306
G1 X150.141 Y161.569 E8.6398
G1 X149.943 Y162.334 E8.67659
G1 X149.669 Y163.074 E8.71333
G1 X149.321 Y163.783 E8.75011
G1 X148.903 Y164.454 E8.78692
G1 X148.42 Y165.078 E8.82367
G1 X147.877 Y165.651 E8.86042
G1 X147.278 Y166.166 E8.89721
G1 X146.63 Y166.617 E8.93397
G1 X145.939 Y167.001 E8.97078
G1 X145.214 Y167.313 E9.00753
G1 X144.461 Y167.55 E9.04429
G1 X143.687 Y167.709 E9.08108
G1 X142.902 Y167.79 E9.11783
G1 X142.5 Y167.8 E9.13656
G1 X77.5 Y167.8 E12.16323
G1 X76.711 Y167.76 E12.20001
G1 X75.931 Y167.641 E12.23675
G1 X75.166 Y167.443 E12.27355
G1 X74.426 Y167.169 E12.31029
G1 X73.717 Y166.821 E12.34707
G1 X73.046 Y166.403 E12.38388
G1 X72.422 Y165.92 E12.42063
G1 X71.849 Y165.377 E12.45738
G1 X71.334 Y164.778 E12.49417
G1 X70.883 Y164.13 E12.53093
G1 X70.499 Y163.439 E12.56774
G1 X70.187 Y162.714 E12.60449
G1 X69.95 Y161.961 E12.64125
G1 X69.791 Y161.187 E12.67804
G1 X69.71 Y160.402 E12.71479
G1 X69.7 Y160 E12.73352
G1 X69.7 Y60 E17.38993
G1 X69.74 Y59.211 E17.42672
G1 X69.859 Y58.431 E17.46346
G1 X70.057 Y57.666 E17.50026
G1 X70.331 Y56.926 E17.537
G1 X70.679 Y56.217 E17.57378
G1 X71.097 Y55.546 E17.61059
G1 X71.58 Y54.922 E17.64733
G0 F6000 X71.975 Y55.077
G1 F1200 X72.516 Y54.53 E17.68316
G1 X73.111 Y54.042 E17.71899
G1 X73.753 Y53.619 E17.75479
G1 X74.436 Y53.264 E17.79063
G1 X75.151 Y52.983 E17.8264
G1 X75.893 Y52.777 E17.86226
G1 X76.651 Y52.649 E17.89806
G1 X77.5 Y52.6 E17.93765
G1 X142.5 Y52.6 E20.96433
G1 X143.268 Y52.64 E21.00014
G1 X144.028 Y52.759 E21.03596
G1 X144.771 Y52.957 E21.07176
G1 X145.49 Y53.231 E21.10759
G1 X146.176 Y53.578 E21.14339
G1 X146.823 Y53.994 E21.1792
G1 X147.423 Y54.475 E21.21501
G1 X147.97 Y55.016 E21.25083
G1 X148.458 Y55.611 E21.28667
G1 X148.881 Y56.253 E21.32247
G1 X149.236 Y56.936 E21.35831
G1 X149.517 Y57.651 E21.39408
G1 X149.723 Y58.393 E21.42994
G1 X149.851 Y59.151 E21.46573
G1 X149.9 Y60 E21.50533
G1 X149.9 Y160 E26.16175
G1 X149.86 Y160.768 E26.19756
G1 X149.741 Y161.528 E26.23338
G1 X149.543 Y162.271 E26.26919
G1 X149.269 Y162.99 E26.30501
G1 X148.922 Y163.676 E26.34081
G1 X148.506 Y164.323 E26.37663
G1 X148.025 Y164.923 E26.41244
G1 X147.484 Y165.47 E26.44826
G1 X146.889 Y165.958 E26.48409
G1 X146.247 Y166.381 E26.51989
G1 X145.564 Y166.736 E26.55574
G1 X144.849 Y167.017 E26.59151
G1 X144.107 Y167.223 E26.62737
G1 X143.349 Y167.351 E26.66316
G1 X142.5 Y167.4 E26.70276
G1 X77.5 Y167.4 E29.72943
G1 X76.732 Y167.36 E29.76524
G1 X75.972 Y167.241 E29.80106
G1 X75.229 Y167.043 E29.83687
G1 X74.51 Y166.769 E29.87269
G1 X73.824 Y166.422 E29.90849
G1 X73.177 Y166.006 E29.94431
G1 X72.577 Y165.525 E29.98012
G1 X72.03 Y164.984 E30.01594
G1 X71.542 Y164.389 E30.05177
G1 X71.119 Y163.747 E30.08757
G1 X70.764 Y163.064 E30.12342
G1 X70.483 Y162.349 E30.15919
G1 X70.277 Y161.607 E30.19504
G1 X70.149 Y160.849 E30.23084
G1 X70.1 Y160 E30.27044
G1 X70.1 Y60 E34.92686
G1 X70.14 Y59.232 E34.96267
G1 X70.259 Y58.472 E34.99849
G1 X70.457 Y57.729 E35.03429
G1 X70.731 Y57.01 E35.07012
G1 X71.078 Y56.324 E35.10592
G1 X71.494 Y55.677 E35.14173
G1 X71.975 Y55.077 E35.17754
G0 F6000 X72.371 Y55.237
G1 F1200 X72.908 Y54.716 E35.21238
G1 X73.498 Y54.257 E35.24719
G1 X74.134 Y53.862 E35.28205
G1 X74.808 Y53.538 E35.31687
G1 X75.513 Y53.288 E35.3517
G1 X76.241 Y53.114 E35.38656
G1 X76.983 Y53.019 E35.42139
G1 X77.5 Y53 E35.44548
G1 X142.5 Y53 E38.47215
G1 X143.247 Y53.04 E38.50699
G1 X143.985 Y53.159 E38.54179
G1 X144.707 Y53.357 E38.57665
G1 X145.403 Y53.63 E38.61147
G1 X146.066 Y53.977 E38.64631
G1 X146.689 Y54.392 E38.68117
G1 X147.263 Y54.871 E38.71598
G1 X147.784 Y55.408 E38.75082
G1 X148.243 Y55.998 E38.78563
G1 X148.638 Y56.634 E38.82049
G1 X148.962 Y57.308 E38.85531
G1 X149.212 Y58.013 E38.89014
G1 X149.386 Y58.741 E38.925
G1 X149.481 Y59.483 E38.95983
G1 X149.5 Y60 E38.98392
G1 X149.5 Y160 E43.64034
G1 X149.46 Y160.747 E43.67517
G1 X149.341 Y161.485 E43.70998
G1 X149.143 Y162.207 E43.74484
G1 X148.87 Y162.903 E43.77965
G1 X148.523 Y163.566 E43.8145
G1 X148.108 Y164.189 E43.84935
G1 X147.629 Y164.763 E43.88416
G1 X147.092 Y165.284 E43.919
G1 X146.502 Y165.743 E43.95381
G1 X145.866 Y166.138 E43.98867
G1 X145.192 Y166.462 E44.0235
G1 X144.487 Y166.712 E44.05833
G1 X143.759 Y166.886 E44.09318
G1 X143.017 Y166.981 E44.12801
G1 X142.5 Y167 E44.1521
G1 X77.5 Y167 E47.17877
G1 X76.753 Y166.96 E47.21361
G1 X76.015 Y166.841 E47.24842
G1 X75.293 Y166.643 E47.28328
G1 X74.597 Y166.37 E47.31809
G1 X73.934 Y166.023 E47.35293
G1 X73.311 Y165.608 E47.38779
G1 X72.737 Y165.129 E47.4226
G1 X72.216 Y164.592 E47.45744
G1 X71.757 Y164.002 E47.49225
G1 X71.362 Y163.366 E47.52711
G1 X71.038 Y162.692 E47.56193
G1 X70.788 Y161.987 E47.59676
G1 X70.614 Y161.259 E47.63162
G1 X70.519 Y160.517 E47.66645
G1 X70.5 Y160 E47.69054
G1 X70.5 Y60 E52.34696
G1 X70.54 Y59.253 E52.38179
G1 X70.659 Y58.515 E52.4166
G1 X70.857 Y57.793 E52.45146
G1 X71.13 Y57.097 E52.48627
G1 X71.477 Y56.434 E52.52112
G1 X71.892 Y55.811 E52.55597
G1 X72.371 Y55.237 E52.59079
G0 F6000 X72.765 Y55.402
G1 F1200 X73.299 Y54.909 E52.62463
G1 X73.884 Y54.479 E52.65844
G1 X74.513 Y54.115 E52.69227
G1 X75.178 Y53.822 E52.72611
G1 X75.871 Y53.604 E52.75994
G1 X76.583 Y53.464 E52.79373
G1 X77.5 Y53.4 E52.83653
G1 X142.5 Y53.4 E55.8632
G1 X143.225 Y53.44 E55.89701
G1 X143.942 Y53.559 E55.93086
G1 X144.641 Y53.757 E55.96469
G1 X145.314 Y54.03 E55.99851
G1 X145.953 Y54.375 E56.03232
G1 X146.55 Y54.789 E56.06615
G1 X147.098 Y55.265 E56.09995
G1 X147.591 Y55.799 E56.13379
G1 X148.021 Y56.384 E56.1676
G1 X148.385 Y57.013 E56.20144
G1 X148.678 Y57.678 E56.23527
G1 X148.896 Y58.371 E56.2691
G1 X149.036 Y59.083 E56.30289
G1 X149.1 Y60 E56.34569
G1 X149.1 Y160 E61.00211
G1 X149.06 Y160.725 E61.03592
G1 X148.941 Y161.442 E61.06977
G1 X148.743 Y162.141 E61.10359
G1 X148.47 Y162.814 E61.13741
G1 X148.125 Y163.453 E61.17123
G1 X147.711 Y164.05 E61.20506
G1 X147.235 Y164.598 E61.23886
G1 X146.701 Y165.091 E61.2727
G1 X146.116 Y165.521 E61.3065
G1 X145.487 Y165.885 E61.34034
G1 X144.822 Y166.178 E61.37418
G1 X144.129 Y166.396 E61.40801
G1 X143.417 Y166.536 E61.4418
G1 X142.5 Y166.6 E61.4846
G1 X77.5 Y166.6 E64.51127
G1 X76.775 Y166.56 E64.54508
G1 X76.058 Y166.441 E64.57893
G1 X75.359 Y166.243 E64.61276
G1 X74.686 Y165.97 E64.64657
G1 X74.047 Y165.625 E64.68039
G1 X73.45 Y165.211 E64.71422
G1 X72.902 Y164.735 E64.74802
G1 X72.409 Y164.201 E64.78186
G1 X71.979 Y163.616 E64.81567
G1 X71.615 Y162.987 E64.84951
G1 X71.322 Y162.322 E64.88334
G1 X71.104 Y161.629 E64.91717
G1 X70.964 Y160.917 E64.95096
G1 X70.9 Y160 E64.99376
G1 X70.9 Y60 E69.65018
G1 X70.94 Y59.275 E69.68399
G1 X71.059 Y58.558 E69.71783
G1 X71.257 Y57.859 E69.75166
G1 X71.53 Y57.186 E69.78548
G1 X71.875 Y56.547 E69.8193
G1 X72.289 Y55.95 E69.85312
G1 X72.765 Y55.402 E69.88692
G0 F6000 X73.159 Y55.573
G1 F1200 X73.689 Y55.109 E69.91972
G1 X74.268 Y54.709 E69.95249
G1 X74.889 Y54.377 E69.98528
G1 X75.543 Y54.117 E70.01805
G1 X76.223 Y53.933 E70.05086
G1 X76.919 Y53.827 E70.08364
G1 X77.5 Y53.8 E70.11072
G1 X142.5 Y53.8 E73.13739
G1 X143.203 Y53.84 E73.17018
G1 X143.897 Y53.959 E73.20297
G1 X144.572 Y54.157 E73.23572
G1 X145.221 Y54.429 E73.26849
G1 X145.835 Y54.774 E73.30129
G1 X146.406 Y55.185 E73.33405
G1 X146.927 Y55.659 E73.36684
G1 X147.391 Y56.189 E73.39964
G1 X147.791 Y56.768 E73.43241
G1 X148.123 Y57.389 E73.4652
G1 X148.383 Y58.043 E73.49797
G1 X148.567 Y58.723 E73.53077
G1 X148.673 Y59.419 E73.56356
G1 X148.7 Y60 E73.59064
G1 X148.7 Y160 E78.24706
G1 X148.66 Y160.703 E78.27985
G1 X148.541 Y161.397 E78.31263
G1 X148.343 Y162.072 E78.34539
G1 X148.071 Y162.721 E78.37816
G1 X147.726 Y163.335 E78.41095
G1 X147.315 Y163.906 E78.44371
G1 X146.841 Y164.427 E78.47651
G1 X146.311 Y164.891 E78.50931
G1 X145.732 Y165.291 E78.54208
G1 X145.111 Y165.623 E78.57487
G1 X144.457 Y165.883 E78.60764
G1 X143.777 Y166.067 E78.64044
G1 X143.081 Y166.173 E78.67322
G1 X142.5 Y166.2 E78.70031
G1 X77.5 Y166.2 E81.72698
G1 X76.797 Y166.16 E81.75977
G1 X76.103 Y166.041 E81.79255
G1 X75.428 Y165.843 E81.82531
G1 X74.779 Y165.571 E81.85807
G1 X74.165 Y165.226 E81.89087
G1 X73.594 Y164.815 E81.92363
G1 X73.073 Y164.341 E81.95643
G1 X72.609 Y163.811 E81.98923
G1 X72.209 Y163.232 E82.022
G1 X71.877 Y162.611 E82.05479
G1 X71.617 Y161.957 E82.08756
G1 X71.433 Y161.277 E82.12036
G1 X71.327 Y160.581 E82.15314
G1 X71.3 Y160 E82.18022
G1 X71.3 Y60 E86.83664
G1 X71.34 Y59.297 E86.86943
G1 X71.459 Y58.603 E86.90222
G1 X71.657 Y57.928 E86.93497
G1 X71.929 Y57.279 E86.96774
G1 X72.274 Y56.665 E87.00053
G1 X72.685 Y56.094 E87.03329
G1 X73.159 Y55.573 E87.06609
G0 F6000 X73.553 Y55.751
G1 F1200 X74.078 Y55.317 E87.09781
G1 X74.65 Y54.948 E87.12951
G1 X75.262 Y54.649 E87.16122
G1 X75.904 Y54.424 E87.1929
G1 X76.569 Y54.275 E87.22463
G1 X77.5 Y54.2 E87.26812
G1 X142.5 Y54.2 E90.2948
G1 X143.18 Y54.24 E90.32651
G1 X143.85 Y54.359 E90.3582
G1 X144.502 Y54.556 E90.38992
G1 X145.126 Y54.828 E90.42161
G1 X145.714 Y55.172 E90.45333
G1 X146.258 Y55.582 E90.48505
G1 X146.749 Y56.053 E90.51673
G1 X147.183 Y56.578 E90.54845
G1 X147.552 Y57.15 E90.58015
G1 X147.851 Y57.762 E90.61186
G1 X148.076 Y58.404 E90.64354
G1 X148.225 Y59.069 E90.67527
G1 X148.3 Y60 E90.71877
G1 X148.3 Y160 E95.37519
G1 X148.26 Y160.68 E95.4069
G1 X148.141 Y161.35 E95.43859
G1 X147.944 Y162.002 E95.47031
G1 X147.672 Y162.626 E95.502
G1 X147.328 Y163.214 E95.53372
G1 X146.918 Y163.758 E95.56544
G1 X146.447 Y164.249 E95.59712
G1 X145.922 Y164.683 E95.62884
G1 X145.35 Y165.052 E95.66054
G1 X144.738 Y165.351 E95.69225
G1 X144.096 Y165.576 E95.72393
G1 X143.431 Y165.725 E95.75566
G1 X142.5 Y165.8 E95.79916
G1 X77.5 Y165.8 E98.82583
G1 X76.82 Y165.76 E98.85755
G1 X76.15 Y165.641 E98.88923
G1 X75.498 Y165.444 E98.92095
G1 X74.874 Y165.172 E98.95264
G1 X74.286 Y164.828 E98.98437
G1 X73.742 Y164.418 E99.01609
G1 X73.251 Y163.947 E99.04777
G1 X72.817 Y163.422 E99.07948
G1 X72.448 Y162.85 E99.11118
G1 X72.149 Y162.238 E99.1429
G1 X71.924 Y161.596 E99.17457
G1 X71.775 Y160.931 E99.20631
G1 X71.7 Y160 E99.2498
G1 X71.7 Y60 E103.90622
G1 X71.74 Y59.32 E103.93794
G1 X71.859 Y58.65 E103.96962
G1 X72.056 Y57.998 E104.00134
G1 X72.328 Y57.374 E104.03303
G1 X72.672 Y56.786 E104.06476
G1 X73.082 Y56.242 E104.09648
G1 X73.553 Y55.751 E104.12816
G0 F6000 X73.945 Y55.935
G1 F1200 X74.465 Y55.534 E104.15873
G1 X75.029 Y55.198 E104.1893
G1 X75.631 Y54.934 E104.21991
G1 X76.26 Y54.744 E104.25051
G1 X76.907 Y54.633 E104.28107
G1 X77.5 Y54.6 E104.30873
G1 X142.5 Y54.6 E107.3354
G1 X143.156 Y54.64 E107.366
G1 X143.802 Y54.759 E107.39659
G1 X144.429 Y54.956 E107.42719
G1 X145.027 Y55.228 E107.45778
G1 X145.588 Y55.57 E107.48838
G1 X146.103 Y55.978 E107.51897
G1 X146.565 Y56.445 E107.54956
G1 X146.966 Y56.965 E107.58014
G1 X147.302 Y57.529 E107.61071
G1 X147.566 Y58.131 E107.64132
G1 X147.756 Y58.76 E107.67191
G1 X147.867 Y59.407 E107.70248
G1 X147.9 Y60 E107.73013
G1 X147.9 Y160 E112.38655
G1 X147.86 Y160.656 E112.41716
G1 X147.741 Y161.302 E112.44774
G1 X147.544 Y161.929 E112.47835
G1 X147.272 Y162.527 E112.50894
G1 X146.93 Y163.088 E112.53953
G1 X146.522 Y163.603 E112.57012
G1 X146.055 Y164.065 E112.60071
G1 X145.535 Y164.466 E112.63129
G1 X144.971 Y164.802 E112.66186
G1 X144.369 Y165.066 E112.69247
G1 X143.74 Y165.256 E112.72306
G1 X143.093 Y165.367 E112.75363
G1 X142.5 Y165.4 E112.78129
G1 X77.5 Y165.4 E115.80796
G1 X76.844 Y165.36 E115.83856
G1 X76.198 Y165.241 E115.86915
G1 X75.571 Y165.044 E115.89975
G1 X74.973 Y164.772 E115.93034
G1 X74.412 Y164.43 E115.96094
G1 X73.897 Y164.022 E115.99153
G1 X73.435 Y163.555 E116.02212
G1 X73.034 Y163.035 E116.05269
G1 X72.698 Y162.471 E116.08326
G1 X72.434 Y161.869 E116.11387
G1 X72.244 Y161.24 E116.14447
G1 X72.133 Y160.593 E116.17504
G1 X72.1 Y160 E116.20269
G1 X72.1 Y60 E120.85911
G1 X72.14 Y59.344 E120.88971
G1 X72.259 Y58.698 E120.9203
G1 X72.456 Y58.071 E120.9509
G1 X72.728 Y57.473 E120.98149
G1 X73.07 Y56.912 E121.01209
G1 X73.478 Y56.397 E121.04268
G1 X73.945 Y55.935 E121.07327
G0 F6000 X74.336 Y56.129
G1 F1200 X74.85 Y55.76 E121.10273
G1 X75.406 Y55.46 E121.13215
G1 X75.995 Y55.232 E121.16156
G1 X76.609 Y55.08 E121.19101
G1 X77.5 Y55 E121.23267
G1 X142.5 Y55 E124.25934
G1 X143.131 Y55.04 E124.28878
G1 X143.752 Y55.159 E124.31822
G1 X144.352 Y55.356 E124.34763
G1 X144.924 Y55.627 E124.3771
G1 X145.456 Y55.967 E124.4065
G1 X145.941 Y56.373 E124.43595
G1 X146.371 Y56.836 E124.46538
G1 X146.74 Y57.35 E124.49484
G1 X147.04 Y57.906 E124.52426
G1 X147.268 Y58.495 E124.55367
G1 X147.42 Y59.109 E124.58312
G1 X147.5 Y60 E124.62478
G1 X147.5 Y160 E129.2812
G1 X147.46 Y160.631 E129.31064
G1 X147.341 Y161.252 E129.34008
G1 X147.144 Y161.852 E129.36949
G1 X146.873 Y162.424 E129.39896
G1 X146.533 Y162.956 E129.42836
G1 X146.127 Y163.441 E129.45781
G1 X145.664 Y163.871 E129.48723
G1 X145.15 Y164.24 E129.51669
G1 X144.594 Y164.54 E129.54611
G1 X144.005 Y164.768 E129.57552
G1 X143.391 Y164.92 E129.60498
G1 X142.5 Y165 E129.64663
G1 X77.5 Y165 E132.6733
G1 X76.869 Y164.96 E132.70274
G1 X76.248 Y164.841 E132.73219
G1 X75.648 Y164.644 E132.76159
G1 X75.076 Y164.373 E132.79107
G1 X74.544 Y164.033 E132.82046
G1 X74.059 Y163.627 E132.84992
G1 X73.629 Y163.164 E132.87934
G1 X73.26 Y162.65 E132.9088
G1 X72.96 Y162.094 E132.93822
G1 X72.732 Y161.505 E132.96763
G1 X72.58 Y160.891 E132.99708
G1 X72.5 Y160 E133.03874
G1 X72.5 Y60 E137.69516
G1 X72.54 Y59.369 E137.7246
G1 X72.659 Y58.748 E137.75404
G1 X72.856 Y58.148 E137.78345
G1 X73.127 Y57.576 E137.81292
G1 X73.467 Y57.044 E137.84232
G1 X73.873 Y56.559 E137.87177
G1 X74.336 Y56.129 E137.90119
G0 F6000 X74.725 Y56.331
G1 F1200 X75.232 Y55.998 E137.92944
G1 X75.778 Y55.734 E137.95768
G1 X76.354 Y55.545 E137.98591
G1 X76.95 Y55.433 E138.01414
G1 X77.5 Y55.4 E138.0398
G1 X142.5 Y55.4 E141.06647
G1 X143.105 Y55.44 E141.09471
G1 X143.699 Y55.559 E141.12292
G1 X144.273 Y55.755 E141.15116
G1 X144.816 Y56.026 E141.17942
G1 X145.319 Y56.365 E141.20766
G1 X145.772 Y56.767 E141.23586
G1 X146.169 Y57.225 E141.26409
G1 X146.502 Y57.732 E141.29233
G1 X146.766 Y58.278 E141.32057
G1 X146.955 Y58.854 E141.3488
G1 X147.067 Y59.45 E141.37704
G1 X147.1 Y60 E141.40269
G1 X147.1 Y160 E146.05911
G1 X147.06 Y160.605 E146.08734
G1 X146.941 Y161.199 E146.11555
G1 X146.745 Y161.773 E146.1438
G1 X146.474 Y162.316 E146.17205
G1 X146.135 Y162.819 E146.2003
G1 X145.733 Y163.272 E146.2285
