;FLAVOR:Marlin
;TIME:11672
;Filament used: 11.1904m
;Layer height: 0.28
;MINX:67.7
;MINY:50.2
;MINZ:0.28
;MAXX:152.3
;MAXY:169.8
;MAXZ:31.92
;Generated with Cura_SteamEngine 5.2.1
M82 ;absolute extrusion mode
; Ender 3 Custom Start G-code
G92 E0 ; Reset Extruder
G28 ; Home all axes
M104 S175 ; Start heating up the nozzle most of the way
M190 S60 ; Start heating the bed, wait until target temperature reached
M109 S200 ; Finish heating the nozzle
G1 Z2.0 F3000 ; Move Z Axis up little to prevent scratching of Heat Bed
G1 X0.1 Y20 Z0.3 F5000.0 ; Move to start position
G1 X0.1 Y200.0 Z0.3 F1500.0 E15 ; Draw the first line
G1 X0.4 Y200.0 Z0.3 F5000.0 ; Move to side a little
G1 X0.4 Y20 Z0.3 F1500.0 E30 ; Draw the second line
G92 E0 ; Reset Extruder
G1 Z2.0 F3000 ; Move Z Axis up little to prevent scratching of Heat Bed
G1 X5 Y20 Z0.3 F5000.0 ; Move over to prevent blob squish
G92 E0
G92 E0
G1 F1500 E-6.5
;LAYER_COUNT:114
;LAYER:0
M107
G0 F6000 X69.596 Y54.207 Z0.28
;TYPE:SKIRT
G1 F1500 E0
G1 F1200 X70.151 Y53.517 E0.04123
G1 X70.766 Y52.88 E0.08246
G1 X71.436 Y52.302 E0.12367
G1 X72.155 Y51.786 E0.16487
G1 X72.918 Y51.337 E0.2061
G1 X73.719 Y50.959 E0.24734
G1 X74.55 Y50.655 E0.28854
G1 X75.405 Y50.427 E0.32975
G1 X76.278 Y50.277 E0.37099
G1 X77.5 Y50.2 E0.42801
G1 X142.5 Y50.2 E3.45468
G1 X143.384 Y50.24 E3.49588
G1 X144.261 Y50.36 E3.5371
G1 X145.124 Y50.558 E3.57833
G1 X145.965 Y50.833 E3.61953
G1 X146.778 Y51.183 E3.66075
G1 X147.557 Y51.605 E3.702
G1 X148.293 Y52.096 E3.7432
G1 X148.983 Y52.651 E3.78443
G1 X149.62 Y53.266 E3.82566
G1 X150.198 Y53.936 E3.86686
G1 X150.714 Y54.655 E3.90807
G1 X151.163 Y55.418 E3.9493
G1 X151.541 Y56.219 E3.99054
G1 X151.845 Y57.05 E4.03174
G1 X152.073 Y57.905 E4.07295
G1 X152.223 Y58.778 E4.11419
G1 X152.3 Y60 E4.17121
G1 X152.3 Y160 E8.82763
G1 X152.26 Y160.884 E8.86883
G1 X152.14 Y161.761 E8.91005
G1 X151.942 Y162.624 E8.95128
G1 X151.667 Y163.465 E8.99248
G1 X151.317 Y164.278 E9.03369
G1 X150.895 Y165.057 E9.07495
G1 X150.404 Y165.793 E9.11614
G1 X149.849 Y166.483 E9.15738
G1 X149.234 Y167.12 E9.19861
G1 X148.564 Y167.698 E9.23981
G1 X147.845 Y168.214 E9.28102
G1 X147.082 Y168.663 E9.32224
G1 X146.281 Y169.041 E9.36349
G1 X145.45 Y169.345 E9.40469
G1 X144.595 Y169.573 E9.44589
G1 X143.722 Y169.723 E9.48714
G1 X142.5 Y169.8 E9.54415
G1 X77.5 Y169.8 E12.57082
G1 X76.616 Y169.76 E12.61203
G1 X75.739 Y169.64 E12.65325
G1 X74.876 Y169.442 E12.69448
G1 X74.035 Y169.167 E12.73568
G1 X73.222 Y168.817 E12.77689
G1 X72.443 Y168.395 E12.81815
G1 X71.707 Y167.904 E12.85934
G1 X71.017 Y167.349 E12.90058
G1 X70.38 Y166.734 E12.94181
G1 X69.802 Y166.064 E12.98301
G1 X69.286 Y165.345 E13.02422
G1 X68.837 Y164.582 E13.06544
G1 X68.459 Y163.781 E13.10668
G1 X68.155 Y162.95 E13.14789
G1 X67.927 Y162.095 E13.18909
G1 X67.777 Y161.222 E13.23034
G1 X67.7 Y160 E13.28735
G1 X67.7 Y60 E17.94377
G1 X67.74 Y59.116 E17.98498
G1 X67.86 Y58.239 E18.02619
G1 X68.058 Y57.376 E18.06742
G1 X68.333 Y56.535 E18.10862
G1 X68.683 Y55.722 E18.14984
G1 X69.105 Y54.943 E18.19109
G1 X69.596 Y54.207 E18.23229
G0 F6000 X69.993 Y54.343
G1 F1200 X70.546 Y53.675 E18.27267
G1 X71.159 Y53.061 E18.31307
G1 X71.825 Y52.506 E18.35344
G1 X72.539 Y52.016 E18.39376
G1 X73.296 Y51.592 E18.43416
G1 X74.089 Y51.241 E18.47454
G1 X74.91 Y50.964 E18.51489
G1 X75.754 Y50.764 E18.55528
G1 X76.612 Y50.642 E18.59563
G1 X77.5 Y50.6 E18.63703
G1 X142.5 Y50.6 E21.6637
G1 X143.366 Y50.64 E21.70407
G1 X144.225 Y50.76 E21.74446
G1 X145.069 Y50.958 E21.78482
G1 X145.891 Y51.233 E21.82518
G1 X146.684 Y51.583 E21.86555
G1 X147.442 Y52.004 E21.90592
G1 X148.157 Y52.493 E21.94625
G1 X148.825 Y53.046 E21.98664
G1 X149.439 Y53.659 E22.02704
G1 X149.994 Y54.325 E22.0674
G1 X150.484 Y55.039 E22.10773
G1 X150.908 Y55.796 E22.14813
G1 X151.259 Y56.589 E22.18851
G1 X151.536 Y57.41 E22.22886
G1 X151.736 Y58.254 E22.26924
G1 X151.858 Y59.112 E22.3096
G1 X151.9 Y60 E22.35099
G1 X151.9 Y160 E27.00741
G1 X151.86 Y160.866 E27.04778
G1 X151.74 Y161.725 E27.08817
G1 X151.542 Y162.569 E27.12853
G1 X151.267 Y163.391 E27.16889
G1 X150.917 Y164.184 E27.20926
G1 X150.496 Y164.942 E27.24963
G1 X150.007 Y165.657 E27.28997
G1 X149.454 Y166.325 E27.33035
G1 X148.841 Y166.939 E27.37075
G1 X148.175 Y167.494 E27.41111
G1 X147.461 Y167.984 E27.45144
G1 X146.704 Y168.408 E27.49184
G1 X145.911 Y168.759 E27.53222
G1 X145.09 Y169.036 E27.57257
G1 X144.246 Y169.236 E27.61296
G1 X143.388 Y169.358 E27.65331
G1 X142.5 Y169.4 E27.6947
G1 X77.5 Y169.4 E30.72138
G1 X76.634 Y169.36 E30.76174
G1 X75.775 Y169.24 E30.80213
G1 X74.931 Y169.042 E30.8425
G1 X74.109 Y168.767 E30.88286
G1 X73.316 Y168.417 E30.92322
G1 X72.558 Y167.996 E30.9636
G1 X71.843 Y167.507 E31.00393
G1 X71.175 Y166.954 E31.04431
G1 X70.561 Y166.341 E31.08471
G1 X70.006 Y165.675 E31.12508
G1 X69.516 Y164.961 E31.1654
G1 X69.092 Y164.204 E31.2058
G1 X68.741 Y163.411 E31.24618
G1 X68.464 Y162.59 E31.28653
G1 X68.264 Y161.746 E31.32692
G1 X68.142 Y160.888 E31.36727
G1 X68.1 Y160 E31.40867
G1 X68.1 Y60 E36.06509
G1 X68.14 Y59.134 E36.10546
G1 X68.26 Y58.275 E36.14584
G1 X68.458 Y57.431 E36.18621
G1 X68.733 Y56.609 E36.22657
G1 X69.083 Y55.816 E36.26693
G1 X69.504 Y55.058 E36.30731
G1 X69.993 Y54.343 E36.34764
G0 F6000 X70.39 Y54.482
G1 F1200 X70.941 Y53.837 E36.38714
G1 X71.551 Y53.247 E36.42666
G1 X72.213 Y52.717 E36.46615
G1 X72.922 Y52.251 E36.50565
G1 X73.672 Y51.855 E36.54515
G1 X74.456 Y51.53 E36.58466
G1 X75.267 Y51.281 E36.62417
G1 X76.098 Y51.11 E36.66367
G1 X76.941 Y51.017 E36.70316
G1 X77.5 Y51 E36.72921
G1 X142.5 Y51 E39.75588
G1 X143.347 Y51.04 E39.79536
G1 X144.187 Y51.16 E39.83487
G1 X145.012 Y51.358 E39.87438
G1 X145.815 Y51.633 E39.9139
G1 X146.588 Y51.982 E39.9534
G1 X147.324 Y52.402 E39.99285
G1 X148.018 Y52.89 E40.03236
G1 X148.663 Y53.441 E40.07186
G1 X149.253 Y54.051 E40.11138
G1 X149.783 Y54.713 E40.15086
G1 X150.249 Y55.422 E40.19037
G1 X150.645 Y56.172 E40.22986
G1 X150.97 Y56.956 E40.26938
G1 X151.219 Y57.767 E40.30888
G1 X151.39 Y58.598 E40.34839
G1 X151.483 Y59.441 E40.38788
G1 X151.5 Y60 E40.41392
G1 X151.5 Y160 E45.07034
G1 X151.46 Y160.847 E45.10983
G1 X151.34 Y161.687 E45.14934
G1 X151.142 Y162.512 E45.18884
G1 X150.867 Y163.315 E45.22837
G1 X150.518 Y164.088 E45.26786
G1 X150.098 Y164.824 E45.30732
G1 X149.61 Y165.518 E45.34682
G1 X149.059 Y166.163 E45.38632
G1 X148.449 Y166.753 E45.42584
G1 X147.787 Y167.283 E45.46533
G1 X147.078 Y167.749 E45.50483
G1 X146.328 Y168.145 E45.54433
G1 X145.544 Y168.47 E45.58385
G1 X144.733 Y168.719 E45.62335
G1 X143.902 Y168.89 E45.66285
G1 X143.059 Y168.983 E45.70235
G1 X142.5 Y169 E45.72839
G1 X77.5 Y169 E48.75506
G1 X76.653 Y168.96 E48.79454
G1 X75.813 Y168.84 E48.83405
G1 X74.988 Y168.642 E48.87356
G1 X74.185 Y168.367 E48.91308
G1 X73.412 Y168.018 E48.95258
G1 X72.676 Y167.598 E48.99204
G1 X71.982 Y167.11 E49.03154
G1 X71.337 Y166.559 E49.07104
G1 X70.747 Y165.949 E49.11056
G1 X70.217 Y165.287 E49.15005
G1 X69.751 Y164.578 E49.18955
G1 X69.355 Y163.828 E49.22904
G1 X69.03 Y163.044 E49.26856
G1 X68.781 Y162.233 E49.30807
G1 X68.61 Y161.402 E49.34757
G1 X68.517 Y160.559 E49.38706
G1 X68.5 Y160 E49.4131
G1 X68.5 Y60 E54.06952
G1 X68.54 Y59.153 E54.10901
G1 X68.66 Y58.313 E54.14852
G1 X68.858 Y57.488 E54.18802
G1 X69.133 Y56.685 E54.22755
G1 X69.482 Y55.912 E54.26704
G1 X69.902 Y55.176 E54.3065
G1 X70.39 Y54.482 E54.346
G0 F6000 X70.787 Y54.625
G1 F1200 X71.336 Y54.003 E54.38464
G1 X71.942 Y53.437 E54.42325
G1 X72.6 Y52.932 E54.46187
G1 X73.303 Y52.493 E54.50046
G1 X74.046 Y52.124 E54.53909
G1 X74.821 Y51.828 E54.57772
G1 X75.62 Y51.608 E54.61631
G1 X76.437 Y51.466 E54.65492
G1 X77.5 Y51.4 E54.70452
G1 X142.5 Y51.4 E57.73119
G1 X143.328 Y51.44 E57.76979
G1 X144.149 Y51.56 E57.80842
G1 X144.954 Y51.758 E57.84703
G1 X145.736 Y52.032 E57.88561
G1 X146.489 Y52.381 E57.92426
G1 X147.204 Y52.801 E57.96287
G1 X147.875 Y53.287 E58.00145
G1 X148.497 Y53.836 E58.04008
G1 X149.063 Y54.442 E58.07869
G1 X149.568 Y55.1 E58.11731
G1 X150.007 Y55.803 E58.15591
G1 X150.376 Y56.546 E58.19453
G1 X150.672 Y57.321 E58.23316
G1 X150.892 Y58.12 E58.27175
G1 X151.034 Y58.937 E58.31037
G1 X151.1 Y60 E58.35996
G1 X151.1 Y160 E63.01638
G1 X151.06 Y160.828 E63.05498
G1 X150.94 Y161.649 E63.09361
G1 X150.742 Y162.454 E63.13222
G1 X150.468 Y163.236 E63.1708
G1 X150.119 Y163.989 E63.20945
G1 X149.699 Y164.704 E63.24806
G1 X149.213 Y165.375 E63.28664
G1 X148.664 Y165.997 E63.32527
G1 X148.058 Y166.563 E63.36388
G1 X147.4 Y167.068 E63.4025
G1 X146.697 Y167.507 E63.44109
G1 X145.954 Y167.876 E63.47972
G1 X145.179 Y168.172 E63.51835
G1 X144.38 Y168.392 E63.55694
G1 X143.563 Y168.534 E63.59556
G1 X142.5 Y168.6 E63.64515
G1 X77.5 Y168.6 E66.67182
G1 X76.672 Y168.56 E66.71042
G1 X75.851 Y168.44 E66.74906
G1 X75.046 Y168.242 E66.78766
G1 X74.264 Y167.968 E66.82624
G1 X73.511 Y167.619 E66.86489
G1 X72.796 Y167.199 E66.9035
G1 X72.125 Y166.713 E66.94208
G1 X71.503 Y166.164 E66.98071
G1 X70.937 Y165.558 E67.01932
G1 X70.432 Y164.9 E67.05794
G1 X69.993 Y164.197 E67.09654
G1 X69.624 Y163.454 E67.13517
G1 X69.328 Y162.679 E67.1738
G1 X69.108 Y161.88 E67.21239
G1 X68.966 Y161.063 E67.251
G1 X68.9 Y160 E67.30059
G1 X68.9 Y60 E71.95701
G1 X68.94 Y59.172 E71.99561
G1 X69.06 Y58.351 E72.03425
G1 X69.258 Y57.546 E72.07285
G1 X69.532 Y56.764 E72.11143
G1 X69.881 Y56.011 E72.15008
G1 X70.301 Y55.296 E72.18869
G1 X70.787 Y54.625 E72.22727
G0 F6000 X71.184 Y54.771
G1 F1200 X71.73 Y54.174 E72.26494
G1 X72.333 Y53.633 E72.30266
G1 X72.986 Y53.154 E72.34037
G1 X73.683 Y52.743 E72.37805
G1 X74.417 Y52.401 E72.41576
G1 X75.182 Y52.135 E72.45347
G1 X75.969 Y51.944 E72.49118
G1 X76.771 Y51.832 E72.52889
G1 X77.5 Y51.8 E72.56286
G1 X142.5 Y51.8 E75.58954
G1 X143.309 Y51.84 E75.62725
G1 X144.11 Y51.96 E75.66497
G1 X144.895 Y52.157 E75.70265
G1 X145.656 Y52.432 E75.74033
G1 X146.387 Y52.78 E75.77803
G1 X147.081 Y53.199 E75.81578
G1 X147.729 Y53.684 E75.85347
G1 X148.326 Y54.23 E75.89114
G1 X148.867 Y54.833 E75.92886
G1 X149.346 Y55.486 E75.96657
G1 X149.757 Y56.183 E76.00425
G1 X150.099 Y56.917 E76.04196
G1 X150.365 Y57.682 E76.07967
G1 X150.556 Y58.469 E76.11738
G1 X150.668 Y59.271 E76.15509
G1 X150.7 Y60 E76.18906
G1 X150.7 Y160 E80.84548
G1 X150.66 Y160.809 E80.8832
G1 X150.54 Y161.61 E80.92091
G1 X150.343 Y162.395 E80.9586
G1 X150.068 Y163.156 E80.99628
G1 X149.72 Y163.887 E81.03398
G1 X149.301 Y164.581 E81.07173
G1 X148.816 Y165.229 E81.10941
G1 X148.27 Y165.826 E81.14709
G1 X147.667 Y166.367 E81.18481
G1 X147.014 Y166.846 E81.22252
G1 X146.317 Y167.257 E81.2602
G1 X145.583 Y167.599 E81.2979
G1 X144.818 Y167.865 E81.33562
G1 X144.031 Y168.056 E81.37333
G1 X143.229 Y168.168 E81.41103
G1 X142.5 Y168.2 E81.44501
G1 X77.5 Y168.2 E84.47168
G1 X76.691 Y168.16 E84.5094
G1 X75.89 Y168.04 E84.54711
G1 X75.105 Y167.843 E84.5848
G1 X74.344 Y167.568 E84.62248
G1 X73.613 Y167.22 E84.66018
G1 X72.919 Y166.801 E84.69793
G1 X72.271 Y166.316 E84.73561
G1 X71.674 Y165.77 E84.77329
G1 X71.133 Y165.167 E84.81101
G1 X70.654 Y164.514 E84.84872
G1 X70.243 Y163.817 E84.8864
G1 X69.901 Y163.083 E84.9241
G1 X69.635 Y162.318 E84.96182
G1 X69.444 Y161.531 E84.99953
G1 X69.332 Y160.729 E85.03723
G1 X69.3 Y160 E85.07121
G1 X69.3 Y60 E89.72763
G1 X69.34 Y59.191 E89.76535
G1 X69.46 Y58.39 E89.80306
G1 X69.657 Y57.605 E89.84075
G1 X69.932 Y56.844 E89.87842
G1 X70.28 Y56.113 E89.91612
G1 X70.699 Y55.419 E89.95387
G1 X71.184 Y54.771 E89.99156
G0 F6000 X71.58 Y54.922
G1 F1200 X72.123 Y54.349 E90.02832
G1 X72.722 Y53.834 E90.0651
G1 X73.37 Y53.383 E90.10186
G1 X74.061 Y52.999 E90.13867
G1 X74.786 Y52.687 E90.17543
G1 X75.539 Y52.45 E90.21219
G1 X76.313 Y52.291 E90.24898
G1 X77.098 Y52.21 E90.28573
G1 X77.5 Y52.2 E90.30445
G1 X142.5 Y52.2 E93.33112
G1 X143.289 Y52.24 E93.36791
G1 X144.069 Y52.359 E93.40465
G1 X144.834 Y52.557 E93.44144
G1 X145.574 Y52.831 E93.47819
G1 X146.283 Y53.179 E93.51497
G1 X146.954 Y53.597 E93.55178
G1 X147.578 Y54.08 E93.58852
G1 X148.151 Y54.623 E93.62528
G1 X148.666 Y55.222 E93.66206
G1 X149.117 Y55.87 E93.69882
G1 X149.501 Y56.561 E93.73563
G1 X149.813 Y57.286 E93.77239
G1 X150.05 Y58.039 E93.80915
G1 X150.209 Y58.813 E93.84594
G1 X150.29 Y59.598 E93.88269
G1 X150.3 Y60 E93.90141
G1 X150.3 Y160 E98.55783
G1 X150.26 Y160.789 E98.59462
G1 X150.141 Y161.569 E98.63136
G1 X149.943 Y162.334 E98.66815
G1 X149.669 Y163.074 E98.70489
G1 X149.321 Y163.783 E98.74167
G1 X148.903 Y164.454 E98.77848
G1 X148.42 Y165.078 E98.81523
G1 X147.877 Y165.651 E98.85198
G1 X147.278 Y166.166 E98.88877
G1 X146.63 Y166.617 E98.92553
G1 X145.939 Y167.001 E98.96234
G1 X145.214 Y167.313 E98.99909
G1 X144.461 Y167.55 E99.03585
G1 X143.687 Y167.709 E99.07264
G1 X142.902 Y167.79 E99.10939
G1 X142.5 Y167.8 E99.12812
G1 X77.5 Y167.8 E102.15479
G1 X76.711 Y167.76 E102.19157
G1 X75.931 Y167.641 E102.22832
G1 X75.166 Y167.443 E102.26511
G1 X74.426 Y167.169 E102.30185
G1 X73.717 Y166.821 E102.33863
G1 X73.046 Y166.403 E102.37544
G1 X72.422 Y165.92 E102.41219
G1 X71.849 Y165.377 E102.44894
G1 X71.334 Y164.778 E102.48573
G1 X70.883 Y164.13 E102.52249
G1 X70.499 Y163.439 E102.5593
G1 X70.187 Y162.714 E102.59605
G1 X69.95 Y161.961 E102.63281
G1 X69.791 Y161.187 E102.6696
G1 X69.71 Y160.402 E102.70635
G1 X69.7 Y160 E102.72508
G1 X69.7 Y60 E107.38149
G1 X69.74 Y59.211 E107.41828
G1 X69.859 Y58.431 E107.45502
G1 X70.057 Y57.666 E107.49182
G1 X70.331 Y56.926 E107.52856
G1 X70.679 Y56.217 E107.56534
G1 X71.097 Y55.546 E107.60215
G1 X71.58 Y54.922 E107.63889
G0 F6000 X71.975 Y55.077
G1 F1200 X72.516 Y54.53 E107.67472
G1 X73.111 Y54.042 E107.71055
G1 X73.753 Y53.619 E107.74635
G1 X74.436 Y53.264 E107.78219
G1 X75.151 Y52.983 E107.81796
G1 X75.893 Y52.777 E107.85382
G1 X76.651 Y52.649 E107.88962
G1 X77.5 Y52.6 E107.92921
G1 X142.5 Y52.6 E110.95589
G1 X143.268 Y52.64 E110.9917
G1 X144.028 Y52.759 E111.02752
G1 X144.771 Y52.957 E111.06332
G1 X145.49 Y53.231 E111.09915
G1 X146.176 Y53.578 E111.13495
G1 X146.823 Y53.994 E111.17076
G1 X147.423 Y54.475 E111.20657
G1 X147.97 Y55.016 E111.24239
G1 X148.458 Y55.611 E111.27823
G1 X148.881 Y56.253 E111.31403
G1 X149.236 Y56.936 E111.34987
G1 X149.517 Y57.651 E111.38564
G1 X149.723 Y58.393 E111.4215
G1 X149.851 Y59.151 E111.45729
G1 X149.9 Y60 E111.49689
G1 X149.9 Y160 E116.15331
G1 X149.86 Y160.768 E116.18912
G1 X149.741 Y161.528 E116.22494
G1 X149.543 Y162.271 E116.26075
G1 X149.269 Y162.99 E116.29658
G1 X148.922 Y163.676 E116.33237
G1 X148.506 Y164.323 E116.36819
G1 X148.025 Y164.923 E116.404
G1 X147.484 Y165.47 E116.43982
G1 X146.889 Y165.958 E116.47565
G1 X146.247 Y166.381 E116.51145
G1 X145.564 Y166.736 E116.5473
G1 X144.849 Y167.017 E116.58307
G1 X144.107 Y167.223 E116.61893
G1 X143.349 Y167.351 E116.65472
G1 X142.5 Y167.4 E116.69432
G1 X77.5 Y167.4 E119.72099
G1 X76.732 Y167.36 E119.7568
G1 X75.972 Y167.241 E119.79262
G1 X75.229 Y167.043 E119.82843
G1 X74.51 Y166.769 E119.86425
G1 X73.824 Y166.422 E119.90005
G1 X73.177 Y166.006 E119.93587
G1 X72.577 Y165.525 E119.97168
G1 X72.03 Y164.984 E120.0075
G1 X71.542 Y164.389 E120.04333
G1 X71.119 Y163.747 E120.07913
G1 X70.764 Y163.064 E120.11498
G1 X70.483 Y162.349 E120.15075
G1 X70.277 Y161.607 E120.1866
G1 X70.149 Y160.849 E120.2224
G1 X70.1 Y160 E120.262
G1 X70.1 Y60 E124.91842
G1 X70.14 Y59.232 E124.95423
G1 X70.259 Y58.472 E124.99005
G1 X70.457 Y57.729 E125.02585
G1 X70.731 Y57.01 E125.06168
G1 X71.078 Y56.324 E125.09748
G1 X71.494 Y55.677 E125.13329
G1 X71.975 Y55.077 E125.1691
G0 F6000 X72.371 Y55.237
G1 F1200 X72.908 Y54.716 E125.20394
G1 X73.498 Y54.257 E125.23875
G1 X74.134 Y53.862 E125.27361
G1 X74.808 Y53.538 E125.30843
G1 X75.513 Y53.288 E125.34326
G1 X76.241 Y53.114 E125.37812
G1 X76.983 Y53.019 E125.41295
G1 X77.5 Y53 E125.43704
G1 X142.5 Y53 E128.46371
G1 X143.247 Y53.04 E128.49855
G1 X143.985 Y53.159 E128.53335
G1 X144.707 Y53.357 E128.56821
G1 X145.403 Y53.63 E128.60303
G1 X146.066 Y53.977 E128.63787
G1 X146.689 Y54.392 E128.67273
G1 X147.263 Y54.871 E128.70754
G1 X147.784 Y55.408 E128.74238
G1 X148.243 Y55.998 E128.77719
G1 X148.638 Y56.634 E128.81205
G1 X148.962 Y57.308 E128.84687
G1 X149.212 Y58.013 E128.8817
G1 X149.386 Y58.741 E128.91656
