;FLAVOR:Marlin
;TIME:5872
;Filament used: 5.56408m
;Layer height: 0.28
;MINX:79.239
;MINY:77.2
;MINZ:0.28
;MAXX:140.761
;MAXY:142.8
;MAXZ:19.88
;Generated with Cura_SteamEngine 5.2.1
M82 ;absolute extrusion mode
; Ender 3 Custom Start G-code
G92 E0 ; Reset Extruder
G28 ; Home all axes
M104 S175 ; Start heating up the nozzle most of the way
M190 S60 ; Start heating the bed, wait until target temperature reached
M109 S200 ; Finish heating the nozzle
G1 Z2.0 F3000 ; Move Z Axis up little to prevent scratching of Heat Bed
G1 X0.1 Y20 Z0.3 F5000.0 ; Move to start position
G1 X0.1 Y200.0 Z0.3 F1500.0 E15 ; Draw the first line
G1 X0.4 Y200.0 Z0.3 F5000.0 ; Move to side a little
G1 X0.4 Y20 Z0.3 F1500.0 E30 ; Draw the second line
G92 E0 ; Reset Extruder
G1 Z2.0 F3000 ; Move Z Axis up little to prevent scratching of Heat Bed
G1 X5 Y20 Z0.3 F5000.0 ; Move over to prevent blob squish
G92 E0
G92 E0
G1 F1500 E-6.5
;LAYER_COUNT:71
;LAYER:0
M107
G0 F6000 X82.305 Y79.88 Z0.28
;TYPE:SKIRT
G1 F1500 E0
G1 F1200 X82.975 Y79.302 E0.0412
G1 X83.694 Y78.786 E0.08241
G1 X84.457 Y78.337 E0.12364
G1 X85.258 Y77.959 E0.16488
G1 X86.089 Y77.655 E0.20608
G1 X86.944 Y77.427 E0.24728
G1 X87.817 Y77.277 E0.28853
G1 X89.039 Y77.2 E0.34555
G1 X130.961 Y77.2 E2.29761
G1 X131.845 Y77.24 E2.33881
G1 X132.722 Y77.36 E2.38003
G1 X133.585 Y77.558 E2.42126
G1 X134.426 Y77.833 E2.46246
G1 X135.239 Y78.183 E2.50368
G1 X136.018 Y78.605 E2.54493
G1 X136.754 Y79.096 E2.58613
G1 X137.444 Y79.651 E2.62736
G1 X138.081 Y80.266 E2.66859
G1 X138.659 Y80.936 E2.70979
G1 X139.175 Y81.655 E2.751
G1 X139.624 Y82.418 E2.79223
G1 X140.002 Y83.219 E2.83347
G1 X140.306 Y84.05 E2.87467
G1 X140.534 Y84.905 E2.91588
G1 X140.684 Y85.778 E2.95712
G1 X140.761 Y87 E3.01414
G1 X140.761 Y133 E5.15609
G1 X140.721 Y133.884 E5.19729
G1 X140.601 Y134.761 E5.23851
G1 X140.403 Y135.624 E5.27974
G1 X140.128 Y136.465 E5.32094
G1 X139.778 Y137.278 E5.36216
G1 X139.356 Y138.057 E5.40341
G1 X138.865 Y138.793 E5.44461
G1 X138.31 Y139.483 E5.48584
G1 X137.695 Y140.12 E5.52707
G1 X137.025 Y140.698 E5.56827
G1 X136.306 Y141.214 E5.60948
G1 X135.543 Y141.663 E5.65071
G1 X134.742 Y142.041 E5.69195
G1 X133.911 Y142.345 E5.73315
G1 X133.056 Y142.573 E5.77435
G1 X132.183 Y142.723 E5.8156
G1 X130.961 Y142.8 E5.87262
G1 X89.039 Y142.8 E7.82468
G1 X88.155 Y142.76 E7.86588
G1 X87.278 Y142.64 E7.9071
G1 X86.415 Y142.442 E7.94833
G1 X85.574 Y142.167 E7.98953
G1 X84.761 Y141.817 E8.03075
G1 X83.982 Y141.395 E8.072
G1 X83.246 Y140.904 E8.1132
G1 X82.556 Y140.349 E8.15443
G1 X81.919 Y139.734 E8.19566
G1 X81.341 Y139.064 E8.23686
G1 X80.825 Y138.345 E8.27807
G1 X80.376 Y137.582 E8.3193
G1 X79.998 Y136.781 E8.36054
G1 X79.694 Y135.95 E8.40174
G1 X79.466 Y135.095 E8.44295
G1 X79.316 Y134.222 E8.48419
G1 X79.239 Y133 E8.54121
G1 X79.239 Y87 E10.68316
G1 X79.279 Y86.116 E10.72436
G1 X79.399 Y85.239 E10.76558
G1 X79.597 Y84.376 E10.80681
G1 X79.872 Y83.535 E10.84801
G1 X80.222 Y82.722 E10.88923
G1 X80.644 Y81.943 E10.93048
G1 X81.135 Y81.207 E10.97168
G1 X81.69 Y80.517 E11.01291
G1 X82.305 Y79.88 E11.05414
G0 F6000 X82.698 Y80.061
G1 F1200 X83.364 Y79.506 E11.09451
G1 X84.078 Y79.016 E11.13483
G1 X84.835 Y78.592 E11.17523
G1 X85.628 Y78.241 E11.21561
G1 X86.449 Y77.964 E11.25596
G1 X87.293 Y77.764 E11.29635
G1 X88.151 Y77.642 E11.3367
G1 X89.039 Y77.6 E11.3781
G1 X130.961 Y77.6 E13.33016
G1 X131.827 Y77.64 E13.37053
G1 X132.686 Y77.76 E13.41092
G1 X133.53 Y77.958 E13.45128
G1 X134.352 Y78.233 E13.49165
G1 X135.145 Y78.583 E13.53201
G1 X135.903 Y79.004 E13.57238
G1 X136.618 Y79.493 E13.61272
G1 X137.286 Y80.046 E13.6531
G1 X137.9 Y80.659 E13.6935
G1 X138.455 Y81.325 E13.73387
G1 X138.945 Y82.039 E13.77419
G1 X139.369 Y82.796 E13.81459
G1 X139.72 Y83.589 E13.85497
G1 X139.997 Y84.41 E13.89532
G1 X140.197 Y85.254 E13.93571
G1 X140.319 Y86.112 E13.97606
G1 X140.361 Y87 E14.01745
G1 X140.361 Y133 E16.15941
G1 X140.321 Y133.866 E16.19978
G1 X140.201 Y134.725 E16.24016
G1 X140.003 Y135.569 E16.28053
G1 X139.728 Y136.391 E16.32089
G1 X139.378 Y137.184 E16.36125
G1 X138.957 Y137.942 E16.40163
G1 X138.468 Y138.657 E16.44196
G1 X137.915 Y139.325 E16.48234
G1 X137.302 Y139.939 E16.52274
G1 X136.636 Y140.494 E16.56311
G1 X135.922 Y140.984 E16.60343
G1 X135.165 Y141.408 E16.64384
G1 X134.372 Y141.759 E16.68422
G1 X133.551 Y142.036 E16.72456
G1 X132.707 Y142.236 E16.76495
G1 X131.849 Y142.358 E16.8053
G1 X130.961 Y142.4 E16.8467
G1 X89.039 Y142.4 E18.79876
G1 X88.173 Y142.36 E18.83913
G1 X87.314 Y142.24 E18.87952
G1 X86.47 Y142.042 E18.91989
G1 X85.648 Y141.767 E18.96025
G1 X84.855 Y141.417 E19.00061
G1 X84.097 Y140.996 E19.04098
G1 X83.382 Y140.507 E19.08132
G1 X82.714 Y139.954 E19.1217
G1 X82.1 Y139.341 E19.1621
G1 X81.545 Y138.675 E19.20247
G1 X81.055 Y137.961 E19.24279
G1 X80.631 Y137.204 E19.28319
G1 X80.28 Y136.411 E19.32357
G1 X80.003 Y135.59 E19.36392
G1 X79.803 Y134.746 E19.40431
G1 X79.681 Y133.888 E19.44466
G1 X79.639 Y133 E19.48606
G1 X79.639 Y87 E21.62801
G1 X79.679 Y86.134 E21.66838
G1 X79.799 Y85.275 E21.70876
G1 X79.997 Y84.431 E21.74913
G1 X80.272 Y83.609 E21.78949
G1 X80.622 Y82.816 E21.82985
G1 X81.043 Y82.058 E21.87023
G1 X81.532 Y81.343 E21.91056
G1 X82.085 Y80.675 E21.95094
G1 X82.698 Y80.061 E21.99134
G0 F6000 X83.09 Y80.247
G1 F1200 X83.752 Y79.717 E22.03083
G1 X84.461 Y79.251 E22.07034
G1 X85.211 Y78.855 E22.10983
G1 X85.995 Y78.53 E22.14935
G1 X86.806 Y78.281 E22.18885
G1 X87.637 Y78.11 E22.22836
G1 X88.48 Y78.017 E22.26785
G1 X89.039 Y78 E22.29389
G1 X130.961 Y78 E24.24595
G1 X131.808 Y78.04 E24.28544
G1 X132.648 Y78.16 E24.32495
G1 X133.473 Y78.358 E24.36446
G1 X134.276 Y78.633 E24.40398
G1 X135.049 Y78.982 E24.44347
G1 X135.785 Y79.402 E24.48293
G1 X136.479 Y79.89 E24.52244
G1 X137.124 Y80.441 E24.56194
G1 X137.714 Y81.051 E24.60145
G1 X138.244 Y81.713 E24.64094
G1 X138.71 Y82.422 E24.68045
G1 X139.106 Y83.172 E24.71994
G1 X139.431 Y83.956 E24.75946
G1 X139.68 Y84.767 E24.79896
G1 X139.851 Y85.598 E24.83847
G1 X139.944 Y86.441 E24.87796
G1 X139.961 Y87 E24.904
G1 X139.961 Y133 E27.04595
G1 X139.921 Y133.847 E27.08544
G1 X139.801 Y134.687 E27.12495
G1 X139.603 Y135.512 E27.16445
G1 X139.328 Y136.315 E27.20398
G1 X138.979 Y137.088 E27.24347
G1 X138.559 Y137.824 E27.28293
G1 X138.071 Y138.518 E27.32243
G1 X137.52 Y139.163 E27.36193
G1 X136.91 Y139.753 E27.40145
G1 X136.248 Y140.283 E27.44094
G1 X135.539 Y140.749 E27.48044
G1 X134.789 Y141.145 E27.51994
G1 X134.005 Y141.47 E27.55946
G1 X133.194 Y141.719 E27.59896
G1 X132.363 Y141.89 E27.63846
G1 X131.52 Y141.983 E27.67796
G1 X130.961 Y142 E27.704
G1 X89.039 Y142 E29.65606
G1 X88.192 Y141.96 E29.69555
G1 X87.352 Y141.84 E29.73506
G1 X86.527 Y141.642 E29.77456
G1 X85.724 Y141.367 E29.81409
G1 X84.951 Y141.018 E29.85358
G1 X84.215 Y140.598 E29.89304
G1 X83.521 Y140.11 E29.93254
G1 X82.876 Y139.559 E29.97204
G1 X82.286 Y138.949 E30.01156
G1 X81.756 Y138.287 E30.05105
G1 X81.29 Y137.578 E30.09055
G1 X80.894 Y136.828 E30.13005
G1 X80.569 Y136.044 E30.16956
G1 X80.32 Y135.233 E30.20907
G1 X80.149 Y134.402 E30.24857
G1 X80.056 Y133.559 E30.28806
G1 X80.039 Y133 E30.31411
G1 X80.039 Y87 E32.45606
G1 X80.079 Y86.153 E32.49554
G1 X80.199 Y85.313 E32.53505
G1 X80.397 Y84.488 E32.57456
G1 X80.672 Y83.685 E32.61408
G1 X81.021 Y82.912 E32.65358
G1 X81.441 Y82.176 E32.69303
G1 X81.929 Y81.482 E32.73254
G1 X82.48 Y80.837 E32.77204
G1 X83.09 Y80.247 E32.81156
G0 F6000 X83.481 Y80.437
G1 F1200 X84.139 Y79.932 E32.85018
G1 X84.842 Y79.493 E32.88877
G1 X85.585 Y79.124 E32.9274
G1 X86.36 Y78.828 E32.96603
G1 X87.159 Y78.608 E33.00462
G1 X87.976 Y78.466 E33.04323
G1 X89.039 Y78.4 E33.09283
G1 X130.961 Y78.4 E35.04489
G1 X131.789 Y78.44 E35.08349
G1 X132.61 Y78.56 E35.12213
G1 X133.415 Y78.758 E35.16073
G1 X134.197 Y79.032 E35.19931
G1 X134.95 Y79.381 E35.23796
G1 X135.665 Y79.801 E35.27657
G1 X136.336 Y80.287 E35.31515
G1 X136.958 Y80.836 E35.35378
G1 X137.524 Y81.442 E35.39239
G1 X138.029 Y82.1 E35.43101
G1 X138.468 Y82.803 E35.46961
G1 X138.837 Y83.546 E35.50824
G1 X139.133 Y84.321 E35.54687
G1 X139.353 Y85.12 E35.58546
G1 X139.495 Y85.937 E35.62407
G1 X139.561 Y87 E35.67366
G1 X139.561 Y133 E37.81561
G1 X139.521 Y133.828 E37.85421
G1 X139.401 Y134.649 E37.89285
G1 X139.203 Y135.454 E37.93145
G1 X138.929 Y136.236 E37.97003
G1 X138.58 Y136.989 E38.00868
G1 X138.16 Y137.704 E38.04729
G1 X137.674 Y138.375 E38.08587
G1 X137.125 Y138.997 E38.1245
G1 X136.519 Y139.563 E38.16311
G1 X135.861 Y140.068 E38.20174
G1 X135.158 Y140.507 E38.24033
G1 X134.415 Y140.876 E38.27896
G1 X133.64 Y141.172 E38.31759
G1 X132.841 Y141.392 E38.35618
G1 X132.024 Y141.534 E38.39479
G1 X130.961 Y141.6 E38.44438
G1 X89.039 Y141.6 E40.39645
G1 X88.211 Y141.56 E40.43505
G1 X87.39 Y141.44 E40.47368
G1 X86.585 Y141.242 E40.51229
G1 X85.803 Y140.968 E40.55087
G1 X85.05 Y140.619 E40.58952
G1 X84.335 Y140.199 E40.62813
G1 X83.664 Y139.713 E40.66671
G1 X83.042 Y139.164 E40.70534
G1 X82.476 Y138.558 E40.74395
G1 X81.971 Y137.9 E40.78257
G1 X81.532 Y137.197 E40.82116
G1 X81.163 Y136.454 E40.85979
G1 X80.867 Y135.679 E40.89842
G1 X80.647 Y134.88 E40.93701
G1 X80.505 Y134.063 E40.97563
G1 X80.439 Y133 E41.02522
G1 X80.439 Y87 E43.16717
G1 X80.479 Y86.172 E43.20577
G1 X80.599 Y85.351 E43.24441
G1 X80.797 Y84.546 E43.28301
G1 X81.071 Y83.764 E43.32159
G1 X81.42 Y83.011 E43.36024
G1 X81.84 Y82.296 E43.39885
G1 X82.326 Y81.625 E43.43743
G1 X82.875 Y81.003 E43.47606
G1 X83.481 Y80.437 E43.51467
G0 F6000 X83.872 Y80.633
G1 F1200 X84.525 Y80.154 E43.55238
G1 X85.222 Y79.743 E43.59006
G1 X85.956 Y79.401 E43.62777
G1 X86.721 Y79.135 E43.66548
G1 X87.508 Y78.944 E43.70319
G1 X88.31 Y78.832 E43.7409
G1 X89.039 Y78.8 E43.77487
G1 X130.961 Y78.8 E45.72694
G1 X131.77 Y78.84 E45.76465
G1 X132.571 Y78.96 E45.80237
G1 X133.356 Y79.157 E45.84006
G1 X134.117 Y79.432 E45.87773
G1 X134.848 Y79.78 E45.91543
G1 X135.542 Y80.199 E45.95318
G1 X136.19 Y80.684 E45.99087
G1 X136.787 Y81.23 E46.02854
G1 X137.328 Y81.833 E46.06626
G1 X137.807 Y82.486 E46.10397
G1 X138.218 Y83.183 E46.14165
G1 X138.56 Y83.917 E46.17936
G1 X138.826 Y84.682 E46.21707
G1 X139.017 Y85.469 E46.25478
G1 X139.129 Y86.271 E46.29249
G1 X139.161 Y87 E46.32647
G1 X139.161 Y133 E48.46842
G1 X139.121 Y133.809 E48.50613
G1 X139.001 Y134.61 E48.54385
G1 X138.804 Y135.395 E48.58154
G1 X138.529 Y136.156 E48.61921
G1 X138.181 Y136.887 E48.65691
G1 X137.762 Y137.581 E48.69466
G1 X137.277 Y138.229 E48.73235
G1 X136.731 Y138.826 E48.77002
G1 X136.128 Y139.367 E48.80774
G1 X135.475 Y139.846 E48.84545
G1 X134.778 Y140.257 E48.88313
G1 X134.044 Y140.599 E48.92084
G1 X133.279 Y140.865 E48.95855
G1 X132.492 Y141.056 E48.99626
G1 X131.69 Y141.168 E49.03397
G1 X130.961 Y141.2 E49.06795
G1 X89.039 Y141.2 E51.02001
G1 X88.23 Y141.16 E51.05773
G1 X87.429 Y141.04 E51.09544
G1 X86.644 Y140.843 E51.13313
G1 X85.883 Y140.568 E51.1708
G1 X85.152 Y140.22 E51.2085
G1 X84.458 Y139.801 E51.24625
G1 X83.81 Y139.316 E51.28394
G1 X83.213 Y138.77 E51.32161
G1 X82.672 Y138.167 E51.35933
G1 X82.193 Y137.514 E51.39704
G1 X81.782 Y136.817 E51.43472
G1 X81.44 Y136.083 E51.47243
G1 X81.174 Y135.318 E51.51014
G1 X80.983 Y134.531 E51.54785
G1 X80.871 Y133.729 E51.58556
G1 X80.839 Y133 E51.61954
G1 X80.839 Y87 E53.76149
G1 X80.879 Y86.191 E53.79921
G1 X80.999 Y85.39 E53.83692
G1 X81.196 Y84.605 E53.87461
G1 X81.471 Y83.844 E53.91228
G1 X81.819 Y83.113 E53.94998
G1 X82.238 Y82.419 E53.98773
G1 X82.723 Y81.771 E54.02542
G1 X83.269 Y81.174 E54.06309
G1 X83.872 Y80.633 E54.10081
G0 F6000 X84.261 Y80.834
G1 F1200 X84.909 Y80.383 E54.13758
G1 X85.6 Y79.999 E54.17439
G1 X86.325 Y79.687 E54.21114
G1 X87.078 Y79.45 E54.2479
G1 X87.852 Y79.291 E54.28469
G1 X88.637 Y79.21 E54.32144
G1 X89.039 Y79.2 E54.34016
G1 X130.961 Y79.2 E56.29223
G1 X131.75 Y79.24 E56.32901
G1 X132.53 Y79.359 E56.36575
G1 X133.295 Y79.557 E56.40255
G1 X134.035 Y79.831 E56.43929
G1 X134.744 Y80.179 E56.47607
G1 X135.415 Y80.597 E56.51288
G1 X136.039 Y81.08 E56.54962
G1 X136.612 Y81.623 E56.58638
G1 X137.127 Y82.222 E56.62317
G1 X137.578 Y82.87 E56.65993
G1 X137.962 Y83.561 E56.69674
G1 X138.274 Y84.286 E56.73349
G1 X138.511 Y85.039 E56.77025
G1 X138.67 Y85.813 E56.80704
G1 X138.751 Y86.598 E56.84379
G1 X138.761 Y87 E56.86251
G1 X138.761 Y133 E59.00447
G1 X138.721 Y133.789 E59.04125
G1 X138.602 Y134.569 E59.07799
G1 X138.404 Y135.334 E59.11479
G1 X138.13 Y136.074 E59.15153
G1 X137.782 Y136.783 E59.18831
G1 X137.364 Y137.454 E59.22512
G1 X136.881 Y138.078 E59.26186
G1 X136.338 Y138.651 E59.29862
G1 X135.739 Y139.166 E59.33541
G1 X135.091 Y139.617 E59.37217
G1 X134.4 Y140.001 E59.40898
G1 X133.675 Y140.313 E59.44573
G1 X132.922 Y140.55 E59.48249
G1 X132.148 Y140.709 E59.51928
G1 X131.363 Y140.79 E59.55603
G1 X130.961 Y140.8 E59.57475
G1 X89.039 Y140.8 E61.52682
G1 X88.25 Y140.76 E61.5636
G1 X87.47 Y140.641 E61.60034
G1 X86.705 Y140.443 E61.63714
G1 X85.965 Y140.169 E61.67388
G1 X85.256 Y139.821 E61.71066
G1 X84.585 Y139.403 E61.74747
G1 X83.961 Y138.92 E61.78421
G1 X83.388 Y138.377 E61.82097
G1 X82.873 Y137.778 E61.85776
G1 X82.422 Y137.13 E61.89452
G1 X82.038 Y136.439 E61.93133
G1 X81.726 Y135.714 E61.96808
G1 X81.489 Y134.961 E62.00484
G1 X81.33 Y134.187 E62.04163
G1 X81.249 Y133.402 E62.07838
G1 X81.239 Y133 E62.09711
G1 X81.239 Y87 E64.23906
G1 X81.279 Y86.211 E64.27584
G1 X81.398 Y85.431 E64.31258
G1 X81.596 Y84.666 E64.34938
G1 X81.87 Y83.926 E64.38612
G1 X82.218 Y83.217 E64.4229
G1 X82.636 Y82.546 E64.45971
G1 X83.119 Y81.922 E64.49645
G1 X83.662 Y81.349 E64.53321
G1 X84.261 Y80.834 E64.57
G0 F6000 X84.65 Y81.042
G1 F1200 X85.292 Y80.619 E64.6058
G1 X85.975 Y80.264 E64.64164
G1 X86.69 Y79.983 E64.67741
G1 X87.432 Y79.777 E64.71327
G1 X88.19 Y79.649 E64.74906
G1 X89.039 Y79.6 E64.78866
G1 X130.961 Y79.6 E66.74073
G1 X131.729 Y79.64 E66.77654
G1 X132.489 Y79.759 E66.81236
G1 X133.232 Y79.957 E66.84816
G1 X133.951 Y80.231 E66.88399
G1 X134.637 Y80.578 E66.91979
G1 X135.284 Y80.994 E66.9556
G1 X135.884 Y81.475 E66.99141
G1 X136.431 Y82.016 E67.02724
G1 X136.919 Y82.611 E67.06307
G1 X137.342 Y83.253 E67.09887
G1 X137.697 Y83.936 E67.13471
G1 X137.978 Y84.651 E67.17048
G1 X138.184 Y85.393 E67.20634
G1 X138.312 Y86.151 E67.24214
G1 X138.361 Y87 E67.28173
G1 X138.361 Y133 E69.42369
G1 X138.321 Y133.768 E69.4595
G1 X138.202 Y134.528 E69.49532
G1 X138.004 Y135.271 E69.53112
G1 X137.73 Y135.99 E69.56695
G1 X137.383 Y136.676 E69.60275
G1 X136.967 Y137.323 E69.63856
G1 X136.486 Y137.923 E69.67437
G1 X135.945 Y138.47 E69.7102
G1 X135.35 Y138.958 E69.74603
G1 X134.708 Y139.381 E69.78183
G1 X134.025 Y139.736 E69.81767
G1 X133.31 Y140.017 E69.85344
G1 X132.568 Y140.223 E69.8893
G1 X131.81 Y140.351 E69.9251
G1 X130.961 Y140.4 E69.96469
G1 X89.039 Y140.4 E71.91676
G1 X88.271 Y140.36 E71.95257
G1 X87.511 Y140.241 E71.98839
G1 X86.768 Y140.043 E72.02419
G1 X86.049 Y139.769 E72.06002
G1 X85.363 Y139.422 E72.09582
G1 X84.716 Y139.006 E72.13163
G1 X84.116 Y138.525 E72.16744
G1 X83.569 Y137.984 E72.20327
G1 X83.081 Y137.389 E72.2391
G1 X82.658 Y136.747 E72.2749
G1 X82.303 Y136.064 E72.31074
G1 X82.022 Y135.349 E72.34651
G1 X81.816 Y134.607 E72.38237
G1 X81.688 Y133.849 E72.41817
G1 X81.639 Y133 E72.45777
G1 X81.639 Y87 E74.59972
G1 X81.679 Y86.232 E74.63553
G1 X81.798 Y85.472 E74.67135
G1 X81.996 Y84.729 E74.70715
G1 X82.27 Y84.01 E74.74298
G1 X82.617 Y83.324 E74.77878
G1 X83.033 Y82.677 E74.81459
G1 X83.514 Y82.077 E74.8504
G1 X84.055 Y81.53 E74.88623
G1 X84.65 Y81.042 E74.92206
G0 F6000 X85.037 Y81.257
G1 F1200 X85.673 Y80.862 E74.95692
G1 X86.347 Y80.538 E74.99174
G1 X87.052 Y80.288 E75.02657
G1 X87.78 Y80.114 E75.06143
G1 X88.522 Y80.019 E75.09626
G1 X89.039 Y80 E75.12035
G1 X130.961 Y80 E77.07241
G1 X131.708 Y80.04 E77.10725
G1 X132.446 Y80.159 E77.14205
G1 X133.168 Y80.357 E77.17692
G1 X133.864 Y80.63 E77.21173
G1 X134.527 Y80.977 E77.24657
G1 X135.15 Y81.392 E77.28143
G1 X135.724 Y81.871 E77.31624
G1 X136.245 Y82.408 E77.35108
G1 X136.704 Y82.998 E77.38589
G1 X137.099 Y83.634 E77.42075
G1 X137.423 Y84.308 E77.45557
G1 X137.673 Y85.013 E77.4904
G1 X137.847 Y85.741 E77.52526
G1 X137.942 Y86.483 E77.56009
G1 X137.961 Y87 E77.58418
