;FLAVOR:Marlin
;TIME:1699
;Filament used: 1.33952m
;Layer height: 0.2
;MINX:92.2
;MINY:92.2
;MINZ:0.2
;MAXX:127.8
;MAXY:127.8
;MAXZ:20
;Generated with Cura_SteamEngine 5.2.1
M82 ;absolute extrusion mode
; Ender 3 Custom Start G-code
G92 E0 ; Reset Extruder
G28 ; Home all axes
M104 S175 ; Start heating up the nozzle most of the way
M190 S60 ; Start heating the bed, wait until target temperature reached
M109 S200 ; Finish heating the nozzle
G1 Z2.0 F3000 ; Move Z Axis up little to prevent scratching of Heat Bed
G1 X0.1 Y20 Z0.3 F5000.0 ; Move to start position
G1 X0.1 Y200.0 Z0.3 F1500.0 E15 ; Draw the first line
G1 X0.4 Y200.0 Z0.3 F5000.0 ; Move to side a little
G1 X0.4 Y20 Z0.3 F1500.0 E30 ; Draw the second line
G92 E0 ; Reset Extruder
G1 Z2.0 F3000 ; Move Z Axis up little to prevent scratching of Heat Bed
G1 X5 Y20 Z0.3 F5000.0 ; Move over to prevent blob squish
G92 E0
G92 E0
G1 F1500 E-6.5
;LAYER_COUNT:100
;LAYER:0
M107
G0 F6000 X94.623 Y94.349 Z0.2
;TYPE:SKIRT
G1 F1500 E0
G1 F1200 X95.222 Y93.834 E0.02627
G1 X95.87 Y93.383 E0.05253
G1 X96.561 Y92.999 E0.07883
G1 X97.286 Y92.687 E0.10508
G1 X98.039 Y92.45 E0.13133
G1 X98.813 Y92.291 E0.15761
G1 X99.598 Y92.21 E0.18386
G1 X100 Y92.2 E0.19724
G1 X120 Y92.2 E0.86244
G1 X120.789 Y92.24 E0.88872
G1 X121.569 Y92.359 E0.91496
G1 X122.334 Y92.557 E0.94124
G1 X123.074 Y92.831 E0.96749
G1 X123.783 Y93.179 E0.99376
G1 X124.454 Y93.597 E1.02005
G1 X125.078 Y94.08 E1.04629
G1 X125.651 Y94.623 E1.07255
G1 X126.166 Y95.222 E1.09882
G1 X126.617 Y95.87 E1.12508
G1 X127.001 Y96.561 E1.15138
G1 X127.313 Y97.286 E1.17763
G1 X127.55 Y98.039 E1.20388
G1 X127.709 Y98.813 E1.23017
G1 X127.79 Y99.598 E1.25641
G1 X127.8 Y100 E1.26979
G1 X127.8 Y120 E1.93499
G1 X127.76 Y120.789 E1.96127
G1 X127.641 Y121.569 E1.98751
G1 X127.443 Y122.334 E2.01379
G1 X127.169 Y123.074 E2.04004
G1 X126.821 Y123.783 E2.06631
G1 X126.403 Y124.454 E2.0926
G1 X125.92 Y125.078 E2.11885
G1 X125.377 Y125.651 E2.1451
G1 X124.778 Y126.166 E2.17138
G1 X124.13 Y126.617 E2.19763
G1 X123.439 Y127.001 E2.22393
G1 X122.714 Y127.313 E2.25018
G1 X121.961 Y127.55 E2.27644
G1 X121.187 Y127.709 E2.30272
G1 X120.402 Y127.79 E2.32896
G1 X120 Y127.8 E2.34234
G1 X100 Y127.8 E3.00754
G1 X99.211 Y127.76 E3.03382
G1 X98.431 Y127.641 E3.06006
G1 X97.666 Y127.443 E3.08634
G1 X96.926 Y127.169 E3.11259
G1 X96.217 Y126.821 E3.13886
G1 X95.546 Y126.403 E3.16515
G1 X94.922 Y125.92 E3.1914
G1 X94.349 Y125.377 E3.21765
G1 X93.834 Y124.778 E3.24393
G1 X93.383 Y124.13 E3.27018
G1 X92.999 Y123.439 E3.29648
G1 X92.687 Y122.714 E3.32273
G1 X92.45 Y121.961 E3.34899
G1 X92.291 Y121.187 E3.37527
G1 X92.21 Y120.402 E3.40151
G1 X92.2 Y120 E3.41489
G1 X92.2 Y100 E4.08009
G1 X92.24 Y99.211 E4.10637
G1 X92.359 Y98.431 E4.13261
G1 X92.557 Y97.666 E4.15889
G1 X92.831 Y96.926 E4.18514
G1 X93.179 Y96.217 E4.21141
G1 X93.597 Y95.546 E4.2377
G1 X94.08 Y94.922 E4.26395
G1 X94.623 Y94.349 E4.2902
G0 F6000 X95.016 Y94.53
G1 F1200 X95.611 Y94.042 E4.3158
G1 X96.253 Y93.619 E4.34137
G1 X96.936 Y93.264 E4.36697
G1 X97.651 Y92.983 E4.39252
G1 X98.393 Y92.777 E4.41813
G1 X99.151 Y92.649 E4.4437
G1 X100 Y92.6 E4.47199
G1 X120 Y92.6 E5.13719
G1 X120.768 Y92.64 E5.16277
G1 X121.528 Y92.759 E5.18835
G1 X122.271 Y92.957 E5.21393
G1 X122.99 Y93.231 E5.23952
G1 X123.676 Y93.578 E5.26509
G1 X124.323 Y93.994 E5.29067
G1 X124.923 Y94.475 E5.31625
G1 X125.47 Y95.016 E5.34184
G1 X125.958 Y95.611 E5.36743
G1 X126.381 Y96.253 E5.39301
G1 X126.736 Y96.936 E5.41861
G1 X127.017 Y97.651 E5.44416
G1 X127.223 Y98.393 E5.46977
G1 X127.351 Y99.151 E5.49534
G1 X127.4 Y100 E5.52362
G1 X127.4 Y120 E6.18883
G1 X127.36 Y120.768 E6.21441
G1 X127.241 Y121.528 E6.23999
G1 X127.043 Y122.271 E6.26557
G1 X126.769 Y122.99 E6.29116
G1 X126.422 Y123.676 E6.31673
G1 X126.006 Y124.323 E6.34231
G1 X125.525 Y124.923 E6.36789
G1 X124.984 Y125.47 E6.39348
G1 X124.389 Y125.958 E6.41907
G1 X123.747 Y126.381 E6.44464
G1 X123.064 Y126.736 E6.47024
G1 X122.349 Y127.017 E6.4958
G1 X121.607 Y127.223 E6.52141
G1 X120.849 Y127.351 E6.54698
G1 X120 Y127.4 E6.57526
G1 X100 Y127.4 E7.24046
G1 X99.232 Y127.36 E7.26604
G1 X98.472 Y127.241 E7.29163
G1 X97.729 Y127.043 E7.3172
G1 X97.01 Y126.769 E7.34279
G1 X96.324 Y126.422 E7.36836
G1 X95.677 Y126.006 E7.39395
G1 X95.077 Y125.525 E7.41952
G1 X94.53 Y124.984 E7.44511
G1 X94.042 Y124.389 E7.47071
G1 X93.619 Y123.747 E7.49628
G1 X93.264 Y123.064 E7.52188
G1 X92.983 Y122.349 E7.54743
G1 X92.777 Y121.607 E7.57304
G1 X92.649 Y120.849 E7.59861
G1 X92.6 Y120 E7.6269
G1 X92.6 Y100 E8.2921
G1 X92.64 Y99.232 E8.31768
G1 X92.759 Y98.472 E8.34326
G1 X92.957 Y97.729 E8.36884
G1 X93.231 Y97.01 E8.39443
G1 X93.578 Y96.324 E8.42
G1 X93.994 Y95.677 E8.44558
G1 X94.475 Y95.077 E8.47116
G1 X95.016 Y94.53 E8.49675
G0 F6000 X95.408 Y94.716
G1 F1200 X95.998 Y94.257 E8.52161
G1 X96.634 Y93.862 E8.54651
G1 X97.308 Y93.538 E8.57139
G1 X98.013 Y93.288 E8.59626
G1 X98.741 Y93.114 E8.62116
G1 X99.483 Y93.019 E8.64604
G1 X100 Y93 E8.66325
G1 X120 Y93 E9.32845
G1 X120.747 Y93.04 E9.35333
G1 X121.485 Y93.159 E9.37819
G1 X122.207 Y93.357 E9.40309
G1 X122.903 Y93.63 E9.42796
G1 X123.566 Y93.977 E9.45285
G1 X124.189 Y94.392 E9.47775
G1 X124.763 Y94.871 E9.50261
G1 X125.284 Y95.408 E9.5275
G1 X125.743 Y95.998 E9.55236
G1 X126.138 Y96.634 E9.57726
G1 X126.462 Y97.308 E9.60213
G1 X126.712 Y98.013 E9.62701
G1 X126.886 Y98.741 E9.65191
G1 X126.981 Y99.483 E9.67679
G1 X127 Y100 E9.694
G1 X127 Y120 E10.3592
G1 X126.96 Y120.747 E10.38408
G1 X126.841 Y121.485 E10.40894
G1 X126.643 Y122.207 E10.43384
G1 X126.37 Y122.903 E10.45871
G1 X126.023 Y123.566 E10.4836
G1 X125.608 Y124.189 E10.5085
G1 X125.129 Y124.763 E10.53336
G1 X124.592 Y125.284 E10.55825
G1 X124.002 Y125.743 E10.58311
G1 X123.366 Y126.138 E10.60801
G1 X122.692 Y126.462 E10.63288
G1 X121.987 Y126.712 E10.65776
G1 X121.259 Y126.886 E10.68266
G1 X120.517 Y126.981 E10.70754
G1 X120 Y127 E10.72475
G1 X100 Y127 E11.38995
G1 X99.253 Y126.96 E11.41483
G1 X98.515 Y126.841 E11.43969
G1 X97.793 Y126.643 E11.46459
G1 X97.097 Y126.37 E11.48946
G1 X96.434 Y126.023 E11.51435
G1 X95.811 Y125.608 E11.53925
G1 X95.237 Y125.129 E11.56411
G1 X94.716 Y124.592 E11.589
G1 X94.257 Y124.002 E11.61386
G1 X93.862 Y123.366 E11.63876
G1 X93.538 Y122.692 E11.66363
G1 X93.288 Y121.987 E11.68851
G1 X93.114 Y121.259 E11.71341
G1 X93.019 Y120.517 E11.73829
G1 X93 Y120 E11.7555
G1 X93 Y100 E12.4207
G1 X93.04 Y99.253 E12.44558
G1 X93.159 Y98.515 E12.47044
G1 X93.357 Y97.793 E12.49534
G1 X93.63 Y97.097 E12.52021
G1 X93.977 Y96.434 E12.5451
G1 X94.392 Y95.811 E12.57
G1 X94.871 Y95.237 E12.59486
G1 X95.408 Y94.716 E12.61975
G0 F6000 X95.799 Y94.909
G1 F1200 X96.384 Y94.479 E12.64389
G1 X97.013 Y94.115 E12.66807
G1 X97.678 Y93.822 E12.69224
G1 X98.371 Y93.604 E12.7164
G1 X99.083 Y93.464 E12.74053
G1 X100 Y93.4 E12.77111
G1 X120 Y93.4 E13.43631
G1 X120.725 Y93.44 E13.46046
G1 X121.442 Y93.559 E13.48463
G1 X122.141 Y93.757 E13.5088
G1 X122.814 Y94.03 E13.53295
G1 X123.453 Y94.375 E13.55711
G1 X124.05 Y94.789 E13.58127
G1 X124.598 Y95.265 E13.60541
G1 X125.091 Y95.799 E13.62958
G1 X125.521 Y96.384 E13.65373
G1 X125.885 Y97.013 E13.6779
G1 X126.178 Y97.678 E13.70207
G1 X126.396 Y98.371 E13.72624
G1 X126.536 Y99.083 E13.75037
G1 X126.6 Y100 E13.78094
G1 X126.6 Y120 E14.44615
G1 X126.56 Y120.725 E14.4703
G1 X126.441 Y121.442 E14.49447
G1 X126.243 Y122.141 E14.51863
G1 X125.97 Y122.814 E14.54279
G1 X125.625 Y123.453 E14.56694
G1 X125.211 Y124.05 E14.59111
G1 X124.735 Y124.598 E14.61525
G1 X124.201 Y125.091 E14.63942
G1 X123.616 Y125.521 E14.66357
G1 X122.987 Y125.885 E14.68774
G1 X122.322 Y126.178 E14.71191
G1 X121.629 Y126.396 E14.73607
G1 X120.917 Y126.536 E14.76021
G1 X120 Y126.6 E14.79078
G1 X100 Y126.6 E15.45598
G1 X99.275 Y126.56 E15.48013
G1 X98.558 Y126.441 E15.50431
G1 X97.859 Y126.243 E15.52847
G1 X97.186 Y125.97 E15.55263
G1 X96.547 Y125.625 E15.57678
G1 X95.95 Y125.211 E15.60094
G1 X95.402 Y124.735 E15.62509
G1 X94.909 Y124.201 E15.64926
G1 X94.479 Y123.616 E15.67341
G1 X94.115 Y122.987 E15.69758
G1 X93.822 Y122.322 E15.72175
G1 X93.604 Y121.629 E15.74591
G1 X93.464 Y120.917 E15.77005
G1 X93.4 Y120 E15.80062
G1 X93.4 Y100 E16.46582
G1 X93.44 Y99.275 E16.48997
G1 X93.559 Y98.558 E16.51415
G1 X93.757 Y97.859 E16.53831
G1 X94.03 Y97.186 E16.56246
G1 X94.375 Y96.547 E16.58662
G1 X94.789 Y95.95 E16.61078
G1 X95.265 Y95.402 E16.63492
G1 X95.799 Y94.909 E16.6591
G0 F6000 X96.189 Y95.109
G1 F1200 X96.768 Y94.709 E16.6825
G1 X97.389 Y94.377 E16.70592
G1 X98.043 Y94.117 E16.72933
G1 X98.723 Y93.933 E16.75276
G1 X99.419 Y93.827 E16.77618
G1 X100 Y93.8 E16.79552
G1 X120 Y93.8 E17.46073
G1 X120.703 Y93.84 E17.48415
G1 X121.397 Y93.959 E17.50756
G1 X122.072 Y94.157 E17.53096
G1 X122.721 Y94.429 E17.55437
G1 X123.335 Y94.774 E17.57779
G1 X123.906 Y95.185 E17.60119
G1 X124.427 Y95.659 E17.62462
G1 X124.891 Y96.189 E17.64805
G1 X125.291 Y96.768 E17.67145
G1 X125.623 Y97.389 E17.69487
G1 X125.883 Y98.043 E17.71828
G1 X126.067 Y98.723 E17.74171
G1 X126.173 Y99.419 E17.76513
G1 X126.2 Y100 E17.78447
G1 X126.2 Y120 E18.44968
G1 X126.16 Y120.703 E18.4731
G1 X126.041 Y121.397 E18.49651
G1 X125.843 Y122.072 E18.51991
G1 X125.571 Y122.721 E18.54332
G1 X125.226 Y123.335 E18.56674
G1 X124.815 Y123.906 E18.59014
G1 X124.341 Y124.427 E18.61357
G1 X123.811 Y124.891 E18.637
G1 X123.232 Y125.291 E18.6604
G1 X122.611 Y125.623 E18.68382
G1 X121.957 Y125.883 E18.70723
G1 X121.277 Y126.067 E18.73066
G1 X120.581 Y126.173 E18.75408
G1 X120 Y126.2 E18.77342
G1 X100 Y126.2 E19.43863
G1 X99.297 Y126.16 E19.46205
G1 X98.603 Y126.041 E19.48546
G1 X97.928 Y125.843 E19.50886
G1 X97.279 Y125.571 E19.53227
G1 X96.665 Y125.226 E19.55569
G1 X96.094 Y124.815 E19.57909
G1 X95.573 Y124.341 E19.60252
G1 X95.109 Y123.811 E19.62595
G1 X94.709 Y123.232 E19.64935
G1 X94.377 Y122.611 E19.67277
G1 X94.117 Y121.957 E19.69618
G1 X93.933 Y121.277 E19.71961
G1 X93.827 Y120.581 E19.74303
G1 X93.8 Y120 E19.76237
G1 X93.8 Y100 E20.42758
G1 X93.84 Y99.297 E20.451
G1 X93.959 Y98.603 E20.47442
G1 X94.157 Y97.928 E20.49781
G1 X94.429 Y97.279 E20.52122
G1 X94.774 Y96.665 E20.54464
G1 X95.185 Y96.094 E20.56804
G1 X95.659 Y95.573 E20.59147
G1 X96.189 Y95.109 E20.6149
G0 F6000 X96.578 Y95.317
G1 F1200 X97.15 Y94.948 E20.63754
G1 X97.762 Y94.649 E20.66019
G1 X98.404 Y94.424 E20.68282
G1 X99.069 Y94.275 E20.70548
G1 X100 Y94.2 E20.73655
G1 X120 Y94.2 E21.40175
G1 X120.68 Y94.24 E21.42441
G1 X121.35 Y94.359 E21.44704
G1 X122.002 Y94.556 E21.4697
G1 X122.626 Y94.828 E21.49234
G1 X123.214 Y95.172 E21.51499
G1 X123.758 Y95.582 E21.53765
G1 X124.249 Y96.053 E21.56028
G1 X124.683 Y96.578 E21.58294
G1 X125.052 Y97.15 E21.60558
G1 X125.351 Y97.762 E21.62823
G1 X125.576 Y98.404 E21.65086
G1 X125.725 Y99.069 E21.67352
G1 X125.8 Y100 E21.70459
G1 X125.8 Y120 E22.36979
G1 X125.76 Y120.68 E22.39245
G1 X125.641 Y121.35 E22.41508
G1 X125.444 Y122.002 E22.43773
G1 X125.172 Y122.626 E22.46037
G1 X124.828 Y123.214 E22.48303
G1 X124.418 Y123.758 E22.50569
G1 X123.947 Y124.249 E22.52832
G1 X123.422 Y124.683 E22.55097
G1 X122.85 Y125.052 E22.57361
G1 X122.238 Y125.351 E22.59627
G1 X121.596 Y125.576 E22.6189
G1 X120.931 Y125.725 E22.64156
G1 X120 Y125.8 E22.67263
G1 X100 Y125.8 E23.33783
G1 X99.32 Y125.76 E23.36049
G1 X98.65 Y125.641 E23.38312
G1 X97.998 Y125.444 E23.40577
G1 X97.374 Y125.172 E23.42841
G1 X96.786 Y124.828 E23.45107
G1 X96.242 Y124.418 E23.47373
G1 X95.751 Y123.947 E23.49636
G1 X95.317 Y123.422 E23.51901
G1 X94.948 Y122.85 E23.54165
G1 X94.649 Y122.238 E23.56431
G1 X94.424 Y121.596 E23.58693
G1 X94.275 Y120.931 E23.6096
G1 X94.2 Y120 E23.64067
G1 X94.2 Y100 E24.30587
G1 X94.24 Y99.32 E24.32852
G1 X94.359 Y98.65 E24.35116
G1 X94.556 Y97.998 E24.37381
G1 X94.828 Y97.374 E24.39645
G1 X95.172 Y96.786 E24.41911
G1 X95.582 Y96.242 E24.44177
G1 X96.053 Y95.751 E24.4644
G1 X96.578 Y95.317 E24.48705
G0 F6000 X96.965 Y95.534
G1 F1200 X97.529 Y95.198 E24.50889
G1 X98.131 Y94.934 E24.53075
G1 X98.76 Y94.744 E24.55261
G1 X99.407 Y94.633 E24.57444
G1 X100 Y94.6 E24.59419
G1 X120 Y94.6 E25.2594
G1 X120.656 Y94.64 E25.28125
G1 X121.302 Y94.759 E25.3031
G1 X121.929 Y94.956 E25.32496
G1 X122.527 Y95.228 E25.34681
G1 X123.088 Y95.57 E25.36866
G1 X123.603 Y95.978 E25.39052
G1 X124.065 Y96.445 E25.41237
G1 X124.466 Y96.965 E25.43421
G1 X124.802 Y97.529 E25.45604
G1 X125.066 Y98.131 E25.47791
G1 X125.256 Y98.76 E25.49976
G1 X125.367 Y99.407 E25.52159
G1 X125.4 Y100 E25.54135
G1 X125.4 Y120 E26.20655
G1 X125.36 Y120.656 E26.22841
G1 X125.241 Y121.302 E26.25026
G1 X125.044 Y121.929 E26.27212
G1 X124.772 Y122.527 E26.29397
G1 X124.43 Y123.088 E26.31582
G1 X124.022 Y123.603 E26.33767
G1 X123.555 Y124.065 E26.35952
G1 X123.035 Y124.466 E26.38136
G1 X122.471 Y124.802 E26.4032
G1 X121.869 Y125.066 E26.42506
G1 X121.24 Y125.256 E26.44691
G1 X120.593 Y125.367 E26.46875
G1 X120 Y125.4 E26.4885
G1 X100 Y125.4 E27.1537
G1 X99.344 Y125.36 E27.17556
G1 X98.698 Y125.241 E27.19741
G1 X98.071 Y125.044 E27.21927
G1 X97.473 Y124.772 E27.24112
G1 X96.912 Y124.43 E27.26297
G1 X96.397 Y124.022 E27.28483
G1 X95.935 Y123.555 E27.30668
G1 X95.534 Y123.035 E27.32852
G1 X95.198 Y122.471 E27.35035
G1 X94.934 Y121.869 E27.37221
G1 X94.744 Y121.24 E27.39407
G1 X94.633 Y120.593 E27.4159
G1 X94.6 Y120 E27.43566
G1 X94.6 Y100 E28.10086
G1 X94.64 Y99.344 E28.12272
G1 X94.759 Y98.698 E28.14457
G1 X94.956 Y98.071 E28.16642
G1 X95.228 Y97.473 E28.18828
G1 X95.57 Y96.912 E28.21013
G1 X95.978 Y96.397 E28.23198
G1 X96.445 Y95.935 E28.25383
G1 X96.965 Y95.534 E28.27567
G0 F6000 X97.35 Y95.76
G1 F1200 X97.906 Y95.46 E28.29668
G1 X98.495 Y95.232 E28.31769
G1 X99.109 Y95.08 E28.33873
G1 X100 Y95 E28.36848
G1 X120 Y95 E29.03369
G1 X120.631 Y95.04 E29.05471
G1 X121.252 Y95.159 E29.07574
G1 X121.852 Y95.356 E29.09675
G1 X122.424 Y95.627 E29.1178
G1 X122.956 Y95.967 E29.1388
G1 X123.441 Y96.373 E29.15984
G1 X123.871 Y96.836 E29.18085
G1 X124.24 Y97.35 E29.2019
G1 X124.54 Y97.906 E29.22291
G1 X124.768 Y98.495 E29.24392
G1 X124.92 Y99.109 E29.26496
G1 X125 Y100 E29.29471
G1 X125 Y120 E29.95991
G1 X124.96 Y120.631 E29.98094
G1 X124.841 Y121.252 E30.00197
G1 X124.644 Y121.852 E30.02298
G1 X124.373 Y122.424 E30.04403
G1 X124.033 Y122.956 E30.06503
G1 X123.627 Y123.441 E30.08607
G1 X123.164 Y123.871 E30.10708
G1 X122.65 Y124.24 E30.12813
G1 X122.094 Y124.54 E30.14914
G1 X121.505 Y124.768 E30.17015
G1 X120.891 Y124.92 E30.19118
G1 X120 Y125 E30.22094
G1 X100 Y125 E30.88614
G1 X99.369 Y124.96 E30.90717
G1 X98.748 Y124.841 E30.9282
G1 X98.148 Y124.644 E30.9492
G1 X97.576 Y124.373 E30.97026
G1 X97.044 Y124.033 E30.99126
G1 X96.559 Y123.627 E31.01229
G1 X96.129 Y123.164 E31.03331
G1 X95.76 Y122.65 E31.05435
G1 X95.46 Y122.094 E31.07537
G1 X95.232 Y121.505 E31.09637
G1 X95.08 Y120.891 E31.11741
G1 X95 Y120 E31.14717
G1 X95 Y100 E31.81237
G1 X95.04 Y99.369 E31.8334
G1 X95.159 Y98.748 E31.85443
G1 X95.356 Y98.148 E31.87543
G1 X95.627 Y97.576 E31.89648
G1 X95.967 Y97.044 E31.91748
G1 X96.373 Y96.559 E31.93852
G1 X96.836 Y96.129 E31.95954
G1 X97.35 Y95.76 E31.98058
G0 F6000 X97.732 Y95.998
G1 F1200 X98.278 Y95.734 E32.00075
G1 X98.854 Y95.545 E32.02092
G1 X99.45 Y95.433 E32.04109
G1 X100 Y95.4 E32.05941
G1 X120 Y95.4 E32.72462
G1 X120.605 Y95.44 E32.74478
G1 X121.199 Y95.559 E32.76493
G1 X121.773 Y95.755 E32.7851
G1 X122.316 Y96.026 E32.80529
G1 X122.819 Y96.365 E32.82546
G1 X123.272 Y96.767 E32.84561
G1 X123.669 Y97.225 E32.86577
G1 X124.002 Y97.732 E32.88594
G1 X124.266 Y98.278 E32.90611
G1 X124.455 Y98.854 E32.92628
G1 X124.567 Y99.45 E32.94645
G1 X124.6 Y100 E32.96477
G1 X124.6 Y120 E33.62998
G1 X124.56 Y120.605 E33.65014
G1 X124.441 Y121.199 E33.67029
G1 X124.245 Y121.773 E33.69046
G1 X123.974 Y122.316 E33.71065
G1 X123.635 Y122.819 E33.73082
G1 X123.233 Y123.272 E33.75097
G1 X122.775 Y123.669 E33.77113
G1 X122.268 Y124.002 E33.7913
G1 X121.722 Y124.266 E33.81147
G1 X121.146 Y124.455 E33.83164
G1 X120.55 Y124.567 E33.85181
G1 X120 Y124.6 E33.87013
G1 X100 Y124.6 E34.53533
G1 X99.395 Y124.56 E34.5555
G1 X98.801 Y124.441 E34.57565
G1 X98.227 Y124.245 E34.59582
G1 X97.684 Y123.974 E34.61601
G1 X97.181 Y123.635 E34.63618
