;FLAVOR:Marlin
;TIME:938
;Filament used: 0.66431m
;Layer height: 0.28
;MINX:87.205
;MINY:87.203
;MINZ:0.28
;MAXX:132.79
;MAXY:132.797
;MAXZ:15.27
;Generated with Cura_SteamEngine 5.2.1
M82 ;absolute extrusion mode
; Ender 3 Custom Start G-code
G92 E0 ; Reset Extruder
G28 ; Home all axes
M104 S175 ; Start heating up the nozzle most of the way
M190 S60 ; Start heating the bed, wait until target temperature reached
M109 S200 ; Finish heating the nozzle
G1 Z2.0 F3000 ; Move Z Axis up little to prevent scratching of Heat Bed
G1 X0.1 Y20 Z0.3 F5000.0 ; Move to start position
G1 X0.1 Y200.0 Z0.3 F1500.0 E15 ; Draw the first line
G1 X0.4 Y200.0 Z0.3 F5000.0 ; Move to side a little
G1 X0.4 Y20 Z0.3 F1500.0 E30 ; Draw the second line
G92 E0 ; Reset Extruder
G1 Z2.0 F3000 ; Move Z Axis up little to prevent scratching of Heat Bed
G1 X5 Y20 Z0.3 F5000.0 ; Move over to prevent blob squish
G92 E0
G92 E0
G1 F1500 E-6.5
;LAYER_COUNT:54
;LAYER:0
M107
G0 F6000 X93.653 Y94.105 Z0.28
;TYPE:SKIRT
G1 F1500 E0
G1 F1200 X94.427 Y93.347 E0.05045
G1 X94.834 Y92.977 E0.07606
G1 X95.66 Y92.275 E0.12653
G1 X96.112 Y91.918 E0.15335
G1 X96.986 Y91.28 E0.20374
G1 X97.446 Y90.968 E0.22962
G1 X98.355 Y90.399 E0.27956
G1 X98.839 Y90.121 E0.30555
G1 X99.806 Y89.608 E0.35652
G1 X100.32 Y89.358 E0.38313
G1 X101.311 Y88.922 E0.43355
G1 X101.825 Y88.718 E0.4593
G1 X102.837 Y88.356 E0.50934
G1 X103.391 Y88.18 E0.53641
G1 X104.443 Y87.89 E0.58722
G1 X104.984 Y87.762 E0.61311
G1 X106.047 Y87.549 E0.66359
G1 X106.591 Y87.46 E0.68926
G1 X107.656 Y87.324 E0.73925
G1 X108.223 Y87.272 E0.76577
G1 X109.314 Y87.213 E0.81664
G1 X109.886 Y87.203 E0.84328
G1 X110.967 Y87.224 E0.89363
G1 X111.521 Y87.255 E0.91946
G1 X112.601 Y87.353 E0.96996
G1 X113.162 Y87.424 E0.99629
G1 X114.232 Y87.6 E1.04678
G1 X114.793 Y87.714 E1.07344
G1 X115.843 Y87.967 E1.12373
G1 X116.37 Y88.114 E1.14921
G1 X117.403 Y88.441 E1.19966
G1 X117.945 Y88.634 E1.22645
G1 X118.953 Y89.037 E1.277
G1 X119.461 Y89.262 E1.30287
G1 X120.434 Y89.734 E1.35323
G1 X120.936 Y90 E1.37968
G1 X121.873 Y90.542 E1.43009
G1 X122.348 Y90.841 E1.45622
G1 X123.245 Y91.45 E1.50671
G1 X123.698 Y91.782 E1.53286
G1 X124.54 Y92.447 E1.58282
G1 X124.97 Y92.812 E1.60908
G1 X125.776 Y93.549 E1.65994
G1 X126.178 Y93.944 E1.68618
G1 X126.916 Y94.724 E1.73618
G1 X127.281 Y95.138 E1.76188
G1 X127.975 Y95.984 E1.81283
G1 X128.327 Y96.447 E1.83991
G1 X128.948 Y97.331 E1.89022
G1 X129.247 Y97.791 E1.91577
G1 X129.801 Y98.711 E1.96577
G1 X130.08 Y99.215 E1.9926
G1 X130.574 Y100.192 E2.04357
G1 X130.805 Y100.694 E2.06931
G1 X131.223 Y101.69 E2.1196
G1 X131.423 Y102.217 E2.14585
G1 X131.766 Y103.235 E2.19587
G1 X131.929 Y103.786 E2.22263
G1 X132.201 Y104.845 E2.27354
G1 X132.32 Y105.387 E2.29938
G1 X132.514 Y106.452 E2.34978
G1 X132.594 Y107.008 E2.37594
G1 X132.71 Y108.076 E2.42596
G1 X132.751 Y108.639 E2.45225
G1 X132.79 Y109.73 E2.50308
G1 X132.79 Y110.297 E2.52948
G1 X132.75 Y111.379 E2.5799
G1 X132.709 Y111.941 E2.60614
G1 X132.591 Y113.018 E2.65659
G1 X132.511 Y113.563 E2.68224
G1 X132.317 Y114.63 E2.73274
G1 X132.192 Y115.196 E2.75973
G1 X131.92 Y116.243 E2.8101
G1 X131.762 Y116.774 E2.8359
G1 X131.416 Y117.8 E2.88631
G1 X131.214 Y118.334 E2.9129
G1 X130.794 Y119.332 E2.96332
G1 X130.561 Y119.835 E2.98913
G1 X130.071 Y120.801 E3.03957
G1 X129.795 Y121.299 E3.06608
G1 X129.241 Y122.218 E3.11605
G1 X128.94 Y122.679 E3.14168
G1 X128.311 Y123.573 E3.19258
G1 X127.954 Y124.042 E3.22003
G1 X127.265 Y124.879 E3.27051
G1 X126.908 Y125.284 E3.29565
G1 X126.163 Y126.071 E3.34611
G1 X125.751 Y126.475 E3.37298
G1 X124.952 Y127.203 E3.42331
G1 X124.533 Y127.558 E3.44888
G1 X123.691 Y128.223 E3.49884
G1 X123.23 Y128.561 E3.52546
G1 X122.323 Y129.175 E3.57646
G1 X121.853 Y129.469 E3.60227
G1 X120.924 Y130.006 E3.65224
G1 X120.42 Y130.274 E3.67882
G1 X119.447 Y130.745 E3.72916
G1 X118.934 Y130.971 E3.75526
G1 X117.917 Y131.376 E3.80623
G1 X117.384 Y131.566 E3.83258
G1 X116.36 Y131.89 E3.88259
G1 X115.826 Y132.038 E3.90839
G1 X114.775 Y132.29 E3.95872
G1 X114.211 Y132.403 E3.9855
G1 X113.131 Y132.579 E4.03646
G1 X112.574 Y132.65 E4.0626
G1 X111.494 Y132.747 E4.11309
G1 X110.94 Y132.777 E4.13893
G1 X109.859 Y132.797 E4.18927
G1 X109.283 Y132.786 E4.2161
G1 X108.202 Y132.726 E4.26651
G1 X107.641 Y132.675 E4.29274
G1 X106.566 Y132.537 E4.34321
G1 X106.025 Y132.448 E4.36874
G1 X104.963 Y132.235 E4.41918
G1 X104.399 Y132.1 E4.44618
G1 X103.357 Y131.809 E4.49656
G1 X102.829 Y131.641 E4.52236
G1 X101.808 Y131.276 E4.57285
G1 X101.287 Y131.068 E4.59897
G1 X100.296 Y130.631 E4.6494
G1 X99.775 Y130.378 E4.67637
G1 X98.818 Y129.868 E4.72686
G1 X98.342 Y129.592 E4.75248
G1 X97.425 Y129.017 E4.80288
G1 X96.962 Y128.703 E4.82893
G1 X96.089 Y128.064 E4.87931
G1 X95.641 Y127.71 E4.9059
G1 X94.815 Y127.007 E4.9564
G1 X94.402 Y126.629 E4.98247
G1 X93.63 Y125.87 E5.03289
G1 X93.241 Y125.459 E5.05924
G1 X92.526 Y124.646 E5.10965
G1 X92.169 Y124.21 E5.13589
G1 X91.515 Y123.348 E5.18627
G1 X91.191 Y122.886 E5.21255
G1 X90.599 Y121.976 E5.2631
G1 X90.312 Y121.499 E5.28902
G1 X89.788 Y120.552 E5.33942
G1 X89.532 Y120.047 E5.36578
G1 X89.083 Y119.075 E5.41564
G1 X88.868 Y118.561 E5.44158
G1 X88.481 Y117.537 E5.49255
G1 X88.295 Y116.986 E5.51963
G1 X87.989 Y115.948 E5.57002
G1 X87.855 Y115.428 E5.59503
G1 X87.623 Y114.38 E5.64501
G1 X87.52 Y113.816 E5.6717
G1 X87.364 Y112.743 E5.72219
G1 X87.303 Y112.184 E5.74838
G1 X87.225 Y111.106 E5.7987
G1 X87.205 Y110.543 E5.82494
G1 X87.205 Y109.448 E5.87592
G1 X87.226 Y108.878 E5.90248
G1 X87.305 Y107.799 E5.95286
G1 X87.366 Y107.24 E5.97905
G1 X87.523 Y106.167 E6.02954
G1 X87.627 Y105.603 E6.05625
G1 X87.862 Y104.546 E6.10667
G1 X87.997 Y104.025 E6.13173
G1 X88.304 Y102.988 E6.18209
G1 X88.49 Y102.436 E6.20921
G1 X88.875 Y101.421 E6.25976
G1 X89.089 Y100.911 E6.28551
G1 X89.543 Y99.93 E6.33585
G1 X89.802 Y99.421 E6.36244
G1 X90.327 Y98.475 E6.41282
G1 X90.614 Y97.998 E6.43874
G1 X91.207 Y97.089 E6.48928
G1 X91.532 Y96.628 E6.51554
G1 X92.187 Y95.767 E6.56591
G1 X92.545 Y95.331 E6.59218
G1 X93.261 Y94.519 E6.64259
G1 X93.653 Y94.105 E6.66914
G0 F6000 X93.933 Y94.391
G1 F1200 X94.707 Y93.633 E6.71959
G1 X95.093 Y93.281 E6.74391
G1 X95.919 Y92.579 E6.79439
G1 X96.348 Y92.241 E6.81982
G1 X97.222 Y91.603 E6.87021
G1 X97.659 Y91.308 E6.89476
G1 X98.568 Y90.739 E6.94469
G1 X99.026 Y90.474 E6.96933
G1 X99.993 Y89.961 E7.0203
G1 X100.481 Y89.725 E7.04554
G1 X101.472 Y89.289 E7.09596
G1 X101.96 Y89.094 E7.12043
G1 X102.972 Y88.732 E7.17047
G1 X103.497 Y88.566 E7.19611
G1 X104.549 Y88.276 E7.24693
G1 X105.062 Y88.154 E7.27148
G1 X106.125 Y87.941 E7.32196
G1 X106.642 Y87.857 E7.34635
G1 X107.707 Y87.721 E7.39634
G1 X108.244 Y87.672 E7.42145
G1 X109.335 Y87.613 E7.47233
G1 X109.879 Y87.603 E7.49766
G1 X110.96 Y87.624 E7.54801
G1 X111.485 Y87.653 E7.57249
G1 X112.565 Y87.751 E7.62299
G1 X113.097 Y87.819 E7.64796
G1 X114.167 Y87.995 E7.69846
G1 X114.699 Y88.103 E7.72373
G1 X115.749 Y88.356 E7.77403
G1 X116.249 Y88.495 E7.79819
G1 X117.282 Y88.822 E7.84864
G1 X117.796 Y89.006 E7.87406
G1 X118.804 Y89.409 E7.92461
G1 X119.287 Y89.622 E7.94919
G1 X120.26 Y90.094 E7.99955
G1 X120.735 Y90.346 E8.02459
G1 X121.672 Y90.888 E8.07499
G1 X122.124 Y91.172 E8.09985
G1 X123.021 Y91.781 E8.15033
G1 X123.45 Y92.096 E8.17512
G1 X124.292 Y92.761 E8.22508
G1 X124.7 Y93.107 E8.24999
G1 X125.506 Y93.844 E8.30084
G1 X125.887 Y94.219 E8.32574
G1 X126.625 Y94.999 E8.37574
G1 X126.971 Y95.392 E8.40012
G1 X127.665 Y96.238 E8.45107
G1 X127.999 Y96.677 E8.47675
G1 X128.62 Y97.561 E8.52706
G1 X128.904 Y97.998 E8.55133
G1 X129.458 Y98.918 E8.60133
G1 X129.723 Y99.396 E8.62678
G1 X130.217 Y100.373 E8.67776
G1 X130.436 Y100.848 E8.70212
G1 X130.854 Y101.844 E8.75241
G1 X131.044 Y102.345 E8.77736
G1 X131.387 Y103.363 E8.82738
G1 X131.541 Y103.885 E8.85273
G1 X131.813 Y104.944 E8.90364
G1 X131.926 Y105.459 E8.92819
G1 X132.12 Y106.524 E8.9786
G1 X132.197 Y107.051 E9.0034
G1 X132.313 Y108.119 E9.05342
G1 X132.351 Y108.654 E9.07839
G1 X132.39 Y109.745 E9.12923
G1 X132.39 Y110.282 E9.15423
G1 X132.35 Y111.364 E9.20465
G1 X132.311 Y111.897 E9.22953
G1 X132.193 Y112.974 E9.27998
G1 X132.118 Y113.492 E9.30436
G1 X131.924 Y114.559 E9.35485
G1 X131.805 Y115.096 E9.38047
G1 X131.533 Y116.143 E9.43084
G1 X131.383 Y116.647 E9.45532
G1 X131.037 Y117.673 E9.50574
G1 X130.846 Y118.178 E9.53088
G1 X130.426 Y119.176 E9.5813
G1 X130.205 Y119.654 E9.60582
G1 X129.715 Y120.62 E9.65626
G1 X129.453 Y121.092 E9.6814
G1 X128.899 Y122.011 E9.73136
G1 X128.613 Y122.449 E9.75572
G1 X127.984 Y123.343 E9.80662
G1 X127.645 Y123.788 E9.83267
G1 X126.956 Y124.625 E9.88315
G1 X126.617 Y125.009 E9.907
G1 X125.872 Y125.796 E9.95746
G1 X125.482 Y126.179 E9.98291
G1 X124.683 Y126.907 E10.03325
G1 X124.285 Y127.244 E10.05753
G1 X123.443 Y127.909 E10.10749
G1 X123.005 Y128.23 E10.13278
G1 X122.098 Y128.844 E10.18378
G1 X121.653 Y129.123 E10.20823
G1 X120.724 Y129.66 E10.2582
G1 X120.245 Y129.914 E10.28345
G1 X119.272 Y130.385 E10.33378
G1 X118.786 Y130.599 E10.35851
G1 X117.769 Y131.004 E10.40948
G1 X117.263 Y131.184 E10.43449
G1 X116.239 Y131.508 E10.4845
G1 X115.732 Y131.649 E10.50901
G1 X114.681 Y131.901 E10.55933
G1 X114.146 Y132.009 E10.58475
G1 X113.066 Y132.185 E10.6357
G1 X112.538 Y132.251 E10.66048
G1 X111.458 Y132.348 E10.71097
G1 X110.933 Y132.377 E10.73545
G1 X109.852 Y132.397 E10.7858
G1 X109.305 Y132.387 E10.81127
G1 X108.224 Y132.327 E10.86168
G1 X107.692 Y132.278 E10.88656
G1 X106.617 Y132.14 E10.93703
G1 X106.104 Y132.056 E10.96123
G1 X105.042 Y131.843 E11.01167
G1 X104.507 Y131.714 E11.0373
G1 X103.465 Y131.423 E11.08767
G1 X102.964 Y131.264 E11.11215
G1 X101.943 Y130.899 E11.16264
G1 X101.448 Y130.702 E11.18744
G1 X100.457 Y130.265 E11.23788
G1 X99.963 Y130.025 E11.26345
G1 X99.006 Y129.515 E11.31394
G1 X98.555 Y129.253 E11.33823
G1 X97.638 Y128.678 E11.38863
G1 X97.198 Y128.38 E11.41338
G1 X96.325 Y127.741 E11.46375
G1 X95.9 Y127.405 E11.48898
G1 X95.074 Y126.702 E11.53949
G1 X94.682 Y126.344 E11.56421
G1 X93.91 Y125.585 E11.61462
G1 X93.541 Y125.195 E11.63962
G1 X92.826 Y124.382 E11.69003
G1 X92.488 Y123.968 E11.71492
G1 X91.834 Y123.106 E11.7653
G1 X91.526 Y122.668 E11.79023
G1 X90.934 Y121.758 E11.84078
G1 X90.662 Y121.306 E11.86535
G1 X90.138 Y120.359 E11.91575
G1 X89.895 Y119.879 E11.9408
G1 X89.446 Y118.907 E11.99065
G1 X89.242 Y118.42 E12.01524
G1 X88.855 Y117.396 E12.06621
G1 X88.679 Y116.872 E12.09195
G1 X88.373 Y115.834 E12.14234
G1 X88.246 Y115.341 E12.16605
G1 X88.014 Y114.293 E12.21603
G1 X87.916 Y113.759 E12.24131
G1 X87.76 Y112.686 E12.2918
G1 X87.702 Y112.155 E12.31667
G1 X87.624 Y111.077 E12.367
G1 X87.605 Y110.543 E12.39188
G1 X87.605 Y109.448 E12.44287
G1 X87.625 Y108.908 E12.46803
G1 X87.704 Y107.829 E12.5184
G1 X87.762 Y107.298 E12.54328
G1 X87.919 Y106.225 E12.59377
G1 X88.017 Y105.69 E12.6191
G1 X88.252 Y104.633 E12.66952
G1 X88.38 Y104.138 E12.69333
G1 X88.687 Y103.101 E12.74369
G1 X88.864 Y102.578 E12.7694
G1 X89.249 Y101.563 E12.81994
G1 X89.452 Y101.079 E12.84438
G1 X89.906 Y100.098 E12.89472
G1 X90.152 Y99.615 E12.91996
G1 X90.677 Y98.669 E12.97034
G1 X90.949 Y98.217 E12.9949
G1 X91.542 Y97.308 E13.04544
G1 X91.851 Y96.871 E13.07036
G1 X92.506 Y96.01 E13.12073
G1 X92.845 Y95.596 E13.14565
G1 X93.561 Y94.784 E13.19606
G1 X93.933 Y94.391 E13.22126
G0 F6000 X94.213 Y94.677
G1 F1200 X94.987 Y93.919 E13.2717
G1 X95.352 Y93.586 E13.29471
G1 X96.178 Y92.884 E13.34518
G1 X96.584 Y92.564 E13.36925
G1 X97.458 Y91.926 E13.41964
G1 X97.871 Y91.647 E13.44285
G1 X98.78 Y91.078 E13.49278
G1 X99.213 Y90.827 E13.51609
G1 X100.18 Y90.314 E13.56706
G1 X100.642 Y90.091 E13.59095
G1 X101.633 Y89.655 E13.64136
G1 X102.094 Y89.471 E13.66448
G1 X103.106 Y89.109 E13.71452
G1 X103.604 Y88.952 E13.73884
G1 X104.656 Y88.662 E13.78965
G1 X105.141 Y88.546 E13.81287
G1 X106.204 Y88.333 E13.86335
G1 X106.692 Y88.253 E13.88638
G1 X107.757 Y88.117 E13.93637
G1 X108.266 Y88.071 E13.96017
G1 X109.357 Y88.012 E14.01104
G1 X109.871 Y88.003 E14.03498
G1 X110.952 Y88.024 E14.08533
G1 X111.449 Y88.052 E14.10851
G1 X112.529 Y88.15 E14.159
G1 X113.032 Y88.214 E14.18261
G1 X114.102 Y88.39 E14.23311
G1 X114.606 Y88.492 E14.25705
G1 X115.656 Y88.745 E14.30734
G1 X116.129 Y88.876 E14.3302
G1 X117.162 Y89.203 E14.38065
G1 X117.648 Y89.377 E14.40469
G1 X118.656 Y89.78 E14.45524
G1 X119.112 Y89.982 E14.47846
G1 X120.085 Y90.454 E14.52882
G1 X120.535 Y90.693 E14.55254
G1 X121.472 Y91.235 E14.60295
G1 X121.899 Y91.503 E14.62642
G1 X122.796 Y92.112 E14.67691
G1 X123.203 Y92.41 E14.70039
G1 X124.045 Y93.075 E14.75035
G1 X124.43 Y93.402 E14.77387
G1 X125.236 Y94.139 E14.82473
G1 X125.597 Y94.494 E14.84831
G1 X126.335 Y95.274 E14.89831
G1 X126.662 Y95.645 E14.92133
G1 X127.356 Y96.491 E14.97229
G1 X127.672 Y96.907 E14.99661
G1 X128.293 Y97.791 E15.04692
G1 X128.562 Y98.204 E15.06987
G1 X129.116 Y99.124 E15.11987
G1 X129.366 Y99.576 E15.14393
G1 X129.86 Y100.553 E15.1949
G1 X130.068 Y101.003 E15.21799
G1 X130.486 Y101.999 E15.26828
G1 X130.665 Y102.473 E15.29188
G1 X131.008 Y103.491 E15.3419
G1 X131.154 Y103.985 E15.36588
G1 X131.426 Y105.044 E15.4168
G1 X131.533 Y105.531 E15.44001
G1 X131.727 Y106.596 E15.49042
G1 X131.799 Y107.094 E15.51385
G1 X131.915 Y108.162 E15.56387
G1 X131.952 Y108.668 E15.5875
G1 X131.991 Y109.759 E15.63833
G1 X131.99 Y110.268 E15.66203
G1 X131.95 Y111.35 E15.71245
G1 X131.913 Y111.853 E15.73593
G1 X131.795 Y112.93 E15.78638
G1 X131.724 Y113.42 E15.80944
G1 X131.53 Y114.487 E15.85994
G1 X131.418 Y114.995 E15.88416
G1 X131.146 Y116.042 E15.93453
G1 X131.004 Y116.519 E15.95771
G1 X130.658 Y117.545 E16.00812
G1 X130.477 Y118.023 E16.03192
G1 X130.057 Y119.021 E16.08234
G1 X129.848 Y119.473 E16.10553
G1 X129.358 Y120.439 E16.15597
G1 X129.11 Y120.886 E16.17977
G1 X128.556 Y121.805 E16.22974
G1 X128.286 Y122.219 E16.25275
G1 X127.657 Y123.113 E16.30365
G1 X127.336 Y123.534 E16.3283
G1 X126.647 Y124.371 E16.37878
G1 X126.327 Y124.734 E16.40132
G1 X125.582 Y125.521 E16.45178
G1 X125.213 Y125.883 E16.47585
G1 X124.414 Y126.611 E16.52618
G1 X124.038 Y126.93 E16.54914
G1 X123.196 Y127.595 E16.5991
G1 X122.781 Y127.899 E16.62306
G1 X121.874 Y128.513 E16.67406
G1 X121.453 Y128.776 E16.69717
G1 X120.524 Y129.313 E16.74714
G1 X120.071 Y129.554 E16.77103
G1 X119.098 Y130.025 E16.82136
G1 X118.638 Y130.227 E16.84476
G1 X117.621 Y130.632 E16.89573
G1 X117.143 Y130.803 E16.91937
G1 X116.119 Y131.127 E16.96938
G1 X115.639 Y131.26 E16.99257
G1 X114.588 Y131.512 E17.0429
G1 X114.082 Y131.614 E17.06694
G1 X113.002 Y131.79 E17.11789
G1 X112.502 Y131.853 E17.14136
G1 X111.422 Y131.95 E17.19185
G1 X110.925 Y131.977 E17.21502
G1 X109.844 Y131.997 E17.26537
G1 X109.327 Y131.987 E17.28945
G1 X108.246 Y131.927 E17.33986
G1 X107.743 Y131.881 E17.36338
G1 X106.668 Y131.743 E17.41385
G1 X106.182 Y131.663 E17.43678
G1 X105.12 Y131.45 E17.48722
G1 X104.614 Y131.329 E17.51144
G1 X103.572 Y131.038 E17.56182
G1 X103.099 Y130.887 E17.58494
G1 X102.078 Y130.522 E17.63543
G1 X101.61 Y130.336 E17.65888
G1 X100.619 Y129.899 E17.70931
G1 X100.151 Y129.672 E17.73353
G1 X99.194 Y129.162 E17.78403
G1 X98.767 Y128.915 E17.807
G1 X97.85 Y128.34 E17.85739
G1 X97.435 Y128.058 E17.88076
G1 X96.562 Y127.419 E17.93113
G1 X96.159 Y127.101 E17.95504
G1 X95.333 Y126.398 E18.00554
G1 X94.962 Y126.059 E18.02895
G1 X94.19 Y125.3 E18.07936
G1 X93.842 Y124.931 E18.10298
G1 X93.127 Y124.118 E18.15339
G1 X92.806 Y123.726 E18.17698
G1 X92.152 Y122.864 E18.22736
G1 X91.861 Y122.45 E18.25093
G1 X91.269 Y121.54 E18.30148
G1 X91.012 Y121.112 E18.32473
G1 X90.488 Y120.165 E18.37512
G1 X90.258 Y119.711 E18.39882
G1 X89.809 Y118.739 E18.44868
G1 X89.616 Y118.279 E18.4719
G1 X89.229 Y117.255 E18.52288
G1 X89.063 Y116.759 E18.54723
G1 X88.757 Y115.721 E18.59762
G1 X88.636 Y115.255 E18.62004
G1 X88.404 Y114.207 E18.67002
G1 X88.312 Y113.701 E18.69397
G1 X88.156 Y112.628 E18.74446
G1 X88.101 Y112.126 E18.76797
G1 X88.023 Y111.048 E18.8183
G1 X88.005 Y110.543 E18.84183
G1 X88.005 Y109.448 E18.89282
G1 X88.024 Y108.937 E18.91663
G1 X88.103 Y107.858 E18.96701
G1 X88.158 Y107.356 E18.99052
G1 X88.315 Y106.283 E19.04102
G1 X88.408 Y105.777 E19.06497
