;FLAVOR:Marlin
;TIME:1757
;Filament used: 2.02672m
;Layer height: 0.28
;MINX:87.201
;MINY:87.201
;MINZ:0.28
;MAXX:132.796
;MAXY:132.799
;MAXZ:19.88
;Generated with Cura_SteamEngine 5.2.1
M82 ;absolute extrusion mode
; Ender 3 Custom Start G-code
G92 E0 ; Reset Extruder
G28 ; Home all axes
M104 S175 ; Start heating up the nozzle most of the way
M190 S60 ; Start heating the bed, wait until target temperature reached
M109 S200 ; Finish heating the nozzle
G1 Z2.0 F3000 ; Move Z Axis up little to prevent scratching of Heat Bed
G1 X0.1 Y20 Z0.3 F5000.0 ; Move to start position
G1 X0.1 Y200.0 Z0.3 F1500.0 E15 ; Draw the first line
G1 X0.4 Y200.0 Z0.3 F5000.0 ; Move to side a little
G1 X0.4 Y20 Z0.3 F1500.0 E30 ; Draw the second line
G92 E0 ; Reset Extruder
G1 Z2.0 F3000 ; Move Z Axis up little to prevent scratching of Heat Bed
G1 X5 Y20 Z0.3 F5000.0 ; Move over to prevent blob squish
G92 E0
G92 E0
G1 F1500 E-6.5
;LAYER_COUNT:71
;LAYER:0
M107
G0 F6000 X94.148 Y93.614 Z0.28
;TYPE:SKIRT
G1 F1500 E0
G1 F1200 X94.652 Y93.141 E0.03218
G1 X95.119 Y92.727 E0.06124
G1 X95.845 Y92.128 E0.10507
G1 X96.14 Y91.898 E0.12249
G1 X96.693 Y91.488 E0.15454
G1 X96.978 Y91.287 E0.17078
G1 X97.796 Y90.741 E0.21658
G1 X98.294 Y90.436 E0.24377
G1 X99.143 Y89.95 E0.28932
G1 X99.682 Y89.669 E0.31763
G1 X100.567 Y89.243 E0.36336
G1 X101.103 Y89.009 E0.3906
G1 X101.742 Y88.749 E0.42272
G1 X102.314 Y88.534 E0.45117
G1 X103.251 Y88.223 E0.49714
G1 X103.821 Y88.054 E0.52483
G1 X104.756 Y87.813 E0.56979
G1 X105.102 Y87.734 E0.58631
G1 X105.777 Y87.596 E0.6184
G1 X106.132 Y87.532 E0.63519
G1 X106.815 Y87.425 E0.66738
G1 X107.176 Y87.377 E0.68434
G1 X107.863 Y87.302 E0.71652
G1 X108.212 Y87.272 E0.73283
G1 X108.901 Y87.228 E0.76498
G1 X109.262 Y87.213 E0.7818
G1 X109.952 Y87.201 E0.81394
G1 X110.314 Y87.203 E0.83079
G1 X111.004 Y87.223 E0.86294
G1 X111.62 Y87.258 E0.89167
G1 X112.565 Y87.346 E0.93586
G1 X112.931 Y87.39 E0.95303
G1 X113.613 Y87.489 E0.98512
G1 X113.97 Y87.549 E1.00197
G1 X114.649 Y87.68 E1.03417
G1 X115.206 Y87.801 E1.06071
G1 X115.515 Y87.877 E1.07553
G1 X116.458 Y88.134 E1.12104
G1 X117.012 Y88.307 E1.14807
G1 X117.666 Y88.529 E1.18023
G1 X118.011 Y88.655 E1.19733
G1 X118.655 Y88.908 E1.22955
G1 X118.985 Y89.046 E1.2462
G1 X119.614 Y89.327 E1.27828
G1 X119.938 Y89.482 E1.29501
G1 X120.786 Y89.913 E1.3393
G1 X121.342 Y90.223 E1.36894
G1 X122.219 Y90.753 E1.41666
G1 X122.796 Y91.131 E1.44878
G1 X123.098 Y91.34 E1.46588
G1 X123.879 Y91.911 E1.51093
G1 X124.35 Y92.284 E1.5389
G1 X125.098 Y92.915 E1.58447
G1 X125.554 Y93.331 E1.61321
G1 X126.05 Y93.809 E1.64529
G1 X126.297 Y94.058 E1.66162
G1 X126.956 Y94.76 E1.70645
G1 X127.348 Y95.209 E1.73421
G1 X127.788 Y95.74 E1.76632
G1 X128.021 Y96.035 E1.78382
G1 X128.436 Y96.588 E1.81602
G1 X128.788 Y97.085 E1.84438
G1 X129.46 Y98.12 E1.90184
G1 X129.771 Y98.648 E1.93037
G1 X130.105 Y99.251 E1.96247
G1 X130.272 Y99.569 E1.97919
G1 X130.688 Y100.417 E2.02318
G1 X130.831 Y100.731 E2.03924
G1 X131.206 Y101.629 E2.08456
G1 X131.336 Y101.966 E2.10138
G1 X131.569 Y102.615 E2.13348
G1 X131.684 Y102.961 E2.15046
G1 X131.887 Y103.622 E2.18266
G1 X131.984 Y103.964 E2.19921
G1 X132.235 Y104.967 E2.24736
G1 X132.378 Y105.644 E2.27958
G1 X132.444 Y105.999 E2.29639
G1 X132.555 Y106.679 E2.32847
G1 X132.606 Y107.045 E2.34568
G1 X132.685 Y107.732 E2.37788
G1 X132.738 Y108.331 E2.40588
G1 X132.788 Y109.296 E2.45088
G1 X132.796 Y109.657 E2.46769
G1 X132.796 Y110.346 E2.49977
G1 X132.788 Y110.707 E2.51659
G1 X132.738 Y111.67 E2.56149
G1 X132.685 Y112.273 E2.58967
G1 X132.606 Y112.959 E2.62183
G1 X132.555 Y113.324 E2.63899
G1 X132.444 Y114.004 E2.67107
G1 X132.38 Y114.348 E2.68737
G1 X132.238 Y115.025 E2.71958
G1 X132.154 Y115.382 E2.73665
G1 X131.981 Y116.049 E2.76874
G1 X131.884 Y116.391 E2.78529
G1 X131.68 Y117.052 E2.8175
G1 X131.568 Y117.388 E2.834
G1 X131.335 Y118.037 E2.8661
G1 X131.203 Y118.379 E2.88317
G1 X130.939 Y119.018 E2.91537
G1 X130.79 Y119.355 E2.93253
G1 X130.391 Y120.197 E2.97591
G1 X130.111 Y120.739 E3.00432
G1 X129.778 Y121.343 E3.03643
G1 X129.311 Y122.118 E3.07857
G1 X128.773 Y122.938 E3.12423
G1 X128.439 Y123.407 E3.15104
G1 X128.026 Y123.959 E3.18315
G1 X127.791 Y124.258 E3.20085
G1 X127.175 Y124.995 E3.24558
G1 X126.767 Y125.449 E3.274
G1 X126.291 Y125.95 E3.30618
G1 X126.031 Y126.21 E3.3233
G1 X125.533 Y126.687 E3.35541
G1 X125.095 Y127.086 E3.383
G1 X124.346 Y127.718 E3.42864
G1 X123.878 Y128.088 E3.45642
G1 X123.093 Y128.663 E3.50173
G1 X122.804 Y128.863 E3.51809
G1 X122.226 Y129.243 E3.5503
G1 X121.914 Y129.437 E3.56741
G1 X121.321 Y129.788 E3.5995
G1 X120.81 Y130.074 E3.62676
G1 X119.933 Y130.521 E3.6726
G1 X119.599 Y130.68 E3.68982
G1 X118.658 Y131.091 E3.73764
G1 X118.016 Y131.344 E3.76977
G1 X117.65 Y131.478 E3.78792
G1 X116.995 Y131.699 E3.82011
G1 X116.433 Y131.873 E3.8475
G1 X115.501 Y132.125 E3.89246
G1 X115.144 Y132.211 E3.90956
G1 X114.47 Y132.356 E3.94166
G1 X113.606 Y132.512 E3.98254
G1 X112.922 Y132.611 E4.01472
G1 X112.562 Y132.654 E4.0316
G1 X111.614 Y132.742 E4.07594
G1 X110.999 Y132.777 E4.10462
G1 X110.31 Y132.797 E4.13672
G1 X109.948 Y132.799 E4.15357
G1 X109.259 Y132.787 E4.18566
G1 X108.899 Y132.772 E4.20244
G1 X107.855 Y132.698 E4.25117
G1 X107.17 Y132.623 E4.28326
G1 X106.812 Y132.575 E4.30008
G1 X106.129 Y132.468 E4.33227
G1 X105.778 Y132.405 E4.34888
G1 X105.101 Y132.267 E4.38105
G1 X104.749 Y132.186 E4.39787
G1 X103.817 Y131.946 E4.44268
G1 X103.22 Y131.768 E4.47169
G1 X102.564 Y131.552 E4.50385
G1 X101.99 Y131.346 E4.53225
G1 X101.113 Y130.995 E4.57623
G1 X100.526 Y130.738 E4.60607
G1 X99.687 Y130.333 E4.64945
G1 X99.139 Y130.048 E4.67821
G1 X98.29 Y129.562 E4.72376
G1 X97.792 Y129.257 E4.75096
G1 X96.977 Y128.714 E4.79656
G1 X96.675 Y128.5 E4.81379
G1 X95.86 Y127.884 E4.86136
G1 X95.091 Y127.25 E4.90777
G1 X94.649 Y126.856 E4.93534
G1 X94.147 Y126.385 E4.9674
G1 X93.691 Y125.932 E4.99733
G1 X93.056 Y125.253 E5.04061
G1 X92.812 Y124.978 E5.05773
G1 X92.366 Y124.45 E5.08992
G1 X91.998 Y123.992 E5.11727
G1 X91.411 Y123.199 E5.16322
G1 X91.206 Y122.906 E5.17987
G1 X90.824 Y122.331 E5.21201
G1 X90.634 Y122.03 E5.22859
G1 X90.105 Y121.135 E5.277
G1 X89.777 Y120.529 E5.30908
G1 X89.609 Y120.2 E5.32628
G1 X89.309 Y119.577 E5.35848
G1 X89.159 Y119.245 E5.37545
G1 X88.889 Y118.61 E5.40758
G1 X88.76 Y118.287 E5.42377
G1 X88.518 Y117.639 E5.45598
G1 X88.393 Y117.278 E5.47377
G1 X88.184 Y116.622 E5.50583
G1 X87.907 Y115.627 E5.55392
G1 X87.822 Y115.281 E5.57051
G1 X87.602 Y114.257 E5.61928
G1 X87.483 Y113.576 E5.65147
G1 X87.429 Y113.217 E5.66838
G1 X87.342 Y112.533 E5.70048
G1 X87.25 Y111.492 E5.74914
G1 X87.229 Y111.132 E5.76594
G1 X87.205 Y110.445 E5.79795
G1 X87.201 Y110.083 E5.8148
G1 X87.209 Y109.391 E5.84703
G1 X87.221 Y109.03 E5.86385
G1 X87.282 Y108.066 E5.90882
G1 X87.342 Y107.467 E5.93686
G1 X87.429 Y106.781 E5.96905
G1 X87.523 Y106.174 E5.99766
G1 X87.707 Y105.223 E6.04276
G1 X87.836 Y104.648 E6.0702
G1 X88.09 Y103.694 E6.11617
G1 X88.194 Y103.343 E6.13322
G1 X88.517 Y102.367 E6.18109
G1 X88.758 Y101.719 E6.21328
G1 X88.895 Y101.376 E6.23048
G1 X89.166 Y100.741 E6.26263
G1 X89.607 Y99.805 E6.31081
G1 X89.772 Y99.481 E6.32774
G1 X90.099 Y98.874 E6.35984
G1 X90.287 Y98.545 E6.37749
G1 X90.824 Y97.667 E6.42541
G1 X91.205 Y97.093 E6.45749
G1 X91.413 Y96.796 E6.47437
G1 X91.822 Y96.238 E6.50659
G1 X92.041 Y95.953 E6.52332
G1 X92.474 Y95.416 E6.55545
G1 X92.713 Y95.133 E6.57269
G1 X93.172 Y94.616 E6.60489
G1 X93.422 Y94.348 E6.62195
G1 X94.148 Y93.614 E6.67002
G0 F6000 X94.422 Y93.906
G1 F1200 X95.122 Y93.256 E6.7145
G1 X95.564 Y92.874 E6.74171
G1 X96.098 Y92.437 E6.77384
G1 X96.378 Y92.22 E6.79033
G1 X97.201 Y91.618 E6.83781
G1 X98.007 Y91.081 E6.88291
G1 X98.494 Y90.783 E6.9095
G1 X99.331 Y90.304 E6.9544
G1 X99.858 Y90.028 E6.9821
G1 X100.73 Y89.608 E7.02717
G1 X101.254 Y89.38 E7.05378
G1 X101.893 Y89.12 E7.0859
G1 X102.452 Y88.91 E7.11371
G1 X103.375 Y88.604 E7.15899
G1 X103.933 Y88.438 E7.1861
G1 X104.854 Y88.201 E7.23038
G1 X105.182 Y88.126 E7.24605
G1 X105.857 Y87.988 E7.27813
G1 X106.194 Y87.927 E7.29407
G1 X106.877 Y87.82 E7.32627
G1 X107.219 Y87.775 E7.34233
G1 X108.237 Y87.671 E7.38998
G1 X108.926 Y87.627 E7.42212
G1 X109.269 Y87.613 E7.43811
G1 X109.959 Y87.601 E7.47024
G1 X110.302 Y87.603 E7.48622
G1 X111.252 Y87.635 E7.53048
G1 X111.837 Y87.677 E7.55779
G1 X112.526 Y87.744 E7.59002
G1 X112.873 Y87.786 E7.6063
G1 X113.555 Y87.885 E7.63839
G1 X113.894 Y87.942 E7.65439
G1 X114.573 Y88.073 E7.68659
G1 X115.119 Y88.192 E7.71261
G1 X115.412 Y88.264 E7.72666
G1 X116.341 Y88.516 E7.77148
G1 X116.884 Y88.686 E7.79798
G1 X117.538 Y88.908 E7.83014
G1 X117.865 Y89.027 E7.84634
G1 X118.509 Y89.28 E7.87856
G1 X119.45 Y89.693 E7.92641
G1 X119.759 Y89.839 E7.94233
G1 X120.375 Y90.149 E7.97444
G1 X120.898 Y90.43 E8.00208
G1 X121.73 Y90.919 E8.04702
G1 X122.577 Y91.466 E8.09397
G1 X122.864 Y91.663 E8.11018
G1 X123.423 Y92.068 E8.14232
G1 X123.906 Y92.44 E8.17071
G1 X124.623 Y93.033 E8.21403
G1 X125.088 Y93.443 E8.2429
G1 X125.772 Y94.097 E8.28697
G1 X126.007 Y94.333 E8.30248
G1 X126.657 Y95.025 E8.34668
G1 X127.04 Y95.464 E8.37381
G1 X127.48 Y95.995 E8.40592
G1 X127.701 Y96.275 E8.42253
G1 X128.116 Y96.828 E8.45473
G1 X128.46 Y97.314 E8.48245
G1 X128.973 Y98.095 E8.52596
G1 X129.421 Y98.841 E8.56648
G1 X129.914 Y99.746 E8.61447
G1 X130.221 Y100.366 E8.64668
G1 X130.467 Y100.897 E8.67393
G1 X130.837 Y101.782 E8.7186
G1 X130.96 Y102.102 E8.73456
G1 X131.193 Y102.751 E8.76667
G1 X131.302 Y103.079 E8.78277
G1 X131.597 Y104.064 E8.83065
G1 X131.769 Y104.731 E8.86272
G1 X131.986 Y105.727 E8.91019
G1 X132.049 Y106.064 E8.92615
G1 X132.16 Y106.744 E8.95823
G1 X132.209 Y107.091 E8.97455
G1 X132.288 Y107.778 E9.00675
G1 X132.339 Y108.364 E9.03414
G1 X132.388 Y109.315 E9.07848
G1 X132.396 Y109.657 E9.09441
G1 X132.396 Y110.346 E9.12649
G1 X132.388 Y110.688 E9.14242
G1 X132.34 Y111.637 E9.18667
G1 X132.312 Y111.981 E9.20274
G1 X132.208 Y112.914 E9.24645
G1 X132.16 Y113.259 E9.26267
G1 X132.049 Y113.939 E9.29476
G1 X131.988 Y114.266 E9.31025
G1 X131.846 Y114.943 E9.34245
G1 X131.767 Y115.282 E9.35866
G1 X131.594 Y115.949 E9.39075
G1 X131.502 Y116.273 E9.40643
G1 X131.298 Y116.934 E9.43864
G1 X131.192 Y117.252 E9.45425
G1 X130.959 Y117.901 E9.48636
G1 X130.833 Y118.227 E9.50264
G1 X130.569 Y118.866 E9.53483
G1 X130.428 Y119.185 E9.55107
G1 X130.135 Y119.809 E9.58317
G1 X129.877 Y120.325 E9.61003
G1 X129.427 Y121.15 E9.65379
G1 X128.976 Y121.901 E9.69458
G1 X128.446 Y122.708 E9.73954
G1 X128.119 Y123.167 E9.76578
G1 X127.706 Y123.719 E9.79788
G1 X127.482 Y124.003 E9.81472
G1 X126.876 Y124.73 E9.8588
G1 X126.477 Y125.173 E9.88656
G1 X126.001 Y125.674 E9.91874
G1 X125.755 Y125.921 E9.93497
G1 X125.257 Y126.398 E9.96708
G1 X124.828 Y126.788 E9.99408
G1 X124.089 Y127.411 E10.03908
G1 X123.632 Y127.773 E10.06623
G1 X122.859 Y128.339 E10.11084
G1 X122.006 Y128.908 E10.15859
G1 X121.71 Y129.093 E10.17484
G1 X120.92 Y129.557 E10.2175
G1 X120.371 Y129.853 E10.24654
G1 X119.753 Y130.164 E10.27876
G1 X119.436 Y130.314 E10.29509
G1 X118.511 Y130.719 E10.34211
G1 X117.869 Y130.972 E10.37424
G1 X117.522 Y131.099 E10.39145
G1 X116.867 Y131.32 E10.42363
G1 X116.317 Y131.49 E10.45044
G1 X115.398 Y131.738 E10.49476
G1 X115.059 Y131.819 E10.51099
G1 X114.157 Y132.01 E10.55393
G1 X113.549 Y132.116 E10.58266
G1 X112.865 Y132.215 E10.61485
G1 X112.523 Y132.256 E10.63088
G1 X111.836 Y132.323 E10.66303
G1 X111.244 Y132.365 E10.69066
G1 X110.299 Y132.397 E10.73469
G1 X109.955 Y132.399 E10.75071
G1 X109.266 Y132.387 E10.7828
G1 X108.925 Y132.373 E10.79869
G1 X108.234 Y132.329 E10.83093
G1 X107.899 Y132.3 E10.84659
G1 X107.214 Y132.225 E10.87867
G1 X106.874 Y132.18 E10.89464
G1 X106.191 Y132.073 E10.92683
G1 X105.858 Y132.013 E10.94259
G1 X105.181 Y131.875 E10.97476
G1 X104.847 Y131.799 E10.99071
G1 X104.178 Y131.63 E11.02284
G1 X103.345 Y131.388 E11.06323
G1 X102.452 Y131.089 E11.10708
G1 X101.903 Y130.884 E11.13437
G1 X101.006 Y130.515 E11.17954
G1 X100.482 Y130.276 E11.20635
G1 X99.862 Y129.974 E11.23847
G1 X99.087 Y129.561 E11.27936
G1 X98.296 Y129.099 E11.32201
G1 X98.003 Y128.917 E11.33807
G1 X97.201 Y128.382 E11.38296
G1 X96.914 Y128.179 E11.39933
G1 X96.112 Y127.574 E11.44611
G1 X95.576 Y127.138 E11.47829
G1 X94.923 Y126.565 E11.51874
G1 X94.22 Y125.898 E11.56386
G1 X93.818 Y125.486 E11.59067
G1 X93.349 Y124.981 E11.62276
G1 X93.118 Y124.72 E11.63899
G1 X92.672 Y124.192 E11.67117
G1 X92.312 Y123.744 E11.69793
G1 X91.733 Y122.963 E11.7432
G1 X91.539 Y122.685 E11.75899
G1 X91.157 Y122.11 E11.79113
G1 X90.976 Y121.824 E11.80689
G1 X90.62 Y121.231 E11.8391
G1 X90.129 Y120.338 E11.88655
G1 X89.97 Y120.027 E11.90282
G1 X89.67 Y119.404 E11.93501
G1 X89.527 Y119.089 E11.95112
G1 X89.257 Y118.454 E11.98325
G1 X88.893 Y117.499 E12.03084
G1 X88.774 Y117.156 E12.04775
G1 X88.565 Y116.5 E12.07981
G1 X88.293 Y115.522 E12.12707
G1 X88.212 Y115.194 E12.14281
G1 X87.996 Y114.188 E12.19072
G1 X87.877 Y113.507 E12.22291
G1 X87.826 Y113.167 E12.23892
G1 X87.739 Y112.483 E12.27102
G1 X87.704 Y112.148 E12.28671
G1 X87.648 Y111.459 E12.3189
G1 X87.629 Y111.118 E12.3348
G1 X87.6 Y110.087 E12.38282
G1 X87.608 Y109.395 E12.41505
G1 X87.62 Y109.053 E12.43098
G1 X87.66 Y108.363 E12.46317
G1 X87.712 Y107.761 E12.4913
G1 X87.826 Y106.831 E12.53493
G1 X87.918 Y106.238 E12.56288
G1 X88.099 Y105.301 E12.60731
G1 X88.226 Y104.738 E12.63419
G1 X88.476 Y103.799 E12.67943
G1 X88.575 Y103.466 E12.69561
G1 X88.892 Y102.506 E12.74269
G1 X89.133 Y101.858 E12.77488
G1 X89.263 Y101.533 E12.79118
G1 X89.534 Y100.898 E12.82333
G1 X89.968 Y99.978 E12.87069
G1 X90.124 Y99.67 E12.88677
G1 X90.451 Y99.063 E12.91887
G1 X90.629 Y98.752 E12.93556
G1 X90.986 Y98.16 E12.96775
G1 X91.539 Y97.315 E13.01477
G1 X91.736 Y97.032 E13.03083
G1 X92.352 Y96.204 E13.07888
G1 X92.785 Y95.667 E13.11101
G1 X93.012 Y95.399 E13.12736
G1 X93.471 Y94.882 E13.15955
G1 X93.708 Y94.627 E13.17576
G1 X94.189 Y94.134 E13.20783
G1 X94.422 Y93.906 E13.22301
G0 F6000 X94.696 Y94.198
G1 F1200 X95.385 Y93.557 E13.26683
G1 X95.818 Y93.184 E13.29345
G1 X96.352 Y92.747 E13.32558
G1 X96.616 Y92.541 E13.34117
G1 X97.169 Y92.131 E13.37322
G1 X97.999 Y91.563 E13.42006
G1 X98.511 Y91.239 E13.44827
G1 X99.518 Y90.657 E13.50243
G1 X100.033 Y90.388 E13.52948
G1 X100.892 Y89.974 E13.57388
G1 X101.405 Y89.75 E13.59995
G1 X102.044 Y89.49 E13.63207
G1 X102.59 Y89.285 E13.65923
G1 X103.498 Y88.984 E13.70377
G1 X104.044 Y88.822 E13.73029
G1 X104.952 Y88.589 E13.77394
G1 X105.262 Y88.518 E13.78875
G1 X106.256 Y88.322 E13.83593
G1 X106.939 Y88.215 E13.86812
G1 X107.262 Y88.172 E13.88329
G1 X107.949 Y88.097 E13.91547
G1 X108.952 Y88.026 E13.96229
G1 X109.276 Y88.013 E13.97739
G1 X109.966 Y88.001 E14.00952
G1 X110.291 Y88.003 E14.02466
G1 X111.226 Y88.034 E14.06822
G1 X111.799 Y88.075 E14.09497
G1 X112.488 Y88.142 E14.1272
G1 X112.816 Y88.182 E14.14259
G1 X113.498 Y88.281 E14.17468
G1 X113.818 Y88.335 E14.18979
G1 X114.696 Y88.507 E14.23145
G1 X115.309 Y88.65 E14.26076
G1 X116.224 Y88.898 E14.3049
G1 X116.755 Y89.064 E14.33081
G1 X117.409 Y89.286 E14.36297
G1 X118.363 Y89.653 E14.41057
G1 X118.658 Y89.777 E14.42547
G1 X119.579 Y90.196 E14.47258
G1 X120.195 Y90.506 E14.50469
G1 X120.707 Y90.781 E14.53175
G1 X121.526 Y91.263 E14.576
G1 X122.358 Y91.801 E14.62214
G1 X122.629 Y91.987 E14.63745
G1 X123.188 Y92.392 E14.66959
G1 X123.66 Y92.755 E14.69731
G1 X124.367 Y93.34 E14.74004
G1 X124.82 Y93.741 E14.76821
G1 X125.494 Y94.385 E14.81162
G1 X125.717 Y94.609 E14.82634
G1 X126.357 Y95.29 E14.86986
G1 X126.732 Y95.72 E14.89642
G1 X127.172 Y96.251 E14.92853
G1 X127.381 Y96.515 E14.94421
G1 X127.796 Y97.068 E14.97641
G1 X128.132 Y97.543 E15.0035
G1 X128.638 Y98.313 E15.0464
G1 X128.952 Y98.829 E15.07453
G1 X129.405 Y99.638 E15.1177
G1 X129.555 Y99.924 E15.13274
G1 X129.862 Y100.544 E15.16496
G1 X130.204 Y101.296 E15.20342
G1 X130.467 Y101.934 E15.23556
G1 X130.816 Y102.886 E15.28277
G1 X130.92 Y103.196 E15.298
G1 X131.123 Y103.857 E15.33019
G1 X131.209 Y104.164 E15.34504
G1 X131.452 Y105.132 E15.39151
G1 X131.655 Y106.128 E15.43884
G1 X131.766 Y106.808 E15.47093
G1 X131.811 Y107.136 E15.48634
