;FLAVOR:Marlin
;TIME:2344
;Filament used: 2.26344m
;Layer height: 0.28
;MINX:89.977
;MINY:92.2
;MINZ:0.28
;MAXX:130.202
;MAXY:127.8
;MAXZ:29.96
;Generated with Cura_SteamEngine 5.2.1
M82 ;absolute extrusion mode
; Ender 3 Custom Start G-code
G92 E0 ; Reset Extruder
G28 ; Home all axes
M104 S175 ; Start heating up the nozzle most of the way
M190 S60 ; Start heating the bed, wait until target temperature reached
M109 S200 ; Finish heating the nozzle
G1 Z2.0 F3000 ; Move Z Axis up little to prevent scratching of Heat Bed
G1 X0.1 Y20 Z0.3 F5000.0 ; Move to start position
G1 X0.1 Y200.0 Z0.3 F1500.0 E15 ; Draw the first line
G1 X0.4 Y200.0 Z0.3 F5000.0 ; Move to side a little
G1 X0.4 Y20 Z0.3 F1500.0 E30 ; Draw the second line
G92 E0 ; Reset Extruder
G1 Z2.0 F3000 ; Move Z Axis up little to prevent scratching of Heat Bed
G1 X5 Y20 Z0.3 F5000.0 ; Move over to prevent blob squish
G92 E0
G92 E0
G1 F1500 E-6.5
;LAYER_COUNT:107
;LAYER:0
M107
G0 F6000 X92.402 Y94.349 Z0.28
;TYPE:SKIRT
G1 F1500 E0
G1 F1200 X93.001 Y93.834 E0.03678
G1 X93.649 Y93.383 E0.07355
G1 X94.339 Y92.999 E0.11032
G1 X95.064 Y92.687 E0.14707
G1 X95.818 Y92.45 E0.18387
G1 X96.591 Y92.291 E0.22062
G1 X97.377 Y92.21 E0.25741
G1 X97.778 Y92.2 E0.27609
G1 X106.468 Y92.2 E0.68073
G1 X107.279 Y92.243 E0.71855
G1 X107.602 Y92.21 E0.73367
G1 X108.003 Y92.2 E0.75235
G1 X112.026 Y92.2 E0.93967
G1 X112.804 Y92.239 E0.97595
G1 X113.09 Y92.21 E0.98933
G1 X113.491 Y92.2 E1.00801
G1 X122.402 Y92.2 E1.42294
G1 X123.191 Y92.24 E1.45973
G1 X123.971 Y92.359 E1.49647
G1 X124.736 Y92.557 E1.53327
G1 X125.476 Y92.831 E1.57001
G1 X126.185 Y93.179 E1.60679
G1 X126.856 Y93.597 E1.6436
G1 X127.48 Y94.08 E1.68034
G1 X128.053 Y94.623 E1.7171
G1 X128.568 Y95.222 E1.75388
G1 X129.019 Y95.87 E1.79064
G1 X129.403 Y96.561 E1.82745
G1 X129.715 Y97.286 E1.86421
G1 X129.952 Y98.039 E1.90097
G1 X130.111 Y98.813 E1.93776
G1 X130.192 Y99.598 E1.97451
G1 X130.202 Y100 E1.99323
G1 X130.201 Y120 E2.92451
G1 X130.161 Y120.789 E2.9613
G1 X130.041 Y121.57 E2.99809
G1 X129.844 Y122.334 E3.03483
G1 X129.569 Y123.075 E3.07164
G1 X129.222 Y123.784 E3.10839
G1 X128.804 Y124.454 E3.14516
G1 X128.321 Y125.079 E3.18194
G1 X127.777 Y125.651 E3.2187
G1 X127.178 Y126.166 E3.25548
G1 X126.53 Y126.617 E3.29225
G1 X125.84 Y127.001 E3.32902
G1 X125.115 Y127.313 E3.36577
G1 X124.361 Y127.55 E3.40257
G1 X123.588 Y127.709 E3.43932
G1 X122.802 Y127.79 E3.47611
G1 X122.401 Y127.8 E3.49479
G1 X113.49 Y127.8 E3.90972
G1 X112.713 Y127.761 E3.94595
G1 X112.428 Y127.79 E3.95929
G1 X112.026 Y127.8 E3.97801
G1 X108.002 Y127.8 E4.16539
G1 X107.191 Y127.757 E4.2032
G1 X106.868 Y127.79 E4.21832
G1 X106.467 Y127.8 E4.237
G1 X97.777 Y127.8 E4.64164
G1 X96.988 Y127.76 E4.67843
G1 X96.208 Y127.641 E4.71517
G1 X95.443 Y127.443 E4.75197
G1 X94.703 Y127.169 E4.78871
G1 X93.994 Y126.821 E4.82549
G1 X93.323 Y126.403 E4.8623
G1 X92.699 Y125.92 E4.89904
G1 X92.126 Y125.377 E4.9358
G1 X91.611 Y124.778 E4.97258
G1 X91.16 Y124.13 E5.00935
G1 X90.776 Y123.439 E5.04616
G1 X90.464 Y122.714 E5.08291
G1 X90.227 Y121.961 E5.11967
G1 X90.068 Y121.187 E5.15646
G1 X89.987 Y120.402 E5.19321
G1 X89.977 Y120 E5.21193
G1 X89.978 Y100 E6.14322
G1 X90.018 Y99.211 E6.18
G1 X90.138 Y98.43 E6.21679
G1 X90.335 Y97.666 E6.25353
G1 X90.61 Y96.925 E6.29034
G1 X90.957 Y96.216 E6.32709
G1 X91.375 Y95.546 E6.36386
G1 X91.858 Y94.921 E6.40064
G1 X92.402 Y94.349 E6.4374
G0 F6000 X92.795 Y94.53
G1 F1200 X93.389 Y94.042 E6.4732
G1 X94.031 Y93.619 E6.509
G1 X94.714 Y93.264 E6.54484
G1 X95.43 Y92.982 E6.58067
G1 X96.171 Y92.777 E6.61647
G1 X96.929 Y92.649 E6.65227
G1 X97.778 Y92.6 E6.69187
G1 X106.468 Y92.6 E7.09651
G1 X107.256 Y92.643 E7.13326
G1 X108.003 Y92.6 E7.1681
G1 X112.026 Y92.6 E7.35543
G1 X112.795 Y92.64 E7.39128
G1 X113.491 Y92.6 E7.42374
G1 X122.402 Y92.6 E7.83868
G1 X123.17 Y92.64 E7.87449
G1 X123.93 Y92.759 E7.91031
G1 X124.673 Y92.957 E7.94611
G1 X125.392 Y93.231 E7.98194
G1 X126.078 Y93.578 E8.01774
G1 X126.725 Y93.994 E8.05355
G1 X127.325 Y94.475 E8.08936
G1 X127.872 Y95.016 E8.12519
G1 X128.36 Y95.611 E8.16102
G1 X128.783 Y96.253 E8.19682
G1 X129.138 Y96.936 E8.23266
G1 X129.419 Y97.651 E8.26843
G1 X129.625 Y98.393 E8.30429
G1 X129.753 Y99.151 E8.34009
G1 X129.802 Y100 E8.37969
G1 X129.801 Y120 E9.31097
G1 X129.761 Y120.768 E9.34678
G1 X129.641 Y121.528 E9.38261
G1 X129.444 Y122.272 E9.41844
G1 X129.17 Y122.99 E9.45423
G1 X128.823 Y123.677 E9.49007
G1 X128.407 Y124.324 E9.52588
G1 X127.925 Y124.924 E9.56172
G1 X127.384 Y125.47 E9.59751
G1 X126.79 Y125.958 E9.63331
G1 X126.148 Y126.381 E9.66911
G1 X125.465 Y126.736 E9.70495
G1 X124.749 Y127.018 E9.74078
G1 X124.008 Y127.223 E9.77658
G1 X123.25 Y127.351 E9.81238
G1 X122.401 Y127.4 E9.85198
G1 X113.49 Y127.4 E10.26691
G1 X112.721 Y127.36 E10.30277
G1 X112.026 Y127.4 E10.33518
G1 X108.002 Y127.4 E10.52256
G1 X107.214 Y127.357 E10.5593
G1 X106.467 Y127.4 E10.59415
G1 X97.777 Y127.4 E10.99879
G1 X97.009 Y127.36 E11.0346
G1 X96.249 Y127.241 E11.07042
G1 X95.506 Y127.043 E11.10622
G1 X94.787 Y126.769 E11.14205
G1 X94.101 Y126.422 E11.17785
G1 X93.454 Y126.006 E11.21367
G1 X92.854 Y125.525 E11.24947
G1 X92.307 Y124.984 E11.2853
G1 X91.819 Y124.389 E11.32113
G1 X91.396 Y123.747 E11.35693
G1 X91.041 Y123.064 E11.39277
G1 X90.76 Y122.349 E11.42854
G1 X90.554 Y121.607 E11.4644
G1 X90.426 Y120.849 E11.5002
G1 X90.377 Y120 E11.5398
G1 X90.378 Y100 E12.47108
G1 X90.418 Y99.232 E12.50689
G1 X90.538 Y98.472 E12.54272
G1 X90.735 Y97.728 E12.57855
G1 X91.009 Y97.01 E12.61434
G1 X91.356 Y96.323 E12.65018
G1 X91.772 Y95.676 E12.68599
G1 X92.254 Y95.076 E12.72183
G1 X92.795 Y94.53 E12.75762
G0 F6000 X93.187 Y94.716
G1 F1200 X93.777 Y94.256 E12.79246
G1 X94.412 Y93.862 E12.82726
G1 X95.087 Y93.538 E12.86212
G1 X95.792 Y93.288 E12.89695
G1 X96.519 Y93.114 E12.93176
G1 X97.261 Y93.019 E12.96659
G1 X97.778 Y93 E12.99068
G1 X106.468 Y93 E13.39532
G1 X107.215 Y93.04 E13.43016
G1 X107.486 Y93.019 E13.44281
G1 X108.003 Y93 E13.4669
G1 X112.026 Y93 E13.65423
G1 X112.789 Y93.043 E13.68982
G1 X112.974 Y93.019 E13.6985
G1 X113.491 Y93 E13.72259
G1 X122.402 Y93 E14.13753
G1 X123.149 Y93.04 E14.17236
G1 X123.887 Y93.159 E14.20717
G1 X124.609 Y93.357 E14.24203
G1 X125.305 Y93.63 E14.27684
G1 X125.968 Y93.977 E14.31169
G1 X126.591 Y94.392 E14.34654
G1 X127.165 Y94.871 E14.38135
G1 X127.686 Y95.408 E14.41619
G1 X128.145 Y95.998 E14.451
G1 X128.54 Y96.634 E14.48586
G1 X128.864 Y97.308 E14.52069
G1 X129.114 Y98.013 E14.55552
G1 X129.288 Y98.741 E14.59037
G1 X129.383 Y99.483 E14.6252
G1 X129.402 Y100 E14.64929
G1 X129.401 Y120 E15.58058
G1 X129.361 Y120.747 E15.61541
G1 X129.241 Y121.486 E15.65027
G1 X129.044 Y122.207 E15.68507
G1 X128.77 Y122.904 E15.71995
G1 X128.424 Y123.567 E15.75477
G1 X128.009 Y124.189 E15.78959
G1 X127.53 Y124.764 E15.82444
G1 X126.992 Y125.284 E15.85928
G1 X126.402 Y125.744 E15.89411
G1 X125.767 Y126.138 E15.92891
G1 X125.092 Y126.462 E15.96377
G1 X124.387 Y126.712 E15.9986
G1 X123.66 Y126.886 E16.03341
G1 X122.918 Y126.981 E16.06825
G1 X122.401 Y127 E16.09234
G1 X113.49 Y127 E16.50727
G1 X112.727 Y126.957 E16.54285
G1 X112.543 Y126.981 E16.55149
G1 X112.026 Y127 E16.57558
G1 X108.002 Y127 E16.76296
G1 X107.255 Y126.96 E16.79779
G1 X106.984 Y126.981 E16.81045
G1 X106.467 Y127 E16.83454
G1 X97.777 Y127 E17.23918
G1 X97.03 Y126.96 E17.27401
G1 X96.292 Y126.841 E17.30882
G1 X95.57 Y126.643 E17.34368
G1 X94.874 Y126.37 E17.3785
G1 X94.211 Y126.023 E17.41334
G1 X93.588 Y125.608 E17.4482
G1 X93.014 Y125.129 E17.48301
G1 X92.493 Y124.592 E17.51785
G1 X92.034 Y124.002 E17.55266
G1 X91.639 Y123.366 E17.58752
G1 X91.315 Y122.692 E17.62234
G1 X91.065 Y121.987 E17.65717
G1 X90.891 Y121.259 E17.69202
G1 X90.796 Y120.517 E17.72686
G1 X90.777 Y120 E17.75095
G1 X90.778 Y100 E18.68223
G1 X90.818 Y99.253 E18.71706
G1 X90.938 Y98.514 E18.75193
G1 X91.135 Y97.793 E18.78673
G1 X91.409 Y97.096 E18.8216
G1 X91.755 Y96.433 E18.85643
G1 X92.17 Y95.811 E18.89124
G1 X92.649 Y95.236 E18.92609
G1 X93.187 Y94.716 E18.96093
G0 F6000 X93.578 Y94.909
G1 F1200 X94.162 Y94.478 E18.99473
G1 X94.791 Y94.115 E19.02854
G1 X95.456 Y93.822 E19.06238
G1 X96.149 Y93.604 E19.09621
G1 X96.862 Y93.464 E19.13004
G1 X97.778 Y93.4 E19.1728
G1 X106.468 Y93.4 E19.57744
G1 X107.193 Y93.44 E19.61125
G1 X107.263 Y93.452 E19.61456
G1 X108.003 Y93.4 E19.6491
G1 X112.026 Y93.4 E19.83643
G1 X112.801 Y93.448 E19.87259
G1 X113.491 Y93.4 E19.90479
G1 X122.402 Y93.4 E20.31973
G1 X123.127 Y93.44 E20.35354
G1 X123.844 Y93.559 E20.38738
G1 X124.543 Y93.757 E20.42121
G1 X125.216 Y94.03 E20.45503
G1 X125.855 Y94.375 E20.48884
G1 X126.452 Y94.789 E20.52267
G1 X127 Y95.265 E20.55647
G1 X127.493 Y95.799 E20.59031
G1 X127.923 Y96.384 E20.62412
G1 X128.287 Y97.013 E20.65796
G1 X128.58 Y97.678 E20.6918
G1 X128.798 Y98.371 E20.72563
G1 X128.938 Y99.083 E20.75941
G1 X129.002 Y100 E20.80222
G1 X129.001 Y120 E21.7335
G1 X128.961 Y120.726 E21.76736
G1 X128.842 Y121.442 E21.80116
G1 X128.644 Y122.141 E21.83498
G1 X128.371 Y122.814 E21.8688
G1 X128.026 Y123.453 E21.90262
G1 X127.612 Y124.05 E21.93645
G1 X127.135 Y124.598 E21.97028
G1 X126.601 Y125.091 E22.00412
G1 X126.017 Y125.522 E22.03791
G1 X125.388 Y125.885 E22.07173
G1 X124.723 Y126.178 E22.10557
G1 X124.03 Y126.396 E22.1394
G1 X123.317 Y126.536 E22.17323
G1 X122.401 Y126.6 E22.21599
G1 X113.49 Y126.6 E22.63092
G1 X112.716 Y126.552 E22.66703
G1 X112.026 Y126.6 E22.69924
G1 X108.002 Y126.6 E22.88661
G1 X107.277 Y126.56 E22.92042
G1 X107.207 Y126.548 E22.92373
G1 X106.467 Y126.6 E22.95827
G1 X97.777 Y126.6 E23.36291
G1 X97.052 Y126.56 E23.39672
G1 X96.335 Y126.441 E23.43057
G1 X95.636 Y126.243 E23.4644
G1 X94.963 Y125.97 E23.49821
G1 X94.324 Y125.625 E23.53203
G1 X93.727 Y125.211 E23.56586
G1 X93.179 Y124.735 E23.59966
G1 X92.686 Y124.201 E23.6335
G1 X92.256 Y123.616 E23.66731
G1 X91.892 Y122.987 E23.70115
G1 X91.599 Y122.322 E23.73498
G1 X91.381 Y121.629 E23.76881
G1 X91.241 Y120.917 E23.8026
G1 X91.177 Y120 E23.8454
G1 X91.178 Y100 E24.77669
G1 X91.218 Y99.274 E24.81054
G1 X91.337 Y98.558 E24.84434
G1 X91.535 Y97.859 E24.87817
G1 X91.808 Y97.186 E24.91199
G1 X92.153 Y96.547 E24.9458
G1 X92.567 Y95.95 E24.97963
G1 X93.044 Y95.402 E25.01346
G1 X93.578 Y94.909 E25.0473
G0 F6000 X93.967 Y95.109
G1 F1200 X94.546 Y94.709 E25.08007
G1 X95.167 Y94.377 E25.11286
G1 X95.821 Y94.117 E25.14563
G1 X96.501 Y93.933 E25.17843
G1 X97.197 Y93.827 E25.21122
G1 X97.778 Y93.8 E25.2383
G1 X106.468 Y93.8 E25.64294
G1 X107.171 Y93.84 E25.67573
G1 X107.422 Y93.827 E25.68743
G1 X108.003 Y93.8 E25.71452
G1 X112.026 Y93.8 E25.90184
G1 X112.729 Y93.84 E25.93463
G1 X113.491 Y93.8 E25.97016
G1 X122.402 Y93.8 E26.3851
G1 X123.105 Y93.84 E26.41788
G1 X123.799 Y93.959 E26.45067
G1 X124.474 Y94.157 E26.48343
G1 X125.123 Y94.429 E26.51619
G1 X125.737 Y94.774 E26.54899
G1 X126.308 Y95.185 E26.58175
G1 X126.829 Y95.659 E26.61455
G1 X127.293 Y96.189 E26.64735
G1 X127.693 Y96.768 E26.68011
G1 X128.025 Y97.389 E26.7129
G1 X128.285 Y98.043 E26.74567
G1 X128.469 Y98.723 E26.77848
G1 X128.575 Y99.419 E26.81126
G1 X128.602 Y100 E26.83834
G1 X128.601 Y120 E27.76963
G1 X128.561 Y120.703 E27.80241
G1 X128.442 Y121.397 E27.8352
G1 X128.244 Y122.073 E27.868
G1 X127.972 Y122.722 E27.90077
G1 X127.627 Y123.336 E27.93356
G1 X127.215 Y123.907 E27.96635
G1 X126.741 Y124.427 E27.99911
G1 X126.212 Y124.891 E28.03188
G1 X125.633 Y125.291 E28.06465
G1 X125.012 Y125.623 E28.09744
G1 X124.358 Y125.883 E28.13021
G1 X123.678 Y126.067 E28.16301
G1 X122.982 Y126.173 E28.19579
G1 X122.401 Y126.2 E28.22288
G1 X113.49 Y126.2 E28.63781
G1 X112.787 Y126.16 E28.6706
G1 X112.026 Y126.2 E28.70608
G1 X108.002 Y126.2 E28.89345
G1 X107.299 Y126.16 E28.92624
G1 X107.048 Y126.173 E28.93795
G1 X106.467 Y126.2 E28.96503
G1 X97.777 Y126.2 E29.36967
G1 X97.074 Y126.16 E29.40246
G1 X96.38 Y126.041 E29.43525
G1 X95.705 Y125.843 E29.468
G1 X95.056 Y125.571 E29.50077
G1 X94.442 Y125.226 E29.53356
G1 X93.871 Y124.815 E29.56632
G1 X93.35 Y124.341 E29.59912
G1 X92.886 Y123.811 E29.63192
G1 X92.486 Y123.232 E29.66469
G1 X92.154 Y122.611 E29.69748
G1 X91.894 Y121.957 E29.73025
G1 X91.71 Y121.277 E29.76305
G1 X91.604 Y120.581 E29.79583
G1 X91.577 Y120 E29.82292
G1 X91.578 Y100 E30.7542
G1 X91.618 Y99.297 E30.78699
G1 X91.737 Y98.603 E30.81978
G1 X91.935 Y97.927 E30.85258
G1 X92.207 Y97.278 E30.88534
G1 X92.552 Y96.664 E30.91814
G1 X92.964 Y96.093 E30.95092
G1 X93.438 Y95.573 E30.98369
G1 X93.967 Y95.109 E31.01645
G0 F6000 X94.356 Y95.317
G1 F1200 X94.928 Y94.948 E31.04815
G1 X95.54 Y94.649 E31.07987
G1 X96.183 Y94.424 E31.11159
G1 X96.847 Y94.275 E31.14327
G1 X97.778 Y94.2 E31.18677
G1 X106.468 Y94.2 E31.59141
G1 X107.148 Y94.24 E31.62313
G1 X107.26 Y94.26 E31.62842
G1 X108.003 Y94.2 E31.66313
G1 X112.026 Y94.2 E31.85046
G1 X112.706 Y94.24 E31.88218
G1 X112.796 Y94.256 E31.88644
G1 X113.491 Y94.2 E31.9189
G1 X122.402 Y94.2 E32.33384
G1 X123.082 Y94.24 E32.36556
G1 X123.752 Y94.359 E32.39724
G1 X124.404 Y94.556 E32.42896
G1 X125.028 Y94.828 E32.46065
G1 X125.616 Y95.172 E32.49238
G1 X126.16 Y95.582 E32.52409
G1 X126.651 Y96.053 E32.55578
G1 X127.085 Y96.578 E32.58749
G1 X127.454 Y97.15 E32.61919
G1 X127.753 Y97.762 E32.65091
G1 X127.978 Y98.404 E32.68258
G1 X128.127 Y99.069 E32.71432
G1 X128.202 Y100 E32.75781
G1 X128.201 Y120 E33.68909
G1 X128.161 Y120.68 E33.72081
G1 X128.042 Y121.35 E33.7525
G1 X127.845 Y122.002 E33.78421
G1 X127.572 Y122.626 E33.81593
G1 X127.229 Y123.214 E33.84762
G1 X126.819 Y123.758 E33.87934
G1 X126.348 Y124.25 E33.91106
G1 X125.823 Y124.683 E33.94275
G1 X125.251 Y125.052 E33.97444
G1 X124.639 Y125.351 E34.00616
G1 X123.996 Y125.576 E34.03788
G1 X123.332 Y125.725 E34.06957
G1 X122.401 Y125.8 E34.11306
G1 X113.49 Y125.8 E34.52799
G1 X112.81 Y125.76 E34.55971
G1 X112.72 Y125.744 E34.56397
G1 X112.026 Y125.8 E34.59639
G1 X108.002 Y125.8 E34.78376
G1 X107.322 Y125.76 E34.81548
G1 X107.21 Y125.74 E34.82078
G1 X106.467 Y125.8 E34.85549
G1 X97.777 Y125.8 E35.26013
G1 X97.097 Y125.76 E35.29185
G1 X96.427 Y125.641 E35.32354
G1 X95.775 Y125.444 E35.35525
G1 X95.151 Y125.172 E35.38695
G1 X94.563 Y124.828 E35.41867
G1 X94.019 Y124.418 E35.45039
G1 X93.528 Y123.947 E35.48207
G1 X93.094 Y123.422 E35.51379
G1 X92.725 Y122.85 E35.54548
G1 X92.426 Y122.238 E35.5772
G1 X92.201 Y121.596 E35.60888
G1 X92.052 Y120.931 E35.64061
G1 X91.977 Y120 E35.6841
G1 X91.978 Y100 E36.61539
G1 X92.018 Y99.32 E36.6471
G1 X92.137 Y98.65 E36.67879
G1 X92.334 Y97.998 E36.71051
G1 X92.607 Y97.374 E36.74222
G1 X92.95 Y96.786 E36.77392
G1 X93.36 Y96.242 E36.80564
G1 X93.831 Y95.75 E36.83735
G1 X94.356 Y95.317 E36.86904
G0 F6000 X94.743 Y95.534
G1 F1200 X95.308 Y95.198 E36.89965
G1 X95.909 Y94.934 E36.93022
G1 X96.538 Y94.744 E36.96081
G1 X97.186 Y94.633 E36.99143
G1 X97.778 Y94.6 E37.01904
G1 X106.468 Y94.6 E37.42368
G1 X107.124 Y94.64 E37.45428
G1 X107.411 Y94.633 E37.46765
G1 X108.003 Y94.6 E37.49526
G1 X112.026 Y94.6 E37.68259
G1 X112.682 Y94.64 E37.71319
G1 X112.899 Y94.633 E37.7233
G1 X113.491 Y94.6 E37.75091
G1 X122.402 Y94.6 E38.16584
G1 X123.058 Y94.64 E38.19644
G1 X123.704 Y94.759 E38.22703
G1 X124.331 Y94.956 E38.25763
G1 X124.929 Y95.228 E38.28822
G1 X125.49 Y95.57 E38.31882
G1 X126.005 Y95.978 E38.34941
G1 X126.467 Y96.445 E38.38
G1 X126.868 Y96.965 E38.41058
G1 X127.204 Y97.529 E38.44115
G1 X127.468 Y98.131 E38.47175
G1 X127.658 Y98.76 E38.50235
G1 X127.769 Y99.407 E38.53292
G1 X127.802 Y100 E38.56057
G1 X127.801 Y120 E39.49186
G1 X127.761 Y120.656 E39.52246
G1 X127.642 Y121.302 E39.55305
G1 X127.445 Y121.929 E39.58365
G1 X127.173 Y122.527 E39.61424
G1 X126.831 Y123.088 E39.64483
G1 X126.423 Y123.603 E39.67543
G1 X125.956 Y124.065 E39.70602
G1 X125.436 Y124.466 E39.73659
G1 X124.871 Y124.802 E39.7672
G1 X124.27 Y125.066 E39.79777
G1 X123.641 Y125.256 E39.82836
G1 X122.993 Y125.367 E39.85898
G1 X122.401 Y125.4 E39.88659
G1 X113.49 Y125.4 E40.30152
G1 X112.834 Y125.36 E40.33212
G1 X112.619 Y125.367 E40.34214
G1 X112.026 Y125.4 E40.36979
G1 X108.002 Y125.4 E40.55717
G1 X107.346 Y125.36 E40.58777
G1 X107.059 Y125.367 E40.60114
G1 X106.467 Y125.4 E40.62875
G1 X97.777 Y125.4 E41.03339
G1 X97.121 Y125.36 E41.06399
