;FLAVOR:Marlin
;TIME:4004
;Filament used: 4.20323m
;Layer height: 0.28
;MINX:84.205
;MINY:84.203
;MINZ:0.28
;MAXX:135.791
;MAXY:135.797
;MAXZ:19.88
;Generated with Cura_SteamEngine 5.2.1
M82 ;absolute extrusion mode
; Ender 3 Custom Start G-code
G92 E0 ; Reset Extruder
G28 ; Home all axes
M104 S175 ; Start heating up the nozzle most of the way
M190 S60 ; Start heating the bed, wait until target temperature reached
M109 S200 ; Finish heating the nozzle
G1 Z2.0 F3000 ; Move Z Axis up little to prevent scratching of Heat Bed
G1 X0.1 Y20 Z0.3 F5000.0 ; Move to start position
G1 X0.1 Y200.0 Z0.3 F1500.0 E15 ; Draw the first line
G1 X0.4 Y200.0 Z0.3 F5000.0 ; Move to side a little
G1 X0.4 Y20 Z0.3 F1500.0 E30 ; Draw the second line
G92 E0 ; Reset Extruder
G1 Z2.0 F3000 ; Move Z Axis up little to prevent scratching of Heat Bed
G1 X5 Y20 Z0.3 F5000.0 ; Move over to prevent blob squish
G92 E0
G92 E0
G1 F1500 E-6.5
;LAYER_COUNT:71
;LAYER:0
M107
G0 F6000 X91.492 Y92.025 Z0.28
;TYPE:SKIRT
G1 F1500 E0
G1 F1200 X92.34 Y91.191 E0.05538
G1 X92.718 Y90.842 E0.07934
G1 X93.62 Y90.065 E0.13477
G1 X94.038 Y89.729 E0.15975
G1 X94.991 Y89.016 E0.21517
G1 X95.398 Y88.732 E0.23828
G1 X96.396 Y88.08 E0.29379
G1 X96.837 Y87.812 E0.31782
G1 X97.873 Y87.229 E0.37317
G1 X98.334 Y86.99 E0.39735
G1 X99.407 Y86.477 E0.45273
G1 X99.872 Y86.273 E0.47637
G1 X100.971 Y85.833 E0.5315
G1 X101.462 Y85.655 E0.55582
G1 X102.602 Y85.285 E0.61163
G1 X103.103 Y85.141 E0.6359
G1 X104.257 Y84.85 E0.69132
G1 X104.755 Y84.741 E0.71505
G1 X105.926 Y84.526 E0.77049
G1 X106.437 Y84.45 E0.79455
G1 X107.619 Y84.313 E0.84996
G1 X108.13 Y84.271 E0.87383
G1 X109.319 Y84.212 E0.92926
G1 X109.837 Y84.203 E0.95339
G1 X111.026 Y84.223 E1.00876
G1 X111.544 Y84.249 E1.03291
G1 X112.73 Y84.348 E1.08833
G1 X113.246 Y84.409 E1.11252
G1 X114.424 Y84.587 E1.168
G1 X114.928 Y84.68 E1.19186
G1 X116.092 Y84.935 E1.24735
G1 X116.59 Y85.061 E1.27127
G1 X117.731 Y85.391 E1.32657
G1 X118.216 Y85.549 E1.35033
G1 X119.336 Y85.954 E1.40578
G1 X119.822 Y86.148 E1.43015
G1 X120.912 Y86.627 E1.48559
G1 X121.374 Y86.849 E1.50946
G1 X122.431 Y87.399 E1.56494
G1 X122.882 Y87.652 E1.58902
G1 X123.899 Y88.27 E1.64443
G1 X124.337 Y88.557 E1.66882
G1 X125.309 Y89.241 E1.72416
G1 X125.71 Y89.543 E1.74753
G1 X126.637 Y90.289 E1.80294
G1 X127.03 Y90.628 E1.82711
G1 X127.9 Y91.429 E1.88217
G1 X128.271 Y91.793 E1.90638
G1 X129.097 Y92.662 E1.9622
G1 X129.434 Y93.041 E1.98582
G1 X130.196 Y93.955 E2.04123
G1 X130.523 Y94.376 E2.06605
G1 X131.221 Y95.34 E2.12147
G1 X131.504 Y95.758 E2.14498
G1 X132.138 Y96.765 E2.20038
G1 X132.397 Y97.209 E2.22432
G1 X132.964 Y98.257 E2.2798
G1 X133.198 Y98.727 E2.30425
G1 X133.692 Y99.808 E2.35959
G1 X133.887 Y100.273 E2.38307
G1 X134.311 Y101.386 E2.43853
G1 X134.479 Y101.876 E2.46265
G1 X134.828 Y103.014 E2.51808
G1 X134.964 Y103.517 E2.54234
G1 X135.236 Y104.675 E2.59773
G1 X135.337 Y105.175 E2.62148
G1 X135.533 Y106.349 E2.6769
G1 X135.601 Y106.867 E2.70123
G1 X135.718 Y108.052 E2.75668
G1 X135.752 Y108.562 E2.78048
G1 X135.791 Y109.751 E2.83587
G1 X135.791 Y110.269 E2.85999
G1 X135.751 Y111.459 E2.91544
G1 X135.717 Y111.97 E2.93928
G1 X135.599 Y113.155 E2.99474
G1 X135.531 Y113.665 E3.01869
G1 X135.335 Y114.84 E3.07416
G1 X135.231 Y115.354 E3.09858
G1 X134.957 Y116.511 E3.15395
G1 X134.823 Y117.005 E3.17778
G1 X134.473 Y118.144 E3.23326
G1 X134.303 Y118.638 E3.25759
G1 X133.878 Y119.75 E3.31302
G1 X133.68 Y120.22 E3.33677
G1 X133.184 Y121.3 E3.39211
G1 X132.958 Y121.754 E3.41572
G1 X132.392 Y122.801 E3.47115
G1 X132.13 Y123.25 E3.49535
G1 X131.5 Y124.25 E3.55039
G1 X131.21 Y124.677 E3.57442
G1 X130.506 Y125.646 E3.63019
G1 X130.187 Y126.056 E3.65438
G1 X129.425 Y126.97 E3.70979
G1 X129.076 Y127.361 E3.7342
G1 X128.253 Y128.223 E3.78969
G1 X127.896 Y128.574 E3.813
G1 X127.021 Y129.38 E3.8684
G1 X126.631 Y129.716 E3.89237
G1 X125.703 Y130.464 E3.94787
G1 X125.282 Y130.78 E3.97238
G1 X124.308 Y131.462 E4.02775
G1 X123.88 Y131.742 E4.05156
G1 X122.863 Y132.359 E4.10695
G1 X122.412 Y132.612 E4.13103
G1 X121.355 Y133.161 E4.18649
G1 X120.89 Y133.383 E4.21049
G1 X119.799 Y133.861 E4.26595
G1 X119.314 Y134.055 E4.29027
G1 X118.193 Y134.459 E4.34576
G1 X117.709 Y134.616 E4.36945
G1 X116.568 Y134.945 E4.42475
G1 X116.07 Y135.071 E4.44867
G1 X114.906 Y135.325 E4.50414
G1 X114.403 Y135.417 E4.52795
G1 X113.233 Y135.593 E4.58304
G1 X112.711 Y135.654 E4.60752
G1 X111.517 Y135.752 E4.6633
G1 X111.01 Y135.777 E4.68694
G1 X109.821 Y135.797 E4.74231
G1 X109.297 Y135.788 E4.76671
G1 X108.108 Y135.728 E4.82215
G1 X107.596 Y135.685 E4.84607
G1 X106.414 Y135.547 E4.90149
G1 X105.91 Y135.472 E4.92521
G1 X104.739 Y135.257 E4.98065
G1 X104.228 Y135.145 E5.00501
G1 X103.074 Y134.852 E5.06045
G1 X102.575 Y134.707 E5.08465
G1 X101.444 Y134.338 E5.14004
G1 X100.963 Y134.164 E5.16386
G1 X99.857 Y133.721 E5.21934
G1 X99.387 Y133.515 E5.24323
G1 X98.314 Y133.001 E5.29863
G1 X97.854 Y132.761 E5.32279
G1 X96.818 Y132.177 E5.37817
G1 X96.374 Y131.907 E5.40237
G1 X95.377 Y131.254 E5.45786
G1 X94.971 Y130.969 E5.48096
G1 X94.019 Y130.255 E5.53637
G1 X93.605 Y129.921 E5.56114
G1 X92.703 Y129.143 E5.61661
G1 X92.324 Y128.795 E5.64057
G1 X91.476 Y127.96 E5.69598
G1 X91.118 Y127.583 E5.72019
G1 X90.328 Y126.694 E5.77557
G1 X90.003 Y126.303 E5.79924
G1 X89.277 Y125.37 E5.85429
G1 X88.975 Y124.955 E5.87819
G1 X88.303 Y123.963 E5.93398
G1 X88.023 Y123.518 E5.95847
G1 X87.424 Y122.491 E6.01383
G1 X87.182 Y122.041 E6.03762
G1 X86.65 Y120.974 E6.09314
G1 X86.438 Y120.513 E6.11676
G1 X85.98 Y119.422 E6.17186
G1 X85.793 Y118.932 E6.19628
G1 X85.405 Y117.8 E6.252
G1 X85.254 Y117.305 E6.2761
G1 X84.946 Y116.165 E6.33109
G1 X84.828 Y115.664 E6.35505
G1 X84.592 Y114.487 E6.41095
G1 X84.508 Y113.983 E6.43474
G1 X84.352 Y112.811 E6.4898
G1 X84.301 Y112.3 E6.51371
G1 X84.222 Y111.114 E6.56906
G1 X84.205 Y110.596 E6.59319
G1 X84.205 Y109.397 E6.64902
G1 X84.223 Y108.872 E6.67348
G1 X84.303 Y107.685 E6.72888
G1 X84.353 Y107.181 E6.75246
G1 X84.51 Y106.001 E6.80789
G1 X84.595 Y105.493 E6.83187
G1 X84.83 Y104.324 E6.8874
G1 X84.949 Y103.82 E6.91151
G1 X85.26 Y102.673 E6.96685
G1 X85.412 Y102.177 E6.991
G1 X85.799 Y101.052 E7.0464
G1 X85.984 Y100.567 E7.07057
G1 X86.445 Y99.47 E7.12598
G1 X86.658 Y99.006 E7.14975
G1 X87.191 Y97.939 E7.20529
G1 X87.434 Y97.49 E7.22907
G1 X88.034 Y96.463 E7.28445
G1 X88.319 Y96.013 E7.30925
G1 X88.988 Y95.029 E7.36466
G1 X89.283 Y94.623 E7.38803
G1 X90.014 Y93.684 E7.44344
G1 X90.345 Y93.286 E7.46754
G1 X91.137 Y92.397 E7.52298
G1 X91.492 Y92.025 E7.54693
G0 F6000 X91.772 Y92.31
G1 F1200 X92.62 Y91.476 E7.60231
G1 X92.979 Y91.145 E7.62505
G1 X93.881 Y90.368 E7.68048
G1 X94.278 Y90.05 E7.70417
G1 X95.231 Y89.337 E7.75959
G1 X95.617 Y89.067 E7.78152
G1 X96.615 Y88.415 E7.83703
G1 X97.033 Y88.161 E7.85981
G1 X98.069 Y87.578 E7.91516
G1 X98.506 Y87.351 E7.93809
G1 X99.579 Y86.838 E7.99347
G1 X100.021 Y86.644 E8.01595
G1 X101.12 Y86.204 E8.07107
G1 X101.586 Y86.035 E8.09415
G1 X102.726 Y85.665 E8.14996
G1 X103.201 Y85.529 E8.17297
G1 X104.355 Y85.238 E8.22839
G1 X104.828 Y85.135 E8.25093
G1 X105.999 Y84.92 E8.30637
G1 X106.483 Y84.847 E8.32916
G1 X107.665 Y84.71 E8.38457
G1 X108.15 Y84.67 E8.40723
G1 X109.339 Y84.611 E8.46266
G1 X109.83 Y84.603 E8.48552
G1 X111.019 Y84.623 E8.5409
G1 X111.511 Y84.648 E8.56384
G1 X112.697 Y84.747 E8.61925
G1 X113.187 Y84.804 E8.64222
G1 X114.365 Y84.982 E8.6977
G1 X114.843 Y85.07 E8.72033
G1 X116.007 Y85.325 E8.77582
G1 X116.479 Y85.445 E8.79849
G1 X117.62 Y85.775 E8.8538
G1 X118.08 Y85.925 E8.87633
G1 X119.2 Y86.33 E8.93179
G1 X119.661 Y86.514 E8.9549
G1 X120.751 Y86.993 E9.01034
G1 X121.19 Y87.204 E9.03302
G1 X122.247 Y87.754 E9.0885
G1 X122.674 Y87.994 E9.11131
G1 X123.691 Y88.612 E9.16673
G1 X124.107 Y88.884 E9.18987
G1 X125.079 Y89.568 E9.24521
G1 X125.459 Y89.855 E9.26739
G1 X126.386 Y90.601 E9.32279
G1 X126.759 Y90.922 E9.34571
G1 X127.629 Y91.723 E9.40077
G1 X127.981 Y92.069 E9.42376
G1 X128.807 Y92.938 E9.47958
G1 X129.127 Y93.297 E9.50198
G1 X129.889 Y94.211 E9.55739
G1 X130.199 Y94.61 E9.58092
G1 X130.897 Y95.574 E9.63633
G1 X131.165 Y95.971 E9.65864
G1 X131.799 Y96.978 E9.71405
G1 X132.045 Y97.4 E9.73679
G1 X132.612 Y98.448 E9.79228
G1 X132.835 Y98.893 E9.81545
G1 X133.329 Y99.974 E9.8708
G1 X133.513 Y100.416 E9.89309
G1 X133.937 Y101.529 E9.94855
G1 X134.097 Y101.993 E9.9714
G1 X134.446 Y103.131 E10.02683
G1 X134.575 Y103.609 E10.04988
G1 X134.847 Y104.767 E10.10527
G1 X134.942 Y105.24 E10.12774
G1 X135.138 Y106.414 E10.18316
G1 X135.203 Y106.906 E10.20627
G1 X135.32 Y108.091 E10.26172
G1 X135.352 Y108.575 E10.2843
G1 X135.391 Y109.764 E10.3397
G1 X135.391 Y110.256 E10.36261
G1 X135.351 Y111.446 E10.41805
G1 X135.319 Y111.93 E10.44063
G1 X135.201 Y113.115 E10.49609
G1 X135.136 Y113.6 E10.51887
G1 X134.94 Y114.775 E10.57434
G1 X134.842 Y115.262 E10.59747
G1 X134.568 Y116.419 E10.65284
G1 X134.441 Y116.888 E10.67546
G1 X134.091 Y118.027 E10.73095
G1 X133.929 Y118.495 E10.75401
G1 X133.504 Y119.607 E10.80944
G1 X133.317 Y120.053 E10.83196
G1 X132.821 Y121.133 E10.8873
G1 X132.606 Y121.564 E10.90973
G1 X132.04 Y122.611 E10.96515
G1 X131.791 Y123.036 E10.98808
G1 X131.161 Y124.036 E11.04312
G1 X130.887 Y124.442 E11.06592
G1 X130.183 Y125.411 E11.1217
G1 X129.88 Y125.8 E11.14466
G1 X129.118 Y126.714 E11.20007
G1 X128.786 Y127.085 E11.22325
G1 X127.963 Y127.947 E11.27874
G1 X127.625 Y128.28 E11.30084
G1 X126.75 Y129.086 E11.35623
G1 X126.38 Y129.404 E11.37895
G1 X125.452 Y130.152 E11.43445
G1 X125.052 Y130.453 E11.45776
G1 X124.078 Y131.135 E11.51313
G1 X123.672 Y131.4 E11.5357
G1 X122.655 Y132.017 E11.59109
G1 X122.228 Y132.257 E11.6139
G1 X121.171 Y132.806 E11.66936
G1 X120.73 Y133.017 E11.69213
G1 X119.639 Y133.495 E11.74759
G1 X119.178 Y133.679 E11.7707
G1 X118.057 Y134.083 E11.82619
G1 X117.598 Y134.231 E11.84864
G1 X116.457 Y134.56 E11.90394
G1 X115.985 Y134.68 E11.92662
G1 X114.821 Y134.934 E11.98209
G1 X114.344 Y135.022 E12.00468
G1 X113.174 Y135.198 E12.05977
G1 X112.678 Y135.255 E12.08302
G1 X111.484 Y135.353 E12.1388
G1 X111.003 Y135.377 E12.16123
G1 X109.814 Y135.397 E12.2166
G1 X109.317 Y135.389 E12.23975
G1 X108.128 Y135.329 E12.29518
G1 X107.643 Y135.288 E12.31785
G1 X106.461 Y135.15 E12.37326
G1 X105.983 Y135.078 E12.39577
G1 X104.812 Y134.863 E12.45121
G1 X104.327 Y134.757 E12.47432
G1 X103.173 Y134.464 E12.52976
G1 X102.699 Y134.327 E12.55274
G1 X101.568 Y133.958 E12.60813
G1 X101.111 Y133.792 E12.63077
G1 X100.005 Y133.349 E12.68625
G1 X99.56 Y133.154 E12.70887
G1 X98.487 Y132.64 E12.76427
G1 X98.05 Y132.412 E12.78723
G1 X97.014 Y131.828 E12.8426
G1 X96.594 Y131.572 E12.86551
G1 X95.597 Y130.919 E12.921
G1 X95.211 Y130.649 E12.94294
G1 X94.259 Y129.935 E12.99835
G1 X93.866 Y129.619 E13.02183
G1 X92.964 Y128.841 E13.0773
G1 X92.605 Y128.51 E13.10003
G1 X91.757 Y127.675 E13.15545
G1 X91.417 Y127.318 E13.17841
G1 X90.627 Y126.429 E13.23378
G1 X90.319 Y126.057 E13.25627
G1 X89.593 Y125.124 E13.31132
G1 X89.306 Y124.73 E13.33402
G1 X88.634 Y123.738 E13.38981
G1 X88.369 Y123.316 E13.41301
G1 X87.77 Y122.289 E13.46837
G1 X87.54 Y121.863 E13.49092
G1 X87.008 Y120.796 E13.54643
G1 X86.807 Y120.358 E13.56887
G1 X86.349 Y119.267 E13.62397
G1 X86.172 Y118.802 E13.64714
G1 X85.784 Y117.67 E13.70286
G1 X85.64 Y117.201 E13.7257
G1 X85.332 Y116.061 E13.78069
G1 X85.22 Y115.586 E13.80342
G1 X84.984 Y114.409 E13.85931
G1 X84.905 Y113.93 E13.88192
G1 X84.749 Y112.758 E13.93697
G1 X84.7 Y112.274 E13.95963
G1 X84.621 Y111.088 E14.01497
G1 X84.605 Y110.596 E14.03789
G1 X84.605 Y109.397 E14.09372
G1 X84.622 Y108.899 E14.11693
G1 X84.702 Y107.712 E14.17232
G1 X84.75 Y107.234 E14.19469
G1 X84.907 Y106.054 E14.25012
G1 X84.987 Y105.572 E14.27287
G1 X85.222 Y104.403 E14.3284
G1 X85.335 Y103.924 E14.35131
G1 X85.646 Y102.777 E14.40665
G1 X85.79 Y102.307 E14.42954
G1 X86.177 Y101.182 E14.48494
G1 X86.353 Y100.722 E14.50787
G1 X86.814 Y99.625 E14.56328
G1 X87.016 Y99.185 E14.58582
G1 X87.549 Y98.118 E14.64136
G1 X87.78 Y97.692 E14.66393
G1 X88.38 Y96.665 E14.71931
G1 X88.649 Y96.237 E14.74285
G1 X89.318 Y95.253 E14.79826
G1 X89.599 Y94.868 E14.82045
G1 X90.33 Y93.929 E14.87586
G1 X90.644 Y93.553 E14.89867
G1 X91.436 Y92.664 E14.95411
G1 X91.772 Y92.31 E14.97684
G0 F6000 X92.053 Y92.595
G1 F1200 X92.901 Y91.761 E15.03222
G1 X93.24 Y91.448 E15.05371
G1 X94.142 Y90.671 E15.10914
G1 X94.518 Y90.37 E15.13157
G1 X95.471 Y89.657 E15.18699
G1 X95.835 Y89.402 E15.20769
G1 X96.833 Y88.75 E15.26319
G1 X97.229 Y88.51 E15.28476
G1 X98.265 Y87.927 E15.34011
G1 X98.679 Y87.712 E15.36183
G1 X99.752 Y87.199 E15.41721
G1 X100.169 Y87.015 E15.43844
G1 X101.268 Y86.575 E15.49356
G1 X101.709 Y86.416 E15.51539
G1 X102.849 Y86.046 E15.5712
G1 X103.298 Y85.916 E15.59296
G1 X104.452 Y85.625 E15.64838
G1 X104.9 Y85.528 E15.66972
G1 X106.071 Y85.313 E15.72516
G1 X106.529 Y85.245 E15.74672
G1 X107.711 Y85.108 E15.80213
G1 X108.17 Y85.07 E15.82358
G1 X109.359 Y85.011 E15.87901
G1 X109.824 Y85.003 E15.90066
G1 X111.013 Y85.023 E15.95604
G1 X111.477 Y85.046 E15.97767
G1 X112.663 Y85.145 E16.03309
G1 X113.127 Y85.2 E16.05484
G1 X114.305 Y85.378 E16.11032
G1 X114.757 Y85.461 E16.13172
G1 X115.921 Y85.716 E16.1872
G1 X116.368 Y85.83 E16.20868
G1 X117.509 Y86.16 E16.26399
G1 X117.944 Y86.301 E16.28528
G1 X119.064 Y86.706 E16.34074
G1 X119.5 Y86.88 E16.3626
G1 X120.59 Y87.359 E16.41804
G1 X121.005 Y87.558 E16.43947
G1 X122.062 Y88.108 E16.49495
G1 X122.466 Y88.336 E16.51655
G1 X123.483 Y88.954 E16.57197
G1 X123.876 Y89.211 E16.59383
G1 X124.848 Y89.895 E16.64918
G1 X125.209 Y90.167 E16.67022
G1 X126.136 Y90.913 E16.72563
G1 X126.488 Y91.216 E16.74726
G1 X127.358 Y92.017 E16.80232
G1 X127.691 Y92.344 E16.82406
G1 X128.517 Y93.213 E16.87988
G1 X128.82 Y93.554 E16.90112
G1 X129.582 Y94.468 E16.95653
G1 X129.875 Y94.845 E16.97877
G1 X130.573 Y95.809 E17.03419
G1 X130.827 Y96.184 E17.05528
G1 X131.461 Y97.191 E17.11069
G1 X131.694 Y97.59 E17.1322
G1 X132.261 Y98.638 E17.18768
G1 X132.471 Y99.06 E17.20963
G1 X132.965 Y100.141 E17.26498
G1 X133.139 Y100.558 E17.28602
G1 X133.563 Y101.671 E17.34148
G1 X133.714 Y102.111 E17.36314
G1 X134.063 Y103.249 E17.41856
G1 X134.186 Y103.7 E17.44033
G1 X134.458 Y104.858 E17.49572
G1 X134.547 Y105.306 E17.51699
G1 X134.743 Y106.48 E17.57241
G1 X134.805 Y106.945 E17.59425
G1 X134.922 Y108.13 E17.6497
G1 X134.952 Y108.589 E17.67112
G1 X134.991 Y109.778 E17.72651
G1 X134.991 Y110.242 E17.74812
G1 X134.951 Y111.432 E17.80356
G1 X134.921 Y111.891 E17.82498
G1 X134.803 Y113.076 E17.88043
G1 X134.742 Y113.534 E17.90195
G1 X134.546 Y114.709 E17.95742
G1 X134.453 Y115.17 E17.97931
G1 X134.179 Y116.327 E18.03468
G1 X134.058 Y116.77 E18.05606
G1 X133.708 Y117.909 E18.11155
G1 X133.556 Y118.352 E18.13336
G1 X133.131 Y119.464 E18.18879
G1 X132.953 Y119.886 E18.21011
G1 X132.457 Y120.966 E18.26545
G1 X132.254 Y121.374 E18.28667
G1 X131.688 Y122.421 E18.34209
G1 X131.453 Y122.823 E18.36378
G1 X130.823 Y123.823 E18.41881
G1 X130.563 Y124.206 E18.44037
G1 X129.859 Y125.175 E18.49614
G1 X129.573 Y125.543 E18.51784
G1 X128.811 Y126.457 E18.57325
G1 X128.497 Y126.809 E18.59521
G1 X127.674 Y127.671 E18.65071
G1 X127.354 Y127.986 E18.67162
G1 X126.479 Y128.792 E18.72701
G1 X126.129 Y129.093 E18.74851
G1 X125.201 Y129.841 E18.80401
G1 X124.823 Y130.125 E18.82602
G1 X123.849 Y130.807 E18.88139
G1 X123.465 Y131.058 E18.90275
G1 X122.448 Y131.675 E18.95814
G1 X122.044 Y131.902 E18.97972
G1 X120.987 Y132.451 E19.03518
G1 X120.569 Y132.651 E19.05676
G1 X119.478 Y133.129 E19.11222
G1 X119.042 Y133.302 E19.13406
G1 X117.921 Y133.706 E19.18955
G1 X117.487 Y133.847 E19.2108
G1 X116.346 Y134.176 E19.26609
G1 X115.899 Y134.289 E19.28756
G1 X114.735 Y134.543 E19.34304
G1 X114.284 Y134.626 E19.36439
G1 X113.114 Y134.802 E19.41948
G1 X112.646 Y134.857 E19.44143
G1 X111.452 Y134.955 E19.49721
G1 X110.997 Y134.977 E19.51842
G1 X109.808 Y134.997 E19.57379
G1 X109.337 Y134.989 E19.59573
G1 X108.148 Y134.929 E19.65116
G1 X107.689 Y134.891 E19.67261
G1 X106.507 Y134.753 E19.72802
G1 X106.055 Y134.685 E19.74931
G1 X104.884 Y134.47 E19.80474
G1 X104.425 Y134.37 E19.82662
