;FLAVOR:Marlin
;TIME:2210
;Filament used: 2.09511m
;Layer height: 0.28
;MINX:85.605
;MINY:85.603
;MINZ:0.28
;MAXX:134.39
;MAXY:134.397
;MAXZ:29.96
;Generated with Cura_SteamEngine 5.2.1
M82 ;absolute extrusion mode
; Ender 3 Custom Start G-code
G92 E0 ; Reset Extruder
G28 ; Home all axes
M104 S175 ; Start heating up the nozzle most of the way
M190 S60 ; Start heating the bed, wait until target temperature reached
M109 S200 ; Finish heating the nozzle
G1 Z2.0 F3000 ; Move Z Axis up little to prevent scratching of Heat Bed
G1 X0.1 Y20 Z0.3 F5000.0 ; Move to start position
G1 X0.1 Y200.0 Z0.3 F1500.0 E15 ; Draw the first line
G1 X0.4 Y200.0 Z0.3 F5000.0 ; Move to side a little
G1 X0.4 Y20 Z0.3 F1500.0 E30 ; Draw the second line
G92 E0 ; Reset Extruder
G1 Z2.0 F3000 ; Move Z Axis up little to prevent scratching of Heat Bed
G1 X5 Y20 Z0.3 F5000.0 ; Move over to prevent blob squish
G92 E0
G92 E0
G1 F1500 E-6.5
;LAYER_COUNT:107
;LAYER:0
M107
G0 F6000 X92.717 Y92.778 Z0.28
;TYPE:SKIRT
G1 F1500 E0
G1 F1200 X93.091 Y92.411 E0.0244
G1 X93.936 Y91.636 E0.07779
G1 X94.34 Y91.29 E0.10256
G1 X95.235 Y90.575 E0.1559
G1 X95.673 Y90.249 E0.18132
G1 X96.615 Y89.599 E0.23461
G1 X97.073 Y89.306 E0.25993
G1 X98.06 Y88.722 E0.31333
G1 X98.533 Y88.464 E0.33842
G1 X99.559 Y87.949 E0.39188
G1 X100.038 Y87.729 E0.41642
G1 X101.088 Y87.288 E0.46945
G1 X101.601 Y87.093 E0.49501
G1 X102.691 Y86.723 E0.54861
G1 X103.198 Y86.57 E0.57326
G1 X104.306 Y86.276 E0.62664
G1 X104.844 Y86.153 E0.65234
G1 X105.971 Y85.938 E0.70577
G1 X106.492 Y85.857 E0.73032
G1 X107.628 Y85.719 E0.7836
G1 X108.161 Y85.673 E0.80851
G1 X109.307 Y85.613 E0.86195
G1 X109.851 Y85.603 E0.88728
G1 X110.994 Y85.623 E0.94052
G1 X111.538 Y85.652 E0.96588
G1 X112.68 Y85.752 E1.01926
G1 X113.196 Y85.814 E1.04346
G1 X114.33 Y85.99 E1.0969
G1 X114.879 Y86.096 E1.12293
G1 X115.994 Y86.352 E1.1762
G1 X116.515 Y86.49 E1.2013
G1 X117.612 Y86.823 E1.25468
G1 X118.11 Y86.993 E1.27919
G1 X119.184 Y87.4 E1.33267
G1 X119.683 Y87.609 E1.35786
G1 X120.721 Y88.087 E1.41107
G1 X121.21 Y88.334 E1.43658
G1 X122.216 Y88.886 E1.49001
G1 X122.671 Y89.156 E1.51465
G1 X123.636 Y89.774 E1.56801
G1 X124.077 Y90.078 E1.59295
G1 X124.996 Y90.76 E1.64624
G1 X125.415 Y91.094 E1.67119
G1 X126.287 Y91.839 E1.72459
G1 X126.694 Y92.213 E1.75033
G1 X127.51 Y93.017 E1.80367
G1 X127.878 Y93.405 E1.82857
G1 X128.637 Y94.263 E1.88191
G1 X128.976 Y94.673 E1.90669
G1 X129.675 Y95.581 E1.96004
G1 X129.994 Y96.028 E1.98561
G1 X130.628 Y96.984 E2.03903
G1 X130.904 Y97.431 E2.06349
G1 X131.472 Y98.427 E2.11688
G1 X131.725 Y98.909 E2.14223
G1 X132.221 Y99.94 E2.1955
G1 X132.436 Y100.429 E2.22038
G1 X132.861 Y101.493 E2.27373
G1 X133.045 Y102.005 E2.29906
G1 X133.395 Y103.097 E2.35246
G1 X133.54 Y103.612 E2.37737
G1 X133.814 Y104.724 E2.4307
G1 X133.926 Y105.256 E2.45601
G1 X134.122 Y106.385 E2.50937
G1 X134.195 Y106.91 E2.53405
G1 X134.314 Y108.051 E2.58747
G1 X134.351 Y108.594 E2.61281
G1 X134.39 Y109.738 E2.66611
G1 X134.39 Y110.27 E2.69088
G1 X134.351 Y111.415 E2.74423
G1 X134.313 Y111.965 E2.7699
G1 X134.193 Y113.106 E2.82333
G1 X134.12 Y113.63 E2.84796
G1 X133.923 Y114.76 E2.90137
G1 X133.812 Y115.288 E2.92649
G1 X133.538 Y116.399 E2.97978
G1 X133.391 Y116.918 E3.0049
G1 X133.04 Y118.01 E3.05831
G1 X132.857 Y118.519 E3.08349
G1 X132.432 Y119.582 E3.1368
G1 X132.217 Y120.07 E3.16163
G1 X131.72 Y121.102 E3.21497
G1 X131.465 Y121.587 E3.24048
G1 X130.896 Y122.583 E3.29389
G1 X130.619 Y123.031 E3.31842
G1 X129.985 Y123.985 E3.37176
G1 X129.67 Y124.426 E3.39699
G1 X128.971 Y125.334 E3.45035
G1 X128.626 Y125.751 E3.47555
G1 X127.866 Y126.608 E3.52889
G1 X127.498 Y126.996 E3.55379
G1 X126.681 Y127.799 E3.60713
G1 X126.28 Y128.166 E3.63244
G1 X125.408 Y128.911 E3.68585
G1 X124.99 Y129.244 E3.71073
G1 X124.07 Y129.927 E3.76409
G1 X123.623 Y130.236 E3.78939
G1 X122.658 Y130.853 E3.84272
G1 X122.205 Y131.121 E3.86723
G1 X121.198 Y131.673 E3.92071
G1 X120.703 Y131.922 E3.94651
G1 X119.664 Y132.399 E3.99974
G1 X119.168 Y132.606 E4.02477
G1 X118.094 Y133.012 E4.07823
G1 X117.595 Y133.182 E4.10278
G1 X116.498 Y133.514 E4.15615
G1 X115.978 Y133.652 E4.1812
G1 X114.863 Y133.907 E4.23446
G1 X114.32 Y134.011 E4.2602
G1 X113.186 Y134.187 E4.31364
G1 X112.664 Y134.25 E4.33812
G1 X111.522 Y134.349 E4.3915
G1 X110.984 Y134.377 E4.41658
G1 X109.841 Y134.397 E4.46981
G1 X109.297 Y134.387 E4.49515
G1 X108.151 Y134.327 E4.54859
G1 X107.612 Y134.28 E4.57378
G1 X106.476 Y134.141 E4.62707
G1 X105.961 Y134.061 E4.65134
G1 X104.834 Y133.846 E4.70476
G1 X104.289 Y133.721 E4.7308
G1 X103.181 Y133.426 E4.78419
G1 X102.67 Y133.272 E4.80904
G1 X101.585 Y132.902 E4.86242
G1 X101.083 Y132.711 E4.88743
G1 X100.028 Y132.268 E4.94071
G1 X99.546 Y132.046 E4.96542
G1 X98.521 Y131.531 E5.01883
G1 X98.043 Y131.269 E5.04422
G1 X97.057 Y130.684 E5.0976
G1 X96.602 Y130.393 E5.12275
G1 X95.66 Y129.742 E5.17607
G1 X95.227 Y129.419 E5.20122
G1 X94.332 Y128.704 E5.25456
G1 X93.921 Y128.352 E5.27976
G1 X93.077 Y127.576 E5.33315
G1 X92.699 Y127.205 E5.35781
G1 X91.91 Y126.374 E5.41117
G1 X91.556 Y125.974 E5.43604
G1 X90.825 Y125.09 E5.48945
G1 X90.495 Y124.662 E5.51462
G1 X89.828 Y123.731 E5.56795
G1 X89.523 Y123.271 E5.59365
G1 X88.924 Y122.296 E5.64693
G1 X88.663 Y121.837 E5.67152
G1 X88.13 Y120.821 E5.72494
G1 X87.896 Y120.335 E5.75006
G1 X87.435 Y119.286 E5.80341
G1 X87.236 Y118.787 E5.82843
G1 X86.848 Y117.708 E5.88182
G1 X86.682 Y117.191 E5.90711
G1 X86.371 Y116.091 E5.96033
G1 X86.244 Y115.572 E5.98521
G1 X86.009 Y114.453 E6.03846
G1 X85.916 Y113.921 E6.0636
G1 X85.758 Y112.781 E6.11719
G1 X85.703 Y112.251 E6.14201
G1 X85.624 Y111.115 E6.19503
G1 X85.605 Y110.574 E6.22024
G1 X85.605 Y109.422 E6.27388
G1 X85.624 Y108.884 E6.29895
G1 X85.703 Y107.742 E6.35225
G1 X85.759 Y107.198 E6.37771
G1 X85.918 Y106.063 E6.43108
G1 X86.008 Y105.549 E6.45538
G1 X86.243 Y104.425 E6.50885
G1 X86.378 Y103.88 E6.53499
G1 X86.692 Y102.78 E6.58826
G1 X86.852 Y102.282 E6.61262
G1 X87.24 Y101.203 E6.66601
G1 X87.44 Y100.701 E6.69117
G1 X87.901 Y99.653 E6.74448
G1 X88.138 Y99.162 E6.76987
G1 X88.672 Y98.147 E6.82327
G1 X88.932 Y97.691 E6.84772
G1 X89.532 Y96.716 E6.90102
G1 X89.834 Y96.261 E6.92645
G1 X90.501 Y95.33 E6.97978
G1 X90.828 Y94.906 E7.00471
G1 X91.558 Y94.022 E7.0581
G1 X91.926 Y93.608 E7.08389
G1 X92.717 Y92.778 E7.13728
G0 F6000 X93.006 Y93.054
G1 F1200 X93.361 Y92.705 E7.16046
G1 X94.206 Y91.93 E7.21385
G1 X94.589 Y91.602 E7.23733
G1 X95.484 Y90.887 E7.29067
G1 X95.9 Y90.578 E7.3148
G1 X96.842 Y89.928 E7.36809
G1 X97.277 Y89.65 E7.39213
G1 X98.264 Y89.066 E7.44553
G1 X98.712 Y88.821 E7.46931
G1 X99.738 Y88.306 E7.52276
G1 X100.192 Y88.097 E7.54604
G1 X101.242 Y87.656 E7.59907
G1 X101.729 Y87.472 E7.62331
G1 X102.819 Y87.102 E7.67691
G1 X103.3 Y86.957 E7.7003
G1 X104.408 Y86.663 E7.75368
G1 X104.919 Y86.546 E7.77809
G1 X106.046 Y86.331 E7.83151
G1 X106.541 Y86.254 E7.85484
G1 X107.677 Y86.116 E7.90813
G1 X108.182 Y86.072 E7.93173
G1 X109.328 Y86.012 E7.98517
G1 X109.844 Y86.003 E8.0092
G1 X110.987 Y86.023 E8.06243
G1 X111.504 Y86.05 E8.08653
G1 X112.646 Y86.15 E8.13991
G1 X113.135 Y86.21 E8.16285
G1 X114.269 Y86.386 E8.21629
G1 X114.79 Y86.486 E8.24099
G1 X115.905 Y86.742 E8.29426
G1 X116.398 Y86.873 E8.31802
G1 X117.495 Y87.206 E8.3714
G1 X117.968 Y87.367 E8.39466
G1 X119.042 Y87.774 E8.44814
G1 X119.515 Y87.972 E8.47202
G1 X120.553 Y88.45 E8.52523
G1 X121.018 Y88.684 E8.54947
G1 X122.024 Y89.236 E8.6029
G1 X122.455 Y89.492 E8.62625
G1 X123.42 Y90.11 E8.67961
G1 X123.839 Y90.4 E8.70333
G1 X124.758 Y91.082 E8.75662
G1 X125.155 Y91.398 E8.78025
G1 X126.027 Y92.143 E8.83366
G1 X126.414 Y92.498 E8.85811
G1 X127.23 Y93.302 E8.91145
G1 X127.579 Y93.67 E8.93507
G1 X128.338 Y94.528 E8.98841
G1 X128.659 Y94.917 E9.01189
G1 X129.358 Y95.825 E9.06525
G1 X129.661 Y96.249 E9.08952
G1 X130.295 Y97.205 E9.14293
G1 X130.556 Y97.629 E9.16611
G1 X131.124 Y98.625 E9.2195
G1 X131.364 Y99.083 E9.24358
G1 X131.86 Y100.114 E9.29685
G1 X132.064 Y100.577 E9.32041
G1 X132.489 Y101.641 E9.37376
G1 X132.664 Y102.127 E9.39782
G1 X133.014 Y103.219 E9.45121
G1 X133.152 Y103.708 E9.47487
G1 X133.426 Y104.82 E9.5282
G1 X133.532 Y105.324 E9.55218
G1 X133.728 Y106.453 E9.60554
G1 X133.797 Y106.951 E9.62895
G1 X133.916 Y108.092 E9.68237
G1 X133.952 Y108.608 E9.70645
G1 X133.991 Y109.752 E9.75975
G1 X133.991 Y110.256 E9.78322
G1 X133.952 Y111.401 E9.83657
G1 X133.915 Y111.923 E9.86094
G1 X133.795 Y113.064 E9.91436
G1 X133.726 Y113.561 E9.93772
G1 X133.529 Y114.691 E9.99113
G1 X133.424 Y115.192 E10.01497
G1 X133.15 Y116.303 E10.06825
G1 X133.01 Y116.795 E10.09207
G1 X132.659 Y117.887 E10.14548
G1 X132.485 Y118.37 E10.16939
G1 X132.06 Y119.433 E10.2227
G1 X131.856 Y119.897 E10.2463
G1 X131.359 Y120.929 E10.29963
G1 X131.117 Y121.389 E10.32384
G1 X130.548 Y122.385 E10.37725
G1 X130.286 Y122.81 E10.4005
G1 X129.652 Y123.764 E10.45383
G1 X129.353 Y124.182 E10.47776
G1 X128.654 Y125.09 E10.53112
G1 X128.327 Y125.486 E10.55504
G1 X127.567 Y126.343 E10.60837
G1 X127.217 Y126.711 E10.63202
G1 X126.4 Y127.514 E10.68536
G1 X126.02 Y127.862 E10.70936
G1 X125.148 Y128.607 E10.76276
G1 X124.752 Y128.923 E10.78635
G1 X123.832 Y129.606 E10.83971
G1 X123.407 Y129.899 E10.86374
G1 X122.442 Y130.516 E10.91708
G1 X122.013 Y130.77 E10.94029
G1 X121.006 Y131.322 E10.99376
G1 X120.536 Y131.558 E11.01825
G1 X119.497 Y132.035 E11.07149
G1 X119.027 Y132.232 E11.09522
G1 X117.953 Y132.638 E11.14868
G1 X117.48 Y132.799 E11.17195
G1 X116.383 Y133.131 E11.22532
G1 X115.889 Y133.262 E11.24912
G1 X114.774 Y133.517 E11.30237
G1 X114.259 Y133.615 E11.32679
G1 X113.125 Y133.791 E11.38022
G1 X112.629 Y133.851 E11.40349
G1 X111.487 Y133.95 E11.45686
G1 X110.977 Y133.977 E11.48064
G1 X109.834 Y133.997 E11.53387
G1 X109.318 Y133.988 E11.5579
G1 X108.172 Y133.928 E11.61134
G1 X107.66 Y133.883 E11.63527
G1 X106.524 Y133.744 E11.68856
G1 X106.036 Y133.668 E11.71156
G1 X104.909 Y133.453 E11.76499
G1 X104.392 Y133.335 E11.78968
G1 X103.284 Y133.04 E11.84307
G1 X102.8 Y132.893 E11.86662
G1 X101.715 Y132.523 E11.92
G1 X101.238 Y132.342 E11.94376
G1 X100.183 Y131.899 E11.99704
G1 X99.726 Y131.688 E12.02048
G1 X98.701 Y131.173 E12.07389
G1 X98.247 Y130.925 E12.09798
G1 X97.261 Y130.34 E12.15136
G1 X96.83 Y130.064 E12.1752
G1 X95.888 Y129.413 E12.22851
G1 X95.476 Y129.107 E12.25241
G1 X94.581 Y128.392 E12.30575
G1 X94.191 Y128.057 E12.32969
G1 X93.347 Y127.281 E12.38308
G1 X92.99 Y126.929 E12.40642
G1 X92.201 Y126.098 E12.45978
G1 X91.864 Y125.719 E12.4834
G1 X91.133 Y124.835 E12.53681
G1 X90.82 Y124.429 E12.56068
G1 X90.153 Y123.498 E12.61401
G1 X89.864 Y123.062 E12.63837
G1 X89.265 Y122.087 E12.69165
G1 X89.017 Y121.651 E12.71501
G1 X88.484 Y120.635 E12.76843
G1 X88.262 Y120.174 E12.79226
G1 X87.801 Y119.125 E12.84561
G1 X87.613 Y118.652 E12.86931
G1 X87.225 Y117.573 E12.9227
G1 X87.067 Y117.082 E12.94672
G1 X86.756 Y115.982 E12.99995
G1 X86.635 Y115.49 E13.02354
G1 X86.4 Y114.371 E13.07678
G1 X86.312 Y113.866 E13.10065
G1 X86.154 Y112.726 E13.15424
G1 X86.102 Y112.223 E13.17779
G1 X86.023 Y111.087 E13.23082
G1 X86.005 Y110.574 E13.25472
G1 X86.005 Y109.422 E13.30836
G1 X86.023 Y108.911 E13.33217
G1 X86.102 Y107.769 E13.38547
G1 X86.156 Y107.253 E13.40963
G1 X86.315 Y106.118 E13.463
G1 X86.4 Y105.631 E13.48602
G1 X86.635 Y104.507 E13.53949
G1 X86.762 Y103.99 E13.56428
G1 X87.076 Y102.89 E13.61754
G1 X87.229 Y102.417 E13.64069
G1 X87.617 Y101.338 E13.69408
G1 X87.806 Y100.862 E13.71793
G1 X88.267 Y99.814 E13.77124
G1 X88.492 Y99.349 E13.7953
G1 X89.026 Y98.334 E13.8487
G1 X89.273 Y97.901 E13.87191
G1 X89.873 Y96.926 E13.92522
G1 X90.159 Y96.494 E13.94935
G1 X90.826 Y95.563 E14.00267
G1 X91.136 Y95.161 E14.02631
G1 X91.866 Y94.277 E14.0797
G1 X92.215 Y93.884 E14.10417
G1 X93.006 Y93.054 E14.15756
G0 F6000 X93.296 Y93.33
G1 F1200 X93.632 Y93 E14.17949
G1 X94.477 Y92.225 E14.23288
G1 X94.839 Y91.915 E14.25507
G1 X95.734 Y91.2 E14.30841
G1 X96.127 Y90.907 E14.33124
G1 X97.069 Y90.257 E14.38453
G1 X97.48 Y89.995 E14.40722
G1 X98.467 Y89.411 E14.46063
G1 X98.892 Y89.179 E14.48317
G1 X99.918 Y88.664 E14.53663
G1 X100.347 Y88.466 E14.55863
G1 X101.397 Y88.025 E14.61166
G1 X101.858 Y87.85 E14.63462
G1 X102.948 Y87.48 E14.68822
G1 X103.403 Y87.343 E14.71035
G1 X104.511 Y87.049 E14.76372
G1 X104.994 Y86.939 E14.78679
G1 X106.121 Y86.724 E14.84021
G1 X106.589 Y86.651 E14.86227
G1 X107.725 Y86.513 E14.91556
G1 X108.203 Y86.472 E14.9379
G1 X109.349 Y86.412 E14.99133
G1 X109.837 Y86.403 E15.01406
G1 X110.98 Y86.423 E15.06729
G1 X111.469 Y86.449 E15.09009
G1 X112.611 Y86.549 E15.14347
G1 X113.074 Y86.605 E15.16519
G1 X114.208 Y86.781 E15.21862
G1 X114.7 Y86.876 E15.24196
G1 X115.815 Y87.132 E15.29523
G1 X116.282 Y87.256 E15.31772
G1 X117.379 Y87.589 E15.37111
G1 X117.827 Y87.741 E15.39314
G1 X118.901 Y88.148 E15.44662
G1 X119.348 Y88.336 E15.4692
G1 X120.386 Y88.814 E15.52241
G1 X120.825 Y89.035 E15.54529
G1 X121.831 Y89.587 E15.59873
G1 X122.239 Y89.829 E15.62082
G1 X123.204 Y90.447 E15.67417
G1 X123.601 Y90.721 E15.69664
G1 X124.52 Y91.403 E15.74992
G1 X124.895 Y91.702 E15.77226
G1 X125.767 Y92.447 E15.82566
G1 X126.133 Y92.783 E15.8488
G1 X126.949 Y93.587 E15.90214
G1 X127.279 Y93.935 E15.92447
G1 X128.038 Y94.793 E15.97781
G1 X128.342 Y95.161 E16.00004
G1 X129.041 Y96.069 E16.0534
G1 X129.328 Y96.47 E16.07636
G1 X129.962 Y97.426 E16.12977
G1 X130.209 Y97.827 E16.1517
G1 X130.777 Y98.823 E16.20509
G1 X131.004 Y99.256 E16.22786
G1 X131.5 Y100.287 E16.28113
G1 X131.693 Y100.725 E16.30342
G1 X132.118 Y101.789 E16.35677
G1 X132.283 Y102.249 E16.37952
G1 X132.633 Y103.341 E16.43292
G1 X132.764 Y103.803 E16.45528
G1 X133.038 Y104.915 E16.50861
G1 X133.138 Y105.393 E16.53135
G1 X133.334 Y106.522 E16.58471
G1 X133.399 Y106.993 E16.60685
G1 X133.518 Y108.134 E16.66026
G1 X133.552 Y108.622 E16.68304
G1 X133.591 Y109.766 E16.73634
G1 X133.591 Y110.242 E16.75851
G1 X133.552 Y111.387 E16.81185
G1 X133.518 Y111.881 E16.83491
G1 X133.398 Y113.022 E16.88833
G1 X133.332 Y113.492 E16.91043
G1 X133.135 Y114.622 E16.96384
G1 X133.035 Y115.096 E16.9864
G1 X132.761 Y116.207 E17.03969
G1 X132.629 Y116.673 E17.06224
G1 X132.278 Y117.765 E17.11565
G1 X132.114 Y118.222 E17.13826
G1 X131.689 Y119.285 E17.19156
G1 X131.496 Y119.723 E17.21385
G1 X130.999 Y120.755 E17.26719
G1 X130.77 Y121.19 E17.29008
G1 X130.201 Y122.186 E17.34349
G1 X129.953 Y122.588 E17.36549
G1 X129.319 Y123.542 E17.41882
G1 X129.036 Y123.938 E17.44149
G1 X128.337 Y124.846 E17.49484
G1 X128.027 Y125.22 E17.51746
G1 X127.267 Y126.077 E17.5708
G1 X126.937 Y126.425 E17.59313
G1 X126.12 Y127.228 E17.64647
G1 X125.76 Y127.558 E17.66921
G1 X124.888 Y128.303 E17.72262
G1 X124.514 Y128.601 E17.74489
G1 X123.594 Y129.284 E17.79824
G1 X123.192 Y129.562 E17.821
G1 X122.227 Y130.179 E17.87433
G1 X121.821 Y130.419 E17.89629
G1 X120.814 Y130.971 E17.94977
G1 X120.37 Y131.195 E17.97292
G1 X119.331 Y131.672 E18.02616
G1 X118.885 Y131.858 E18.04866
G1 X117.811 Y132.264 E18.10212
G1 X117.364 Y132.416 E18.12411
G1 X116.267 Y132.748 E18.17748
G1 X115.8 Y132.872 E18.19998
G1 X114.685 Y133.127 E18.25324
G1 X114.198 Y133.22 E18.27632
G1 X113.064 Y133.396 E18.32976
G1 X112.595 Y133.453 E18.35176
G1 X111.453 Y133.552 E18.40513
G1 X110.97 Y133.577 E18.42765
G1 X109.827 Y133.597 E18.48089
G1 X109.339 Y133.588 E18.50361
G1 X108.193 Y133.528 E18.55705
G1 X107.709 Y133.486 E18.57967
G1 X106.573 Y133.347 E18.63296
G1 X106.111 Y133.275 E18.65473
G1 X104.984 Y133.06 E18.70816
G1 X104.495 Y132.948 E18.73152
G1 X103.387 Y132.653 E18.78491
G1 X102.929 Y132.514 E18.8072
G1 X101.844 Y132.144 E18.86057
G1 X101.393 Y131.973 E18.88303
G1 X100.338 Y131.53 E18.93631
G1 X99.905 Y131.331 E18.9585
G1 X98.88 Y130.816 E19.01192
G1 X98.451 Y130.581 E19.03469
G1 X97.465 Y129.996 E19.08808
G1 X97.057 Y129.735 E19.11063
G1 X96.115 Y129.084 E19.16395
G1 X95.726 Y128.794 E19.18654
G1 X94.831 Y128.079 E19.23988
G1 X94.462 Y127.763 E19.26251
G1 X93.618 Y126.987 E19.31589
G1 X93.28 Y126.654 E19.33799
G1 X92.491 Y125.823 E19.39135
G1 X92.172 Y125.464 E19.41371
G1 X91.441 Y124.58 E19.46712
G1 X91.146 Y124.196 E19.48967
G1 X90.479 Y123.265 E19.543
