;FLAVOR:Marlin
;TIME:1156
;Filament used: 0.588637m
;Layer height: 0.28
;MINX:86.805
;MINY:86.805
;MINZ:0.28
;MAXX:133.195
;MAXY:133.195
;MAXZ:29.96
;Generated with Cura_SteamEngine 5.2.1
M82 ;absolute extrusion mode
; Ender 3 Custom Start G-code
G92 E0 ; Reset Extruder
G28 ; Home all axes
M104 S175 ; Start heating up the nozzle most of the way
M190 S60 ; Start heating the bed, wait until target temperature reached
M109 S200 ; Finish heating the nozzle
G1 Z2.0 F3000 ; Move Z Axis up little to prevent scratching of Heat Bed
G1 X0.1 Y20 Z0.3 F5000.0 ; Move to start position
G1 X0.1 Y200.0 Z0.3 F1500.0 E15 ; Draw the first line
G1 X0.4 Y200.0 Z0.3 F5000.0 ; Move to side a little
G1 X0.4 Y20 Z0.3 F1500.0 E30 ; Draw the second line
G92 E0 ; Reset Extruder
G1 Z2.0 F3000 ; Move Z Axis up little to prevent scratching of Heat Bed
G1 X5 Y20 Z0.3 F5000.0 ; Move over to prevent blob squish
G92 E0
G92 E0
G1 F1500 E-6.5
;LAYER_COUNT:107
;LAYER:0
M107
G0 F6000 X93.418 Y93.781 Z0.28
;TYPE:SKIRT
G1 F1500 E0
G1 F1200 X93.794 Y93.405 E0.02476
G1 X94.598 Y92.655 E0.07596
G1 X95.02 Y92.29 E0.10194
G1 X95.876 Y91.599 E0.15316
G1 X96.333 Y91.257 E0.17974
G1 X97.235 Y90.632 E0.23084
G1 X97.698 Y90.334 E0.25648
G1 X98.644 Y89.773 E0.30769
G1 X99.138 Y89.504 E0.33388
G1 X100.123 Y89.012 E0.38515
G1 X100.623 Y88.784 E0.41074
G1 X101.637 Y88.364 E0.46185
G1 X102.162 Y88.168 E0.48794
G1 X103.206 Y87.821 E0.53917
G1 X103.736 Y87.666 E0.56488
G1 X104.801 Y87.394 E0.61607
G1 X105.356 Y87.273 E0.64252
G1 X106.439 Y87.079 E0.69375
G1 X106.977 Y87.002 E0.71905
G1 X108.07 Y86.884 E0.77024
G1 X108.63 Y86.844 E0.79639
G1 X109.728 Y86.805 E0.84755
G1 X110.282 Y86.805 E0.87334
G1 X111.38 Y86.844 E0.9245
G1 X111.947 Y86.885 E0.95097
G1 X113.04 Y87.004 E1.00217
G1 X113.571 Y87.08 E1.02715
G1 X114.654 Y87.274 E1.07838
G1 X115.216 Y87.396 E1.10516
G1 X116.281 Y87.669 E1.15635
G1 X116.813 Y87.826 E1.18218
G1 X117.856 Y88.174 E1.23338
G1 X118.38 Y88.37 E1.25943
G1 X119.393 Y88.791 E1.31051
G1 X119.885 Y89.016 E1.3357
G1 X120.87 Y89.508 E1.38697
G1 X121.369 Y89.78 E1.41343
G1 X122.315 Y90.342 E1.46467
G1 X122.786 Y90.646 E1.49077
G1 X123.687 Y91.273 E1.54189
G1 X124.123 Y91.599 E1.56724
G1 X124.979 Y92.288 E1.6184
G1 X125.416 Y92.667 E1.64534
G1 X126.219 Y93.418 E1.69653
G1 X126.595 Y93.794 E1.72129
G1 X127.345 Y94.598 E1.77249
G1 X127.71 Y95.02 E1.79847
G1 X128.401 Y95.876 E1.8497
G1 X128.743 Y96.333 E1.87628
G1 X129.368 Y97.235 E1.92737
G1 X129.666 Y97.698 E1.95301
G1 X130.227 Y98.644 E2.00423
G1 X130.495 Y99.135 E2.03027
G1 X130.987 Y100.119 E2.0815
G1 X131.217 Y100.625 E2.10738
G1 X131.637 Y101.64 E2.15853
G1 X131.831 Y102.16 E2.18437
G1 X132.178 Y103.203 E2.23556
G1 X132.335 Y103.737 E2.26148
G1 X132.607 Y104.803 E2.3127
G1 X132.726 Y105.353 E2.33891
G1 X132.92 Y106.434 E2.39005
G1 X132.998 Y106.976 E2.41554
G1 X133.116 Y108.07 E2.46678
G1 X133.156 Y108.629 E2.49288
G1 X133.195 Y109.727 E2.54404
G1 X133.195 Y110.281 E2.56983
G1 X133.156 Y111.38 E2.62104
G1 X133.115 Y111.947 E2.64751
G1 X132.996 Y113.04 E2.69871
G1 X132.92 Y113.571 E2.72368
G1 X132.726 Y114.654 E2.77492
G1 X132.604 Y115.216 E2.80169
G1 X132.331 Y116.281 E2.85289
G1 X132.175 Y116.811 E2.87861
G1 X131.828 Y117.852 E2.92971
G1 X131.63 Y118.379 E2.95592
G1 X131.208 Y119.394 E3.00711
G1 X130.984 Y119.885 E3.03224
G1 X130.492 Y120.87 E3.08351
G1 X130.221 Y121.367 E3.10987
G1 X129.66 Y122.312 E3.16104
G1 X129.354 Y122.787 E3.18735
G1 X128.726 Y123.689 E3.23853
G1 X128.401 Y124.123 E3.26377
G1 X127.712 Y124.979 E3.31494
G1 X127.333 Y125.416 E3.34188
G1 X126.582 Y126.219 E3.39307
G1 X126.206 Y126.595 E3.41783
G1 X125.402 Y127.345 E3.46903
G1 X124.98 Y127.71 E3.49501
G1 X124.124 Y128.401 E3.54624
G1 X123.667 Y128.743 E3.57281
G1 X122.765 Y129.368 E3.62391
G1 X122.302 Y129.666 E3.64955
G1 X121.356 Y130.227 E3.70076
G1 X120.862 Y130.496 E3.72696
G1 X119.877 Y130.988 E3.77823
G1 X119.377 Y131.216 E3.80381
G1 X118.363 Y131.636 E3.85492
G1 X117.838 Y131.832 E3.88101
G1 X116.794 Y132.179 E3.93224
G1 X116.264 Y132.334 E3.95796
G1 X115.199 Y132.606 E4.00914
G1 X114.644 Y132.727 E4.03559
G1 X113.561 Y132.921 E4.08682
G1 X113.023 Y132.998 E4.11213
G1 X111.93 Y133.116 E4.16332
G1 X111.37 Y133.156 E4.18946
G1 X110.272 Y133.195 E4.24062
G1 X109.718 Y133.195 E4.26642
G1 X108.62 Y133.156 E4.31758
G1 X108.053 Y133.115 E4.34405
G1 X106.96 Y132.996 E4.39524
G1 X106.429 Y132.92 E4.42022
G1 X105.346 Y132.726 E4.47145
G1 X104.784 Y132.604 E4.49823
G1 X103.719 Y132.331 E4.54942
G1 X103.187 Y132.174 E4.57525
G1 X102.144 Y131.826 E4.62645
G1 X101.62 Y131.63 E4.6525
G1 X100.607 Y131.209 E4.70358
G1 X100.115 Y130.984 E4.72877
G1 X99.13 Y130.492 E4.78004
G1 X98.631 Y130.22 E4.80651
G1 X97.685 Y129.658 E4.85774
G1 X97.214 Y129.354 E4.88385
G1 X96.313 Y128.727 E4.93496
G1 X95.876 Y128.401 E4.96035
G1 X95.019 Y127.711 E5.01158
G1 X94.583 Y127.332 E5.03848
G1 X93.78 Y126.581 E5.08967
G1 X93.404 Y126.205 E5.11443
G1 X92.654 Y125.401 E5.16563
G1 X92.288 Y124.979 E5.19164
G1 X91.598 Y124.124 E5.2428
G1 X91.258 Y123.669 E5.26925
G1 X90.632 Y122.766 E5.32041
G1 X90.332 Y122.298 E5.3463
G1 X89.772 Y121.353 E5.39745
G1 X89.504 Y120.862 E5.4235
G1 X89.012 Y119.877 E5.47476
G1 X88.784 Y119.378 E5.50031
G1 X88.363 Y118.362 E5.55152
G1 X88.166 Y117.834 E5.57776
G1 X87.82 Y116.792 E5.62889
G1 X87.666 Y116.264 E5.6545
G1 X87.394 Y115.199 E5.70568
G1 X87.273 Y114.644 E5.73213
G1 X87.079 Y113.561 E5.78336
G1 X87.002 Y113.023 E5.80867
G1 X86.884 Y111.93 E5.85986
G1 X86.844 Y111.37 E5.886
G1 X86.805 Y110.273 E5.93711
G1 X86.805 Y109.719 E5.96291
G1 X86.844 Y108.62 E6.01412
G1 X86.885 Y108.053 E6.04059
G1 X87.004 Y106.96 E6.09178
G1 X87.08 Y106.429 E6.11676
G1 X87.274 Y105.346 E6.16799
G1 X87.396 Y104.784 E6.19477
G1 X87.669 Y103.719 E6.24597
G1 X87.825 Y103.189 E6.27169
G1 X88.172 Y102.148 E6.32279
G1 X88.37 Y101.621 E6.349
G1 X88.792 Y100.606 E6.40019
G1 X89.016 Y100.115 E6.42532
G1 X89.508 Y99.13 E6.47658
G1 X89.779 Y98.633 E6.50294
G1 X90.34 Y97.688 E6.55412
G1 X90.646 Y97.213 E6.58043
G1 X91.274 Y96.311 E6.6316
G1 X91.599 Y95.877 E6.65685
G1 X92.288 Y95.021 E6.70802
G1 X92.667 Y94.584 E6.73495
G1 X93.418 Y93.781 E6.78615
G0 F6000 X93.71 Y94.054
G1 F1200 X94.067 Y93.698 E6.80963
G1 X94.871 Y92.948 E6.86082
G1 X95.271 Y92.601 E6.88548
G1 X96.127 Y91.91 E6.93671
G1 X96.56 Y91.585 E6.96192
G1 X97.462 Y90.96 E7.01301
G1 X97.902 Y90.678 E7.03735
G1 X98.848 Y90.117 E7.08856
G1 X99.316 Y89.862 E7.11338
G1 X100.301 Y89.37 E7.16465
G1 X100.776 Y89.153 E7.18896
G1 X101.79 Y88.733 E7.24007
G1 X102.288 Y88.548 E7.26481
G1 X103.332 Y88.201 E7.31604
G1 X103.835 Y88.053 E7.34045
G1 X104.9 Y87.781 E7.39163
G1 X105.426 Y87.667 E7.41669
G1 X106.509 Y87.473 E7.46793
G1 X107.02 Y87.4 E7.49196
G1 X108.113 Y87.282 E7.54315
G1 X108.644 Y87.244 E7.56794
G1 X109.742 Y87.205 E7.6191
G1 X110.268 Y87.205 E7.64359
G1 X111.366 Y87.244 E7.69475
G1 X111.904 Y87.282 E7.71987
G1 X112.997 Y87.401 E7.77106
G1 X113.501 Y87.474 E7.79478
G1 X114.584 Y87.668 E7.84601
G1 X115.116 Y87.784 E7.87136
G1 X116.181 Y88.057 E7.92256
G1 X116.686 Y88.205 E7.94706
G1 X117.729 Y88.553 E7.99826
G1 X118.227 Y88.74 E8.02303
G1 X119.24 Y89.161 E8.07411
G1 X119.707 Y89.374 E8.09801
G1 X120.692 Y89.866 E8.14928
G1 X121.165 Y90.124 E8.17437
G1 X122.111 Y90.686 E8.2256
G1 X122.558 Y90.974 E8.25036
G1 X123.459 Y91.601 E8.30148
G1 X123.872 Y91.91 E8.3255
G1 X124.728 Y92.599 E8.37666
G1 X125.143 Y92.959 E8.40224
G1 X125.946 Y93.71 E8.45344
G1 X126.302 Y94.067 E8.47692
G1 X127.052 Y94.871 E8.52811
G1 X127.399 Y95.271 E8.55277
G1 X128.09 Y96.127 E8.604
G1 X128.415 Y96.56 E8.62921
G1 X129.04 Y97.462 E8.6803
G1 X129.322 Y97.902 E8.70464
G1 X129.883 Y98.848 E8.75585
G1 X130.137 Y99.314 E8.78056
G1 X130.629 Y100.298 E8.83179
G1 X130.848 Y100.778 E8.85636
G1 X131.268 Y101.793 E8.90751
G1 X131.452 Y102.286 E8.93201
G1 X131.799 Y103.329 E8.9832
G1 X131.947 Y103.835 E9.00774
G1 X132.219 Y104.901 E9.05897
G1 X132.333 Y105.424 E9.0839
G1 X132.527 Y106.505 E9.13504
G1 X132.6 Y107.018 E9.15916
G1 X132.718 Y108.112 E9.2104
G1 X132.756 Y108.643 E9.23519
G1 X132.795 Y109.741 E9.28635
G1 X132.795 Y110.266 E9.3108
G1 X132.756 Y111.365 E9.362
G1 X132.718 Y111.904 E9.38716
G1 X132.599 Y112.997 E9.43836
G1 X132.526 Y113.501 E9.46207
G1 X132.332 Y114.584 E9.5133
G1 X132.216 Y115.116 E9.53866
G1 X131.943 Y116.181 E9.58985
G1 X131.795 Y116.684 E9.61427
G1 X131.448 Y117.725 E9.66536
G1 X131.261 Y118.226 E9.69026
G1 X130.839 Y119.241 E9.74145
G1 X130.626 Y119.707 E9.76531
G1 X130.134 Y120.692 E9.81657
G1 X129.877 Y121.163 E9.84156
G1 X129.316 Y122.108 E9.89273
G1 X129.026 Y122.558 E9.91766
G1 X128.398 Y123.46 E9.96884
G1 X128.09 Y123.872 E9.99279
G1 X127.401 Y124.728 E10.04396
G1 X127.041 Y125.143 E10.06954
G1 X126.29 Y125.946 E10.12073
G1 X125.933 Y126.302 E10.14421
G1 X125.129 Y127.052 E10.19541
G1 X124.729 Y127.399 E10.22007
G1 X123.873 Y128.09 E10.27129
G1 X123.44 Y128.415 E10.2965
G1 X122.538 Y129.04 E10.3476
G1 X122.098 Y129.322 E10.37193
G1 X121.152 Y129.883 E10.42315
G1 X120.684 Y130.138 E10.44796
G1 X119.699 Y130.63 E10.49923
G1 X119.224 Y130.847 E10.52355
G1 X118.21 Y131.267 E10.57466
G1 X117.712 Y131.452 E10.59939
G1 X116.668 Y131.799 E10.65062
G1 X116.165 Y131.947 E10.67504
G1 X115.1 Y132.219 E10.72622
G1 X114.574 Y132.333 E10.75128
G1 X113.491 Y132.527 E10.80251
G1 X112.98 Y132.6 E10.82655
G1 X111.887 Y132.718 E10.87774
G1 X111.356 Y132.756 E10.90253
G1 X110.258 Y132.795 E10.95369
G1 X109.732 Y132.795 E10.97818
G1 X108.634 Y132.756 E11.02934
G1 X108.096 Y132.718 E11.05445
G1 X107.003 Y132.599 E11.10565
G1 X106.499 Y132.526 E11.12936
G1 X105.416 Y132.332 E11.18059
G1 X104.884 Y132.216 E11.20595
G1 X103.819 Y131.943 E11.25714
G1 X103.314 Y131.795 E11.28165
G1 X102.271 Y131.447 E11.33284
G1 X101.773 Y131.26 E11.35761
G1 X100.76 Y130.839 E11.40869
G1 X100.293 Y130.626 E11.4326
G1 X99.308 Y130.134 E11.48386
G1 X98.835 Y129.876 E11.50895
G1 X97.889 Y129.314 E11.56019
G1 X97.442 Y129.026 E11.58495
G1 X96.541 Y128.399 E11.63606
G1 X96.127 Y128.089 E11.66015
G1 X95.27 Y127.399 E11.71138
G1 X94.856 Y127.04 E11.73689
G1 X94.053 Y126.289 E11.78809
G1 X93.697 Y125.932 E11.81157
G1 X92.947 Y125.128 E11.86276
G1 X92.599 Y124.727 E11.88749
G1 X91.909 Y123.872 E11.93865
G1 X91.586 Y123.441 E11.96373
G1 X90.96 Y122.538 E12.01489
G1 X90.676 Y122.095 E12.03939
G1 X90.116 Y121.15 E12.09054
G1 X89.862 Y120.684 E12.11525
G1 X89.37 Y119.699 E12.16652
G1 X89.154 Y119.225 E12.19078
G1 X88.733 Y118.209 E12.24199
G1 X88.546 Y117.708 E12.26689
G1 X88.2 Y116.666 E12.31801
G1 X88.053 Y116.165 E12.34233
G1 X87.781 Y115.1 E12.39351
G1 X87.667 Y114.574 E12.41857
G1 X87.473 Y113.491 E12.4698
G1 X87.4 Y112.98 E12.49384
G1 X87.282 Y111.887 E12.54503
G1 X87.244 Y111.356 E12.56982
G1 X87.205 Y110.259 E12.62093
G1 X87.205 Y109.734 E12.64538
G1 X87.244 Y108.635 E12.69658
G1 X87.282 Y108.096 E12.72174
G1 X87.401 Y107.003 E12.77294
G1 X87.474 Y106.499 E12.79665
G1 X87.668 Y105.416 E12.84788
G1 X87.784 Y104.884 E12.87324
G1 X88.057 Y103.819 E12.92443
G1 X88.205 Y103.316 E12.94885
G1 X88.552 Y102.275 E12.99994
G1 X88.739 Y101.774 E13.02484
G1 X89.161 Y100.759 E13.07603
G1 X89.374 Y100.293 E13.09988
G1 X89.866 Y99.308 E13.15115
G1 X90.123 Y98.837 E13.17614
G1 X90.684 Y97.892 E13.22731
G1 X90.974 Y97.442 E13.25224
G1 X91.602 Y96.54 E13.30342
G1 X91.91 Y96.128 E13.32737
G1 X92.599 Y95.272 E13.37854
G1 X92.959 Y94.857 E13.40412
G1 X93.71 Y94.054 E13.45531
G0 F6000 X94.002 Y94.328
G1 F1200 X94.34 Y93.99 E13.47757
G1 X95.144 Y93.24 E13.52877
G1 X95.522 Y92.912 E13.55207
G1 X96.378 Y92.221 E13.6033
G1 X96.788 Y91.914 E13.62715
G1 X97.69 Y91.289 E13.67825
G1 X98.106 Y91.022 E13.70126
G1 X99.052 Y90.461 E13.75248
G1 X99.495 Y90.22 E13.77596
G1 X100.48 Y89.728 E13.82723
G1 X100.929 Y89.523 E13.85021
G1 X101.943 Y89.103 E13.90132
G1 X102.414 Y88.927 E13.92473
G1 X103.458 Y88.58 E13.97596
G1 X103.934 Y88.441 E13.99905
G1 X104.999 Y88.169 E14.05023
G1 X105.497 Y88.061 E14.07396
G1 X106.58 Y87.867 E14.12519
G1 X107.063 Y87.797 E14.14792
G1 X108.156 Y87.679 E14.19911
G1 X108.659 Y87.643 E14.22259
G1 X109.757 Y87.604 E14.27375
G1 X110.253 Y87.604 E14.29684
G1 X111.351 Y87.643 E14.348
G1 X111.861 Y87.68 E14.37181
G1 X112.954 Y87.799 E14.42301
G1 X113.43 Y87.868 E14.44541
G1 X114.513 Y88.062 E14.49664
G1 X115.017 Y88.171 E14.52065
G1 X116.082 Y88.444 E14.57184
G1 X116.56 Y88.585 E14.59505
G1 X117.603 Y88.933 E14.64625
G1 X118.073 Y89.109 E14.66962
G1 X119.086 Y89.53 E14.7207
G1 X119.528 Y89.732 E14.74333
G1 X120.513 Y90.224 E14.7946
G1 X120.96 Y90.468 E14.81831
G1 X121.906 Y91.03 E14.86955
G1 X122.329 Y91.302 E14.89296
G1 X123.23 Y91.929 E14.94408
G1 X123.621 Y92.222 E14.96683
G1 X124.477 Y92.911 E15.01799
G1 X124.869 Y93.251 E15.04216
G1 X125.672 Y94.002 E15.09335
G1 X126.01 Y94.34 E15.11561
G1 X126.76 Y95.144 E15.16681
G1 X127.088 Y95.522 E15.19011
G1 X127.779 Y96.378 E15.24134
G1 X128.086 Y96.788 E15.26519
G1 X128.711 Y97.69 E15.31628
G1 X128.978 Y98.106 E15.3393
G1 X129.539 Y99.052 E15.39052
G1 X129.779 Y99.493 E15.41389
G1 X130.271 Y100.477 E15.46512
G1 X130.478 Y100.931 E15.48836
G1 X130.898 Y101.946 E15.5395
G1 X131.072 Y102.412 E15.56267
G1 X131.419 Y103.455 E15.61385
G1 X131.56 Y103.934 E15.6371
G1 X131.832 Y105 E15.68833
G1 X131.939 Y105.495 E15.71191
G1 X132.133 Y106.576 E15.76305
G1 X132.203 Y107.061 E15.78587
G1 X132.321 Y108.155 E15.8371
G1 X132.357 Y108.658 E15.86059
G1 X132.396 Y109.756 E15.91175
G1 X132.396 Y110.252 E15.93484
G1 X132.357 Y111.351 E15.98605
G1 X132.32 Y111.861 E16.00986
G1 X132.201 Y112.954 E16.06105
G1 X132.132 Y113.43 E16.08345
G1 X131.938 Y114.513 E16.13468
G1 X131.829 Y115.017 E16.15869
G1 X131.556 Y116.082 E16.20989
G1 X131.416 Y116.558 E16.23299
G1 X131.069 Y117.599 E16.28409
G1 X130.892 Y118.072 E16.3076
G1 X130.47 Y119.087 E16.35879
G1 X130.268 Y119.528 E16.38137
G1 X129.776 Y120.513 E16.43264
G1 X129.533 Y120.958 E16.45625
G1 X128.972 Y121.903 E16.50742
G1 X128.698 Y122.33 E16.53105
G1 X128.07 Y123.232 E16.58223
G1 X127.778 Y123.621 E16.60488
G1 X127.089 Y124.477 E16.65604
G1 X126.749 Y124.869 E16.6802
G1 X125.998 Y125.672 E16.7314
G1 X125.66 Y126.01 E16.75366
G1 X124.856 Y126.76 E16.80486
G1 X124.478 Y127.088 E16.82816
G1 X123.622 Y127.779 E16.87938
G1 X123.212 Y128.086 E16.90323
G1 X122.31 Y128.711 E16.95433
G1 X121.894 Y128.978 E16.97735
G1 X120.948 Y129.539 E17.02856
G1 X120.505 Y129.78 E17.05205
G1 X119.52 Y130.272 E17.10332
G1 X119.071 Y130.477 E17.1263
G1 X118.057 Y130.897 E17.1774
G1 X117.586 Y131.073 E17.20082
G1 X116.542 Y131.42 E17.25205
G1 X116.066 Y131.559 E17.27514
G1 X115.001 Y131.831 E17.32632
G1 X114.503 Y131.939 E17.35005
G1 X113.42 Y132.133 E17.40128
G1 X112.937 Y132.203 E17.424
G1 X111.844 Y132.321 E17.47519
G1 X111.341 Y132.357 E17.49868
G1 X110.243 Y132.396 E17.54984
G1 X109.747 Y132.396 E17.57293
G1 X108.649 Y132.357 E17.62409
G1 X108.139 Y132.32 E17.6479
G1 X107.046 Y132.201 E17.6991
G1 X106.57 Y132.132 E17.72149
G1 X105.487 Y131.938 E17.77272
G1 X104.983 Y131.829 E17.79674
G1 X103.918 Y131.556 E17.84793
G1 X103.44 Y131.415 E17.87114
G1 X102.397 Y131.067 E17.92233
G1 X101.927 Y130.891 E17.9457
G1 X100.914 Y130.47 E17.99678
G1 X100.472 Y130.268 E18.01941
G1 X99.487 Y129.776 E18.07068
G1 X99.04 Y129.532 E18.0944
G1 X98.094 Y128.97 E18.14563
G1 X97.671 Y128.698 E18.16905
G1 X96.77 Y128.071 E18.22016
G1 X96.378 Y127.777 E18.24298
G1 X95.521 Y127.087 E18.29421
G1 X95.13 Y126.748 E18.31831
G1 X94.327 Y125.997 E18.3695
G1 X93.989 Y125.659 E18.39176
G1 X93.239 Y124.855 E18.44296
G1 X92.911 Y124.476 E18.4663
G1 X92.221 Y123.621 E18.51746
G1 X91.915 Y123.213 E18.54121
G1 X91.289 Y122.31 E18.59237
G1 X91.02 Y121.891 E18.61555
G1 X90.46 Y120.946 E18.6667
G1 X90.22 Y120.505 E18.69008
G1 X89.728 Y119.52 E18.74135
G1 X89.523 Y119.072 E18.76429
G1 X89.102 Y118.056 E18.8155
G1 X88.926 Y117.582 E18.83905
G1 X88.58 Y116.54 E18.89017
G1 X88.441 Y116.066 E18.91317
G1 X88.169 Y115.001 E18.96435
G1 X88.061 Y114.503 E18.98808
G1 X87.867 Y113.42 E19.03931
G1 X87.797 Y112.937 E19.06204
G1 X87.679 Y111.844 E19.11323
G1 X87.643 Y111.342 E19.13666
G1 X87.604 Y110.245 E19.18778
G1 X87.604 Y109.748 E19.21092
